/* XPM */
static char * ixcoin128_xpm[] = {
"128 128 256 2",
"  	c None",
" !	c #FEEAB7",
" #	c #FEE6AC",
" $	c #FEE5A9",
" %	c #FEE4A6",
" &	c #FEE4A4",
" '	c #FEE3A3",
" (	c #FEE2A1",
" )	c #FEE29F",
" *	c #FDE19D",
" +	c #FDE09B",
" ,	c #FEE098",
" -	c #FDDF99",
" .	c #FEDF96",
" /	c #FDDE96",
" 0	c #FDDD94",
" 1	c #FCDE94",
" 2	c #FCDC92",
" 3	c #FDDD90",
" 4	c #FCDC90",
" 5	c #FDDC8C",
" 6	c #F6DC8D",
" 7	c #FFDB92",
" 8	c #FCDB8D",
" 9	c #FCDA8C",
" :	c #FCDA8A",
" ;	c #F8DA8A",
" <	c #FCD98A",
" =	c #FCD988",
" >	c #FFD58E",
" ?	c #F8D889",
" @	c #FDE75C",
" A	c #FCD887",
" B	c #FBD887",
" C	c #FBD886",
" D	c #FDD87E",
" E	c #F8D886",
" F	c #FCD785",
" G	c #FBD784",
" H	c #FBD783",
" I	c #FED776",
" J	c #F7D786",
" K	c #FBD682",
" L	c #FBD681",
" M	c #FBD67F",
" N	c #FBD57F",
" O	c #FDD675",
" P	c #F7D684",
" Q	c #FBD47E",
" R	c #FBD47C",
" S	c #FBD47A",
" T	c #FCD479",
" U	c #FBD378",
" V	c #FBD377",
" W	c #FBD277",
" X	c #FDD36F",
" Y	c #FBD174",
" Z	c #FCD16A",
" [	c #F6D37F",
" ]	c #F7D279",
" ^	c #FAD073",
" _	c #FAD072",
" `	c #FAD070",
" a	c #FACF6F",
" b	c #FACF6B",
" c	c #FACE6B",
" d	c #F5CF75",
" e	c #FACC69",
" f	c #F9CB65",
" g	c #F9CA62",
" h	c #F4CC6D",
" i	c #F2C767",
" j	c #FACB5E",
" k	c #F9C95F",
" l	c #F9C85D",
" m	c #F9C75A",
" n	c #F8C657",
" o	c #F9C653",
" p	c #F3C65F",
" q	c #F8C554",
" r	c #F8C454",
" s	c #F8C451",
" t	c #F9C44B",
" u	c #F7C34F",
" v	c #F2C45B",
" w	c #F7C14E",
" x	c #F6C049",
" y	c #F6BF45",
" z	c #F6BE43",
" {	c #F5BD41",
" |	c #EEC05B",
" }	c #F0BE4C",
" ~	c #EFBA46",
"! 	c #E5B85A",
"!!	c #F7BD3B",
"!#	c #F5BB3E",
"!$	c #F4BA3C",
"!%	c #F4B93A",
"!&	c #F2B73A",
"!'	c #F6B72E",
"!(	c #F0B63A",
"!)	c #ECB43E",
"!*	c #F0B437",
"!+	c #ECB336",
"!,	c #EFB334",
"!-	c #EFB132",
"!.	c #EEB032",
"!/	c #ECB133",
"!0	c #EDAF30",
"!1	c #F5B427",
"!2	c #F3B325",
"!3	c #F2B024",
"!4	c #EFAF27",
"!5	c #EFAD23",
"!6	c #ECAE2B",
"!7	c #EFAB23",
"!8	c #EDAA22",
"!9	c #ECAB26",
"!:	c #ECA921",
"!;	c #EBA924",
"!<	c #EAAA24",
"!=	c #EAA823",
"!>	c #EAA720",
"!?	c #E9A621",
"!@	c #E9A51F",
"!A	c #E1B256",
"!B	c #E4AF45",
"!C	c #E6A729",
"!D	c #DDA741",
"!E	c #E8A420",
"!F	c #E7A31F",
"!G	c #E6A21E",
"!H	c #E1A327",
"!I	c #E5A11E",
"!J	c #E5A01D",
"!K	c #E3A121",
"!L	c #E49F1D",
"!M	c #E39F1D",
"!N	c #E39E1D",
"!O	c #E29E1C",
"!P	c #E29D1C",
"!Q	c #E09F1D",
"!R	c #D79F36",
"!S	c #E19C1B",
"!T	c #E09B1B",
"!U	c #DB9A26",
"!V	c #DF9A1B",
"!W	c #DF991A",
"!X	c #DE981A",
"!Y	c #DB9A18",
"!Z	c #DD9719",
"![	c #DC9619",
"!]	c #DC9519",
"!^	c #DB961B",
"!_	c #DB9518",
"!`	c #D9961C",
"!a	c #D89617",
"!b	c #DA931C",
"!c	c #DA9418",
"!d	c #D89218",
"!e	c #D99317",
"!f	c #D99217",
"!g	c #D89217",
"!h	c #D79119",
"!i	c #D89117",
"!j	c #D79016",
"!k	c #D69623",
"!l	c #D68F16",
"!m	c #D68E17",
"!n	c #D68E15",
"!o	c #D4941E",
"!p	c #D39019",
"!q	c #CC9120",
"!r	c #D68D15",
"!s	c #D58D16",
"!t	c #D58D15",
"!u	c #D58C15",
"!v	c #D48D17",
"!w	c #D48C14",
"!x	c #CE8D16",
"!y	c #D38B14",
"!z	c #D28B15",
"!{	c #D38A15",
"!|	c #D28A14",
"!}	c #D28A13",
"!~	c #D28914",
"# 	c #D18A18",
"#!	c #D18913",
"##	c #D18912",
"#$	c #D08812",
"#%	c #CA8916",
"#&	c #CF8712",
"#'	c #CF8612",
"#(	c #CD8616",
"#)	c #CE8511",
"#*	c #CD8411",
"#+	c #CC8310",
"#,	c #CC8210",
"#-	c #CD800F",
"#.	c #C78612",
"#/	c #C38211",
"#0	c #C7800F",
"#1	c #C77F0F",
"#2	c #C77D0E",
"#3	c #C67C0D",
"#4	c #C07D0F",
"#5	c #C47A0D",
"#6	c #BB7B10",
"#7	c #B8760D",
"#8	c #B5730C",
"#9	c #B36F0A",
"#:	c #AF6E0C",
"#;	c #AD6A0A",
"#<	c #A47F37",
"#=	c #9B7020",
"#>	c #AA6809",
"#?	c #A86609",
"#@	c #A66408",
"#A	c #A46207",
"#B	c #A36107",
"#C	c #A16007",
"#D	c #A05E07",
"#E	c #98640E",
"#F	c #875D13",
"#G	c #754E0E",
"#H	c #4D2F05",
"#I	c #482A02",
"#J	c #462902",
"#K	c #442802",
"#L	c #432702",
"#M	c #412602",
"#N	c #402502",
"#O	c #3F2401",
"#P	c #3E2401",
"#Q	c #3D2301",
"#R	c #3A2201",
"#S	c #392101",
"#T	c #382001",
"#U	c #361F01",
"#V	c #341E01",
"#W	c #331D01",
"#X	c #321D01",
"#Y	c #311C01",
"#Z	c #2F1B01",
"#[	c #2E1A01",
"#]	c #2D1A01",
"#^	c #2D1901",
"#_	c #2C1900",
"#`	c #2A1800",
"#a	c #291700",
"#b	c #271600",
"#c	c #261500",
"#d	c #241400",
"#e	c #231300",
"#f	c #FF0000",
"#g	c #000000",
"                                                                                                                                                                                                                                                                ",
"                                                                                                                                                                                                                                                                ",
"                                                                                                                                                                                                                                                                ",
"                                                                                                                                                                                                                                                                ",
"                                                                                                                   ] ] d d d d d h h h h h h h                                                                                                                  ",
"                                                                                                       [ [ [ ] ] ] ] d d d d d h h h h h h i i i i i i p p                                                                                                      ",
"                                                                                               P P [ [ [ [ ] ] ] ] d d d d d h h h h h h i i i i i p p p p v v v v                                                                                              ",
"                                                                                         J P P P [ [ [ [ ] ] ] d d d d d h h h h h h i i i i i i p p p p v v v v v | | }                                                                                        ",
"                                                                                   ? E P P P [ [ [ [ ] ] ] ] d h i! ! !A!A!A!A!A!A!A!A!A!A!A!A!  | v v v v v v v | r } } } } }                                                                                  ",
"                                                                               E J J P P P [ [ [ [ ] d! ! !A!A!  i h _ Y O I I I I I I O O _ h i! !A!A!A!B } v | | } } } } } } } }                                                                              ",
"                                                                           ? ? J P P P [ [ [ ] i! !A!  i Y I I I I I I I I I I I I I I I I I I I I I I Y i! !B!B!B } } } } } } ~ ~ ~ ~                                                                          ",
"                                                                       ? ? J J P P P [ [ i! !A i ` I I I I I I I I I I I I I I I I I I I I I I I I I I I I I I ` i!A!D!B } } ~ ~ ~ ~ ~ ~!)                                                                      ",
"                                                                   ? ? ? J P P P P d! !A | ` O O O O O O O D = 5 0 , ) & % $ $ # # $ $ % & ) , 0 5 = D O O O O O O O ` |!D!D!) ~ ~ ~!)!)!)!)!(                                                                  ",
"                                                                 ? ? J J P P P d! !  i X X X X X I : . ) $ # # # # # # # # ! ! ! ! ! ! # # # # # # # # $ ) . : I X X X X X i!A!D!)!)!)!)!)!)!(!(                                                                ",
"                                                             ; ? ? J J P P d! !  e X X X O F . & $ $ $ $ # # ! ! ! ! ! ! ! ! ! ! ! ! ! ! ! ! ! ! ! ! # # $ $ $ $ & . F O X X X e!A!D!+!)!(!(!(!+!+!+                                                            ",
"                                                           ? ? ? J P P [! !  f X X X H . & % % % $ # ! ! ! ! # # $ % % % % % % % % % % % % % % $ # # ! ! ! ! # $ % % % & . H X X X f!B!R!+!+!+!+!+!/!/                                                          ",
"                                                       ; ? ? J J P P i!A p X X O 5 ' % % % % # ! ! ! # $ % % % % % % % % % % % % % % % % % % % % % % % % $ # ! ! ! # % % % % ' 3 O X X p!D!C!+!/!/!/!0!0!0                                                      ",
"                                                     ? ? ? J P P d!A | Z Z T . ' ' ' ' % # ! ! # ' ' ' ' ' ' ' ' ' ' ' ' ' ' ' ' ' ' ' ' ' ' ' ' ' ' ' ' ' ' ' ' # ! ! # % ' ' ' ' . T Z Z! !R!0!0!0!0!6!6!6                                                    ",
"                                                   ? ? J J P P i!A g Z O 0 ( ( ( ( & # ! # & ( ( ( ( ( ( ( ( ( ( ( ( ( ( ( ( ( ( ( ( ( ( ( ( ( ( ( ( ( ( ( ( ( ( ( ( ' # ! # & ( ( ( ( . I Z g!D!H!6!6!6!6!9!9                                                  ",
"                                                 ? ? J P P [! !  f X 3 ) ) ) ) ' # ! $ ) ) ) ) ) ) ) ) ) ) ) ) ) ) ) ) ) ) ) ) ) ) ) ) ) ) ) ) ) ) ) ) ) ) ) ) ) ) ) ) ) ) $ ! # ' ) ) ) ) 3 X Z }!U!6!6!9!9!<!<                                                ",
"                                               ? J J P P d!A v f D + * * * * $ ! % * * * * * * * * * * * * * * * * * * * * * * * * * * * * * * * * * * * * * * * * * * * * * * % ! $ * * * * + H Z |!R!C!9!<!<!<!:                                              ",
"                                             ? J J P P d!A k X 2 + + + + ' # $ * + + + + + + + + + + + + + + + + + + + + + + + + + + + + + + + + + + + + + + + + + + + + + + + + * $ # ' + + + + 3 X k!R!K!<!:!:!>!>                                            ",
"                                           ? J P P P h!A j O . - - - + $ # ) - - - - - - - - - - - - - - - - - - - - - - - - - - - - - - - - - - - - - - - - - - - - - - - - - - - - ) # $ + - - - - T j!D!Q!>!>!>!>!@                                          ",
"                                         J J P P P i!A j H / / / / + # & . / / / / / / / / / / / / / / / / / / / / / / / / / / / / / / / / / / / / / / / / / / / / / / / / / / / / / / / ' # + / / / / H j!D!Q!>!>!@!@!@                                        ",
"                                       J P P P [! !A j A 0 0 0 0 ) # * 0 0 0 0 0 0 0 0 0 0 0 0 0 0 0 0 0 0 0 0 0 0 0 0 0 0 0 0 0 0 0 0 0 0 0 0 0 0 0 0 0 0 0 0 0 0 0 0 0 0 0 0 0 0 0 0 0 0 * # ) 0 0 0 0 A j!B!V!@!@!@!G!G                                      ",
"                                     J P P P [ i!A j A 2 2 2 2 ' $ 1 2 2 2 2 2 2 2 2 2 2 2 2 2 2 2 2 2 2 2 2 2 2 2 2 2 2 2 2 2 2 2 2 2 2 2 2 2 2 2 2 2 2 2 2 2 2 2 2 2 2 2 2 2 2 2 2 2 2 2 2 / $ ' 2 2 2 2 = j!B!Y!G!G!G!I!J                                    ",
"                                   P P P P [ i!B j A 4 4 4 3 ' ' 4 4 4 4 4 4 4 4 4 4 4 4 4 4 4 4 4 4 4 4 4 4 4 4 4 4 4 4 4 4 4 4 4 4 4 4 4 4 4 4 4 4 4 4 4 4 4 4 4 4 4 4 4 4 4 4 4 4 4 4 4 4 4 3 ' ' 3 4 4 4 A j!D!Y!G!I!J!J!O                                  ",
"                                 J P P [ [ h!B m L 8 8 8 4 ' ) 8 8 8 8 8 8 8 8 8 8 8 8 8 8 8 8 8 8 8 8 8 8 8 8 8 8 8 8 8 8 8 8 8 8 8 8 8 8 8 8 8 8 8 8 8 8 8 8 8 8 8 8 8 8 8 8 8 8 8 8 8 8 8 8 8 9 ) & 4 8 8 8 M m!R!Y!J!J!O!O!Q                                ",
"                                 P P [ [ d!B o T : : : 9 ' + < : : : : : : : : : : : : : : : : : : : : : : : : : : : : : : : : : : : : : : : : : : : : : : : : : : : : : : : : : : : : : : : : : : < + ' 9 : : : T o!R!Y!O!O!O!O                                ",
"                               P [ [ [ ]!A u b = = = < ( - = = = = = = = = = = = = = = = = = = = = = = = = = = = = = = = = = = = = = = = = = = = = = = = = = = = = = = = = = = = = = = = = = = = = = = - ( < = = = b s!k!S!O!O!S!S                              ",
"                             P [ [ [ [!A } j G C C C * + C C C C C C C C C C C C C C C C C C C C C C C C C C C C C C C C C C C C C C C C C C C C C C C C C C C C C C C C C C C C C C C C C C C C C C C C + * C C C G j ~!o!S!S!T!T!Y                            ",
"                             [ [ [ ] i!B o T H H H - + H H H H H H H H H H H H H H H H H H H H H H H H H H H H H H H H H H H H H H H H H H H H H H H H H H H H H H H H H H H H H H H H H H H H H H H H H G + - H H H T o!B!a!T!V!Y!Y                            ",
"                           [ [ [ ] h!D u g L L L 4 * K L L L L L L L L L L L L L L L L L L L L L L L L L L L L L L L L L L L L L L L L L L L L L L L L L L L L L L L L L L L L L L L L L L L L L L L L L L H * 4 L L L j u!U!a!Y!Y!Y!Y                          ",
"                         [ [ ] ] ]!A x t U N N A ) G N N N N N N N N N N N N N N N N N N N N N N N N N N N N N N N N N N N N N N N N N N N N N N N N N N N N N N N N N N N N N N N N N N N N N N N N N N N N H ) A N N U t x!q!Y!Y!Y!Y!a                        ",
"                         [ ] ] ] |!B t j R R Q + B R R R R R R R R R R R R R R R R R R R R R R R R R R R R R R R R R R R R R R R R R R R R R R R R R R R R R R R R R R R R R R R R R R R R R R R R R R R R R R B * Q R R j t!+!p!Y!Y!a!a                        ",
"                       [ ] ] ] d!D t t ` S S 1 4 S S S S S S S S S S S S S S S S S S S S S S S S S S S S S S S S S S S S S S S S S S S S S S S S S S S S S S S S S S S S S S S S S S S S S S S S S S S S S S S S 3 1 S S ` t t!k!a!a!a!a!a                      ",
"                       ] ] ] d!A ~ t s V V G - U V V V V V V V V V V V V V V V V V V V V V V V V V V V V V V V V V V V V V V V V V V V V V V V V V V V V V V V V V V V V V V V V V V V V V V V V V V V V V V V V U . G V V s t!)!p!a!a!a!a                      ",
"                     ] ] ] d i!D y y j Y W - Q Y Y Y Y Y Y Y Y Y Y Y Y Y Y Y Y Y Y Y Y Y Y Y Y Y Y Y Y Y Y Y Y Y Y Y Y Y Y Y Y Y Y Y Y Y Y Y Y Y Y Y Y Y Y Y Y Y Y Y Y Y Y Y Y Y Y Y Y Y Y Y Y Y Y Y Y Y Y Y Y Y Y Q - W Y j y y!R!p!a!a!a!g                    ",
"                     ] d d d!A!# y y e _ < 9 _ _ _ _ _ _ _ _ _ _ _ _ _ _ _ _ _ _ _ _ _ _ _ _ _ _ _ _ _ _ _ _ _ _ _ _ _ _ _ _ _ _ _ _ _ _ _ _ _ _ _ _ _ _ _ _ _ _ _ _ _ _ _ _ _ _ _ _ _ _ _ _ _ _ _ _ _ _ _ _ _ _ _ _ 8 = _ e y y!#!x!a!a!g!g                    ",
"                   d d d d h!D z z z a W / ^ a a a a a a a a a a a a a a!R#<#<#<#<#<#<#<#<!R a a a a a!A#<#<#<#<#<#<#<#<#<#<#<#<!D a a a a a a a a a a a a a a!D#<#<#<#<#<#<#<#<#<#<#<#<!A a a a a a a a a a a a a a ^ . W a z z z!U!x!g!j!l!p                  ",
"                   d d d d!A!& z z t b : M b b b b b b b b b b b b b b#<#I#I#I#I#I#I#I#I#I#I!R b b b b i#H#I#I#I#I#I#I#I#I#I#I#I#H!  b b b b b b b b b b b b |#H#I#I#I#I#I#I#I#I#I#I#I#H i b b b b b b b b b b b b b b N < b t z z!(!x!p!l!p!p                  ",
"                 d d d d i!D { { { t _ 1 c c c c c c c c c c c c c c c#<#I#I#I#I#I#I#I#I#I#I#< c c c c c#<#I#I#I#I#I#I#I#I#I#I#I#I#F c c c c c c c c c c c c#F#I#I#I#I#I#I#I#I#I#I#I#I!R c c c c c c c c c c c c c c c c 1 _ t { { {!U!x!p!x!x!x                ",
"                 d d h h!A!*!!!!!! u F Q e e e e e e e e e e e e e e e#<#I#I#I#I#I#I#I#I#I#I#< e e e e e e#G#I#I#I#I#I#I#I#I#I#I#I#I!D e e e e e e e e e e!A#I#I#I#I#I#I#I#I#I#I#I#I#G e e e e e e e e e e e e e e e e e R C u!!!!!!!*#%!x!x!x!x                ",
"                 d h h h!D!!!!!!!! n 4 f f f f f f f f f f f f f f f f#<#J#J#J#J#J#J#J#J#J#J#< f f f f f f!D#I#J#J#J#J#J#J#J#J#J#J#J#G f f f f f f f f f f#G#J#J#J#J#J#J#J#J#J#J#J#I!D f f f f f f f f f f f f f f f f f f 4 q!!!!!!!!!q!x!x!x!x                ",
"               h h h h |!/!!!!!!!! b S g g g g g g g g g g g g g g g g#<#J#J#J#J#J#J#J#J#J#J#< g g g g g g g#F#J#J#J#J#J#J#J#J#J#J#J#J#< g g g g g g g g#<#J#J#J#J#J#J#J#J#J#J#J#J#F g g g g g g g g g g g g g g g g g g g S b!!!!!!!!!C#.!x!x!x!x              ",
"               h h h h!D!*!!!!!!!! S f k k k k k k k k k k k k k k k k#<#K#K#K#K#K#K#K#K#K#K#< k k k k k k k! #H#K#K#K#K#K#K#K#K#K#K#K#H v k k k k k k v#H#K#K#K#K#K#K#K#K#K#K#K#H!A k k k k k k k k k k k k k k k k k k k f S!!!!!!!!!*#%!x!x!x#%              ",
"               h h h i!R!!!!!!!! t b l l l l l l l l l l l l l l l l l#<#K#K#K#K#K#K#K#K#K#K#< l l l l l l l l#<#K#K#K#K#K#K#K#K#K#K#K#K#< l l l l l l#<#K#K#K#K#K#K#K#K#K#K#K#K#< l l l l l l l l l l l l l l l l l l l l l a t!!!!!!!!!o#%#%#%#%              ",
"             h h h i! !0!%!%!%!% j o m m m m m m m m m m m m m m m m m#<#L#L#L#L#L#L#L#L#L#L#< m m m m m m m m v#H#L#L#L#L#L#L#L#L#L#L#L#H!A m m m m!A#H#L#L#L#L#L#L#L#L#L#L#L#H | m m m m m m m m m m m m m m m m m m m m m o j!%!%!%!%!C#.#%#%#%#%            ",
"             h h i i!D!,!'!'!'!% a!% q n n n n n n n n n n n n n n n n#=#L#L#L#L#L#L#L#L#L#L#= n n n n n n n n n#<#L#L#L#L#L#L#L#L#L#L#L#L#F n n n n#F#L#L#L#L#L#L#L#L#L#L#L#L#< n n n n n n n n n n n n n n n n n n n n n q!% a!%!'!'!'!-#.#%#%#.#.            ",
"             i i i i!R!'!'!'!' x l!' w r r r r r r r r r r r r r r r r#=#M#M#M#M#M#M#M#M#M#M#= r r r r r r r r r r#G#M#M#M#M#M#M#M#M#M#M#M#L!R r r!R#L#M#M#M#M#M#M#M#M#M#M#M#G r r r r r r r r r r r r r r r r r r r r r r x!' l x!'!'!'!'#%#%#.#.#.            ",
"             i i i |!H!'!'!'!' m x!' { s s s s s s s s s s s s s s s s#=#M#M#M#M#M#M#M#M#M#M#= s s s s s s s s s s!R#L#M#M#M#M#M#M#M#M#M#M#M#G s s#G#M#M#M#M#M#M#M#M#M#M#M#L!R s s s s s s s s s s s s s s s s s s s s s s {!' t n!'!'!'!'!k#.#.#.#.            ",
"           i i i i!A!9!'!'!'!' b!!!'!' u u u u u u u u u u u u u u u u#=#N#N#N#N#N#N#N#N#N#N#= u u u u u u u u u u u#F#N#N#N#N#N#N#N#N#N#N#N#N#<#<#N#N#N#N#N#N#N#N#N#N#N#N#F u u u u u u u u u u u u u u u u u u u u u u u!'!'!% e!'!'!'!'!<#/#.#.#.#.          ",
"           i i i p!D!1!'!'!'!% c!'!'!' y x x x x x x x x x x x x x x x#=#O#O#O#O#O#O#O#O#O#O#= x x x x x x x x x x x!B#I#O#O#O#O#O#O#O#O#O#O#O#H#H#O#O#O#O#O#O#O#O#O#O#O#J!B x x x x x x x x x x x x x x x x x x x x x x y!'!'!' b!'!'!'!'!1#.#.#.#/#/          ",
"           i p p p!R!1!1!1!1 y q!1!1!1!% x x x x x x x x x x x x x x x#=#O#O#O#O#O#O#O#O#O#O#= x x x x x x x x x x x x#=#O#O#O#O#O#O#O#O#O#O#O#O#O#O#O#O#O#O#O#O#O#O#O#O#= x x x x x x x x x x x x x x x x x x x x x x x!%!1!1!1 n z!1!1!1!1#%#.#/#/#/          ",
"           p p p v!U!1!1!1!1 s y!1!1!1!1 { y y y y y y y y y y y y y y#=#P#P#P#P#P#P#P#P#P#P#= y y y y y y y y y y y y ~#H#P#P#P#P#P#P#P#P#P#P#P#P#P#P#P#P#P#P#P#P#P#P#H ~ y y y y y y y y y y y y y y y y y y y y y y {!1!1!1!1 y s!1!1!1!1!x#/#/#/#/          ",
"           p p v |!H!1!1!1!1 l!!!1!1!1!1!' z z z z z z z z z z z z z z#=#Q#Q#Q#Q#Q#Q#Q#Q#Q#Q#= z z z z z z z z z z z z z#<#Q#Q#Q#Q#Q#Q#Q#Q#Q#Q#Q#Q#Q#Q#Q#Q#Q#Q#Q#Q#Q#Q#< z z z z z z z z z z z z z z z z z z z z z z z!'!1!1!1!1!! m!1!1!1!1!`#/#/#/#/          ",
"           p v v!A!E!2!2!2!2 f!'!2!2!2!2!2!$ { { { { { { { { { { { { {#=#Q#Q#Q#Q#Q#Q#Q#Q#Q#Q#= { { { { { { { { { { { { { {#G#Q#Q#Q#Q#Q#Q#Q#Q#Q#Q#Q#Q#Q#Q#Q#Q#Q#Q#Q#Q#G { { { { { { { { { { { { { { { { { { { { { { {!$!2!2!2!2!2!' f!2!2!2!2!Q#6#/#/#/          ",
"         v v v v!B!=!2!2!2!1 c!2!2!2!2!2!2!1!#!#!#!#!#!#!#!#!#!#!#!#!##=#R#R#R#R#R#R#R#R#R#R#=!#!#!#!#!#!#!#!#!#!#!#!#!#!#!R#Q#R#R#R#R#R#R#R#R#R#R#R#R#R#R#R#R#R#R#Q!R!#!#!#!#!#!#!#!#!#!#!#!#!#!#!#!#!#!#!#!#!#!#!#!1!2!2!2!2!2!2 c!1!2!2!2!=#6#/#/#4#4        ",
"         v v v v!D!8!3!3!3!' k!3!3!3!3!3!3!3!'!$!$!$!$!$!$!$!$!$!$!$!$#=#R#R#R#R#R#R#R#R#R#R#=!$!$!$!$!$!$!$!$!$!$!$!$!$!$!$#F#R#R#R#R#R#R#R#R#R#R#R#R#R#R#R#R#R#R#F!$!$!$!$!$!$!$!$!$!$!$!$!$!$!$!$!$!$!$!$!$!$!$!'!3!3!3!3!3!3!3 k!'!3!3!3!8#4#4#4#4#4        ",
"         v v v |!R!5!3!3!3!% n!3!3!3!3!3!3!3!3!*!$!$!$!$!$!$!$!$!$!$!$#=#S#S#S#S#S#S#S#S#S#S#=!$!$!$!$!$!$!$!$!$!$!$!$!$!$!$!D#M#S#S#S#S#S#S#S#S#S#S#S#S#S#S#S#S#M!R!$!$!$!$!$!$!$!$!$!$!$!$!$!$!$!$!$!$!$!$!$!$!,!3!3!3!3!3!3!3!3 n!%!3!3!3!5#/#4#4#4#4        ",
"         | v | |!R!5!3!3!3!$ r!3!3!3!3!3!3!3!3!3!,!&!&!&!&!&!&!&!&!&!&#=#S#S#S#S#S#S#S#S#S#S#=!&!&!&!&!&!&!&!&!&!&!&!&!&!&!&!&#=#S#S#S#S#S#S#S#S#S#S#S#S#S#S#S#S#=!&!&!&!&!&!&!&!&!&!&!&!&!&!&!&!&!&!&!&!&!&!&!*!3!3!3!3!3!3!3!3!3 r!%!3!3!3!5#4#4#4#4#4        ",
"         | | } }!R!5!5!5!5!# u!5!5!5!5!5!5!5!5!5!4!,!(!(!(!(!(!(!(!(!(#=#T#T#T#T#T#T#T#T#T#T#=!(!(!(!(!(!(!(!(!(!(!(!(!(!(!(!(!+#H#T#T#T#T#T#T#T#T#T#T#T#T#T#T#H!/!(!(!(!(!(!(!(!(!(!(!(!(!(!(!(!(!(!(!(!(!(!,!4!5!5!5!5!5!5!5!5!5 u!$!5!5!5!5#4#4#4#6#6        ",
"         | } } }!R!5!5!5!5 { w!5!5!5!5!5!5!5!5!5!5!5!,!*!*!*!*!*!*!*!*#=#T#T#T#T#T#T#T#T#T#T#=!*!*!*!*!*!*!*!*!*!*!*!*!*!*!*!*!*#<#T#T#T#T#T#T#T#T#T#T#T#T#T#T#<!*!*!*!*!*!*!*!*!*!*!*!*!*!*!*!*!*!*!*!*!*!,!5!5!5!5!5!5!5!5!5!5!5 w {!5!5!5!5#/#6#6#6#6        ",
"         } } } }!U!7!7!7!7 y x!7!7!7!7!7!7!7!7!7!7!7!7!-!,!,!,!,!,!,!,#=#U#U#U#U#U#U#U#U#U#U#=!,!,!,!,!,!,!,!,!,!,!,!,!,!,!,!,!,!,#H#U#U#U#U#U#U#U#U#U#U#U#U#H!,!,!,!,!,!,!,!,!,!,!,!,!,!,!,!,!,!,!,!,!,!-!7!7!7!7!7!7!7!7!7!7!7!7 x ~!7!7!7!7#/#6#6#6#6        ",
"         } } } }!U!7!7!7!7 ~ ~!7!7!7!7!7!7!7!7!7!7!7!7!7!6!-!-!-!-!-!-#=#U#U#U#U#U#U#U#U#U#U#=!-!-!-!-!-!-!-!-!-!-!-!-!-!-!-!-!-!.#H#U#U#U#U#U#U#U#U#U#U#U#U#H!.!-!-!-!-!-!-!-!-!-!-!-!-!-!-!-!-!-!-!-!6!7!7!7!7!7!7!7!7!7!7!7!7!7 ~ ~!7!7!7!7#/#6#6#6#7        ",
"         } } } }!U!8!8!8!8 ~ }!8!8!8!8!8!8!8!8!8!8!8!8!8!8!9!.!.!.!.!.#E#V#V#V#V#V#V#V#V#V#V#E!.!.!.!.!.!.!.!.!.!.!.!.!.!.!.!.!.#=#V#V#V#V#V#V#V#V#V#V#V#V#V#V#=!.!.!.!.!.!.!.!.!.!.!.!.!.!.!.!.!.!.!6!8!8!8!8!8!8!8!8!8!8!8!8!8!8 } ~!8!8!8!8#4#6#6#7#7        ",
"         } } } ~!U!:!:!:!:!( }!:!:!:!:!:!:!:!:!:!:!:!:!:!:!:!9!6!0!0!0#E#V#V#V#V#V#V#V#V#V#V#E!0!0!0!0!0!0!0!0!0!0!0!0!0!0!0!0!C#H#V#V#V#V#V#V#V#V#V#V#V#V#V#V#I!C!0!0!0!0!0!0!0!0!0!0!0!0!0!0!0!6!9!:!:!:!:!:!:!:!:!:!:!:!:!:!:!: w!(!:!:!:!:#6#7#7#7#7        ",
"         } } ~ ~!U!>!:!:!:!* u!:!:!:!:!:!:!:!:!:!:!:!:!:!:!:!:!:!9!6!6#E#W#W#W#W#W#W#W#W#W#W#E!6!6!6!6!6!6!6!6!6!6!6!6!6!6!6!6#E#W#W#W#W#W#W#W#W#W#W#W#W#W#W#W#W#E!6!6!6!6!6!6!6!6!6!6!6!6!6!6!9!:!:!:!:!:!:!:!:!:!:!:!:!:!:!:!:!: r!*!:!:!:!>#6#7#7#7#7        ",
"         ~ ~ ~ ~!R!E!:!:!:!, v!:!:!:!:!:!:!:!:!:!:!:!:!:!:!:!:!:!:!;!9#F#X#X#X#X#X#X#X#X#X#X#F!6!6!6!6!6!6!6!6!6!6!6!6!6!6!6!U#R#X#X#X#X#X#X#X#X#X#X#X#X#X#X#X#X#S!U!6!6!6!6!6!6!6!6!6!6!6!9!;!:!:!:!:!:!:!:!:!:!:!:!:!:!:!:!:!:!: v!,!:!:!:!E#6#7#7#7#7        ",
"         ~ ~ ~ ~!R!G!>!>!>!0 v!>!>!>!>!>!>!>!>!>!>!>!>!>!>!>!>!>!>!>!>#F#X#X#X#X#X#X#X#X#X#X#F!6!6!6!6!6!6!6!6!6!6!6!6!6!6!6#G#X#X#X#X#X#X#X#X#X#X#X#X#X#X#X#X#X#X#G!6!6!6!6!6!6!6!6!6!9!=!>!>!>!>!>!>!>!>!>!>!>!>!>!>!>!>!>!>!>!> v!0!>!>!>!G#7#7#7#8#8        ",
"         ~ ~ ~ ~!R!Q!?!?!?!= i!?!?!?!?!?!?!?!?!?!?!?!?!?!?!?!?!?!?!?!?#F#Y#Y#Y#Y#Y#Y#Y#Y#Y#Y#F!9!9!9!9!9!9!9!9!9!9!9!9!9!9#%#X#Y#Y#Y#Y#Y#Y#Y#Y#Y#Y#Y#Y#Y#Y#Y#Y#Y#Y#X#%!9!9!9!9!9!9!;!?!?!?!?!?!?!?!?!?!?!?!?!?!?!?!?!?!?!?!?!?!?!? i!=!?!?!?!Q#8#7#8#8#8        ",
"           ~!)!)!/!Y!@!@!@!@ p!9!@!@!@!@!@!@!@!@!@!@!@!@!@!@!@!@!@!@!@#F#Z#Z#Z#Z#Z#Z#Z#Z#Z#Z#F!;!;!;!;!;!;!;!;!;!;!;!;!;!=#H#Z#Z#Z#Z#Z#Z#Z#Z#Z#Z#Z#Z#Z#Z#Z#Z#Z#Z#Z#Z#H!=!;!;!;!=!@!@!@!@!@!@!@!@!@!@!@!@!@!@!@!@!@!@!@!@!@!@!@!@!9 p!@!@!@!@!c#8#8#8#8          ",
"          !)!)!)!+!`!E!E!E!E |!/!E!E!E!E!E!E!E!E!E!E!E!E!E!E!E!E!E!E!E#F#Z#Z#Z#Z#Z#Z#Z#Z#Z#Z#F!=!=!=!=!=!=!=!=!=!=!=!=!=#=#Z#Z#Z#Z#Z#Z#Z#Z#Z#Z#Z#Z#Z#Z#Z#Z#Z#Z#Z#Z#Z#Z#:!?!?!E!E!E!E!E!E!E!E!E!E!E!E!E!E!E!E!E!E!E!E!E!E!E!E!E!E!/ |!E!E!E!E#%#8#8#8#8          ",
"          !)!)!)!)!o!F!F!F!F ~!)!F!F!F!F!F!F!F!F!F!F!F!F!F!F!F!F!F!F!F#F#[#[#[#[#[#[#[#[#[#[#F!E!E!E!E!E!E!E!E!E!E!E!E!K#K#[#[#[#[#[#[#[#[#[#[#[#[#[#[#[#[#[#[#[#[#[#[#M!Q!F!F!F!F!F!F!F!F!F!F!F!F!F!F!F!F!F!F!F!F!F!F!F!F!F!F!F!) ~!F!F!F!F#/#8#8#8#8          ",
"          !)!(!(!(!o!G!G!G!G!) }!G!G!G!G!G!G!G!G!G!G!G!G!G!G!G!G!G!G!G#F#]#]#]#]#]#]#]#]#]#]#F!G!G!G!F!F!F!F!F!F!F!F!F#F#]#]#]#]#]#]#]#]#]#]#]#]#]#]#]#]#]#]#]#]#]#]#]#]#F!G!G!G!G!G!G!G!G!G!G!G!G!G!G!G!G!G!G!G!G!G!G!G!G!G!G!G }!)!G!G!G!G#6#8#8#9#9          ",
"          !(!(!+!+!k!M!I!I!I!C p!I!I!I!I!I!I!I!I!I!I!I!I!I!I!I!I!I!I!I#F#^#^#^#^#^#^#^#^#^#^#F!I!I!I!I!I!I!I!I!I!I!I!o#U#^#^#^#^#^#^#^#^#^#^#^#M#L#^#^#^#^#^#^#^#^#^#^#^#V!p!I!I!I!I!I!I!I!I!I!I!I!I!I!I!I!I!I!I!I!I!I!I!I!I!I!I p!C!I!I!I!O#8#8#9#9#:          ",
"          !(!+!+!+!H![!J!J!J!J p!C!J!J!J!J!J!J!J!J!J!J!J!J!J!J!J!J!J!J#F#_#_#_#_#_#_#_#_#_#_#F!J!J!J!J!J!J!J!J!J!J!J#G#_#_#_#_#_#_#_#_#_#_#_#_#:#:#_#_#_#_#_#_#_#_#_#_#_#_#G!J!J!J!J!J!J!J!J!J!J!J!J!J!J!J!J!J!J!J!J!J!J!J!J!J!C p!J!J!J!J!a#9#9#9#9#:          ",
"            !+!+!/!6!o!L!L!L!L ~!)!L!L!L!L!L!L!L!L!L!L!L!L!L!L!L!L!L!L#F#`#`#`#`#`#`#`#`#`#`#F!L!L!L!L!L!L!L!L!L!L#6#_#`#`#`#`#`#`#`#`#`#`#`#H!N!N#H#`#`#`#`#`#`#`#`#`#`#`#_#6!L!L!L!L!L!L!L!L!L!L!L!L!L!L!L!L!L!L!L!L!L!L!L!L!) ~!L!L!L!L#%#:#9#:#:            ",
"            !+!/!/!0!q!M!M!M!M!+ }!M!M!M!M!M!M!M!M!M!M!M!M!M!M!M!M!M!M#F#`#`#`#`#`#`#`#`#`#`#F!M!M!M!M!M!M!M!M!M!O#H#`#`#`#`#`#`#`#`#`#`#`#_#6!M!M#6#_#`#`#`#`#`#`#`#`#`#`#`#H!O!M!M!M!M!M!M!M!M!M!M!M!M!M!M!M!M!M!M!M!M!M!M!M }!/!M!M!M!M#6#9#:#:#:            ",
"            !/!/!0!0!k!V!O!O!O!K i!K!O!O!O!O!O!O!O!O!O!O!O!O!O!O!O!O!O#F#a#a#a#a#a#a#a#a#a#a#F!O!O!O!O!O!O!O!O!O#E#a#a#a#a#a#a#a#a#a#a#a#a#G!O!O!O!O#G#a#a#a#a#a#a#a#a#a#a#a#a#E!O!O!O!O!O!O!O!O!O!O!O!O!O!O!O!O!O!O!O!O!O!O!K i!K!O!O!O!V#8#:#:#:#;            ",
"            !0!0!0!6!H!d!P!P!P!P }!/!P!P!P!P!P!P!P!P!P!P!P!P!P!P!P!P!P#F#a#a#a#a#a#a#a#a#a#a#F!P!P!P!P!P!P!P!P!^#N#a#a#a#a#a#a#a#a#a#a#a#Y!x!P!P!P!P!x#Y#a#a#a#a#a#a#a#a#a#a#a#P!^!P!P!P!P!P!P!P!P!P!P!P!P!P!P!P!P!P!P!P!P!P!+ }!P!P!P!P!p#:#:#:#;#;            ",
"              !6!6!6!9!x!S!S!S!S!0 |!S!S!S!S!S!S!S!S!S!S!S!S!S!S!S!S!S#F#b#b#b#b#b#b#b#b#b#b#F!S!S!S!S!S!S!S!S#F#b#b#b#b#b#b#b#b#b#b#b#b#F!S!S!S!S!S!S#F#b#b#b#b#b#b#b#b#b#b#b#b#F!S!S!S!S!S!S!S!S!S!S!S!S!S!S!S!S!S!S!S!S!S |!0!S!S!S!S#4#:#;#;#;              ",
"              !6!6!6!9!o!Z!T!T!T!T p!K!T!T!T!T!T!T!T!T!T!T!T!T!T!T!T!T#F#b#b#b#b#b#b#b#b#b#b#F!T!T!T!T!T!T!T!x#Z#b#b#b#b#b#b#b#b#b#b#b#R!`!T!T!T!T!T!T!`#P#b#b#b#b#b#b#b#b#b#b#b#[!x!T!T!T!T!T!T!T!T!T!T!T!T!T!T!T!T!T!T!T!K p!P!T!T!T!Z#9#;#;#;#;              ",
"              !6!9!9!9!K!p!V!V!V!V!B!B!V!V!V!V!V!V!V!V!V!V!V!V!V!V!V!V#F#c#c#c#c#c#c#c#c#c#c#F!V!V!V!V!V!V!V#G#c#c#c#c#c#c#c#c#c#c#c#c#E!V!V!V!V!V!V!V!V#E#c#c#c#c#c#c#c#c#c#c#c#c#G!V!V!V!V!V!V!V!V!V!V!V!V!V!V!V!V!V!V!V!B!B!V!V!V!V#%#;#;#;#;#>              ",
"                !9!<!<!<!x!W!W!W!W!H |!T!W!W!W!W!W!W!W!W!W!W!W!W!W!W!W#F#c#c#c#c#c#c#c#c#c#c#F!W!W!W!W!W!W#6#b#c#c#c#c#c#c#c#c#c#c#c#H!X!W!W!W!W!W!W!W!W!X#H#c#c#c#c#c#c#c#c#c#c#c#b#6!W!W!W!W!W!W!W!W!W!W!W!W!W!W!W!W!W!T p!K!W!W!W!W#7#;#;#;#>                ",
"                !<!<!<!:!a!d!X!X!X!X ~!B!X!X!X!X!X!X!X!X!X!X!X!X!X!X!X#F#d#d#d#d#d#d#d#d#d#d#F!X!X!X!X!X!Z#H#d#d#d#d#d#d#d#d#d#d#d#c#6!X!X!X!X!X!X!X!X!X!X#6#c#d#d#d#d#d#d#d#d#d#d#d#H!Z!X!X!X!X!X!X!X!X!X!X!X!X!X!X!X!X!B!B!X!X!X!X!h#:#;#;#>#>                ",
"                !<!<!:!>!G!x!Z!Z!Z!Z!U |!X!Z!Z!Z!Z!Z!Z!Z!Z!Z!Z!Z!Z!Z!Z#F#d#d#d#d#d#d#d#d#d#d#F!Z!Z!Z!Z!Z#E#d#d#d#d#d#d#d#d#d#d#d#d#G!Z!Z!Z!Z!Z!Z!Z!Z!Z!Z!Z!Z#G#d#d#d#d#d#d#d#d#d#d#d#d#E!Z!Z!Z!Z!Z!Z!Z!Z!Z!Z!Z!Z!Z!Z!Z!V |!H!Z!Z!Z!Z#4#>#>#>#>#?                ",
"                  !:!>!>!>!p!j![![![![!B!D![![![![![![![![![![![![![![#E#e#e#e#e#e#e#e#e#e#e#E![![![![!h#R#e#e#e#e#e#e#e#e#e#e#e#`#.![![![![![![![![![![![![#%#`#e#e#e#e#e#e#e#e#e#e#e#U!h![![![![![![![![![![![![![![!D!B![![![![!g#:#>#>#>#>                  ",
"                  !>!>!>!@!M#%!]!]!]!]!U |!V!]!]!]!]!]!]!]!]!]!]!]!]!]!]#E#G#G#G#G#G#G#G#G#E!]!]!]!]!]#6#G#G#G#G#G#G#G#G#G#G#G#G#E!]!]!]!]!]!]!]!]!]!]!]!]!]!]#E#G#G#G#G#G#G#G#G#G#G#G#G#6!]!]!]!]!]!]!]!]!]!]!]!]!]!U |!U!]!]!]!]#4#>#>#>#>#?                  ",
"                    !@!@!@!@!x!j!_!_!_!_!B!B!_!_!_!_!_!_!_!_!_!_!_!_!_!_!_!_!_!_!_!_!_!_!_!_!_!_!_!_!_!_!_!_!_!_!_!_!_!_!_!_!_!_!_!_!_!_!_!_!_!_!_!_!_!_!_!_!_!_!_!_!_!_!_!_!_!_!_!_!_!_!_!_!_!_!_!_!_!_!_!_!_!_!_!_!B!B!_!_!_!_!j#:#>#>#>#?                    ",
"                    !@!@!G!G!O#%!c!c!c!c!^ |!H!c!c!c!c!c!c!c!c!c!c!c!c!c!c!c!c!c!c!c!c!c!c!c!c!c!c!c!c!c!c!c!c!c!c!c!c!c!c!c!c!c!c!c!c!c!c!c!c!c!c!c!c!c!c!c!c!c!c!c!c!c!c!c!c!c!c!c!c!c!c!c!c!c!c!c!c!c!c!c!c!c!c!H |!^!c!c!c!c#4#?#>#?#?#@                    ",
"                      !G!G!G!I!x!z!e!e!e!e!H! !c!e!e!e!e!e!e!e!e!e!e!e!e!e!e!e!e!e!e!e!e!e!e!e!e!e!e!e!e!e!e!e!e!e!e!e!e!e!e!e!e!e!e!e!e!e!e!e!e!e!e!e!e!e!e!e!e!e!e!e!e!e!e!e!e!e!e!e!e!e!e!e!e!e!e!e!e!e!e!e!e!c! !H!e!e!e!e!z#>#>#?#?#@                      ",
"                      !G!G!I!J!O#.!i!f!f!f!f!B!B!f!f!f!f!f!f!f!f!f!f!f!f!f!f!f!f!f!f!f!f!f!f!f!f!f!f!f!f!f!f!f!f!f!f!f!f!f!f!f!f!f!f!f!f!f!f!f!f!f!f!f!f!f!f!f!f!f!f!f!f!f!f!f!f!f!f!f!f!f!f!f!f!f!f!f!f!f!f!f!f!B!B!f!f!f!f!g#8#?#?#@#@#@                      ",
"                        !J!J!J!O!a#%!i!i!i!i!b! !R!i!i!i!i!i!i!i!i!i!i!i!i!i!i!i!i!i!i!i!i!i!i!i!i!i!i!i!i!i!i!i!i!i!i!i!i!i!i!i!i!i!i!i!i!i!i!i!i!i!i!i!i!i!i!i!i!i!i!i!i!i!i!i!i!i!i!i!i!i!i!i!i!i!i!i!i!i!i!R! !b!i!i!i!i#0#@#?#@#@#@                        ",
"                        !J!O!O!O!S#.!t!j!j!j!j!U |!`!j!j!j!j!j!j!j!j!j!j!j!j!j!j!j!j!j!j!j!j!j!j!j!j!j!j!j!j!j!j!j!j!j!j!j!j!j!j!j!j!j!j!j!j!j!j!j!j!j!j!j!j!j!j!j!j!j!j!j!j!j!j!j!j!j!j!j!j!j!j!j!j!j!j!j!j!k |!U!j!j!j!j!w#;#@#@#@#@#@                        ",
"                          !O!O!O!O!Y#/!l!l!l!l!l!D! !h!l!l!l!l!l!l!l!l!l!l!l!l!l!l!l!l!l!l!l!l!l!l!l!l!l!l!l!l!l!l!l!l!l!l!l!l!l!l!l!l!l!l!l!l!l!l!l!l!l!l!l!l!l!l!l!l!l!l!l!l!l!l!l!l!l!l!l!l!l!l!l!l!l!l!h! !R!l!l!l!l!l#7#@#@#@#@#@                          ",
"                            !O!S!S!T!l#.!n!n!n!n!r!B!B!m!n!n!n!n!n!n!n!n!n!n!n!n!n!n!n!n!n!n!n!n!n!n!n!n!n!n!n!n!n!n!n!n!n!n!n!n!n!n!n!n!n!n!n!n!n!n!n!n!n!n!n!n!n!n!n!n!n!n!n!n!n!n!n!n!n!n!n!n!n!n!n!n!m!A!B!n!n!n!n!n#4#@#@#@#@#A                            ",
"                            !S!S!T!Y!Y#%#&!t!t!t!t!s!B!B!s!t!t!t!t!t!t!t!t!t!t!t!t!t!t!t!t!t!t!t!t!t!t!t!t!t!t!t!t!t!t!t!t!t!t!t!t!t!t!t!t!t!t!t!t!t!t!t!t!t!t!t!t!t!t!t!t!t!t!t!t!t!t!t!t!t!t!t!t!t!t!u!B!B!s!t!t!t!t#)#?#@#@#@#A#B                            ",
"                              !T!Y!Y!Y!Y#/#!!w!w!w!w!s!A!D!w!w!w!w!w!w!w!w!w!w!w!w!w!w!w!w!w!w!w!w!w!w!w!w!w!w!w!w!w!w!w!w!w!w!w!w!w!w!w!w!w!w!w!w!w!w!w!w!w!w!w!w!w!w!w!w!w!w!w!w!w!w!w!w!w!w!w!w!w!w!D!A!m!w!w!w!w!}#;#@#@#A#A#B                              ",
"                                !Y!Y!Y!Y!a#/!|!y!y!y!y!p! !D!{!y!y!y!y!y!y!y!y!y!y!y!y!y!y!y!y!y!y!y!y!y!y!y!y!y!y!y!y!y!y!y!y!y!y!y!y!y!y!y!y!y!y!y!y!y!y!y!y!y!y!y!y!y!y!y!y!y!y!y!y!y!y!y!y!y!y!{!D! !m!y!y!y!y!|#8#A#@#A#A#B                                ",
"                                !Y!Y!Y!Y!a!p#/!~!|!|!|!|!v!A!B!{!|!|!|!|!|!|!|!|!|!|!|!|!|!|!|!|!|!|!|!|!|!|!|!|!|!|!|!|!|!|!|!|!|!|!|!|!|!|!|!|!|!|!|!|!|!|!|!|!|!|!|!|!|!|!|!|!|!|!|!|!|!|!|!|!z!D!A!p!|!|!|!|!|#7#A#A#A#B#B#C                                ",
"                                  !Y!a!a!a!a!x#/!~!}!}!}!}!z!B!B!v!}!}!}!}!}!}!}!}!}!}!}!}!}!}!}!}!}!}!}!}!}!}!}!}!}!}!}!}!}!}!}!}!}!}!}!}!}!}!}!}!}!}!}!}!}!}!}!}!}!}!}!}!}!}!}!}!}!}!}!}!}!}!v!B!B!z!}!}!}!}#!#7#A#A#A#B#B#C                                  ",
"                                    !a!a!a!a!a#%#/#!#!#!#!#!!|!D!A!o#!#!#!#!#!#!#!#!#!#!#!#!#!#!#!#!#!#!#!#!#!#!#!#!#!#!#!#!#!#!#!#!#!#!#!#!#!#!#!#!#!#!#!#!#!#!#!#!#!#!#!#!#!#!#!#!#!#!#!#!!o!A!D!|#!#!#!#!#!#6#@#A#B#B#C#C                                    ",
"                                      !a!a!a!a!g#.#/#&#$#$#$#$#$!R! !U#$#$#$#$#$#$#$#$#$#$#$#$#$#$#$#$#$#$#$#$#$#$#$#$#$#$#$#$#$#$#$#$#$#$#$#$#$#$#$#$#$#$#$#$#$#$#$#$#$#$#$#$#$#$#$#$#$#$!U! !R#&#$#$#$#$#&#6#A#A#B#B#C#C                                      ",
"                                        !a!a!g!j!l#.#4#'#&#&#&#&#&!o! !D#!#&#&#&#&#&#&#&#&#&#&#&#&#&#&#&#&#&#&#&#&#&#&#&#&#&#&#&#&#&#&#&#&#&#&#&#&#&#&#&#&#&#&#&#&#&#&#&#&#&#&#&#&#&#&#!!D! !k#&#&#&#&#&#&#7#A#A#B#C#C#C                                        ",
"                                          !g!p!l!p!p#%#4#)#'#'#'#'#'# !B!A!k#'#'#'#'#'#'#'#'#'#'#'#'#'#'#'#'#'#'#'#'#'#'#'#'#'#'#'#'#'#'#'#'#'#'#'#'#'#'#'#'#'#'#'#'#'#'#'#'#'#'#'#'!k!A!B# #'#'#'#'#'#)#8#A#B#B#C#C#C                                          ",
"                                            !l!p!x!x!x#.#4#+#)#)#)#)#)#)!k! !B# #)#)#)#)#)#)#)#)#)#)#)#)#)#)#)#)#)#)#)#)#)#)#)#)#)#)#)#)#)#)#)#)#)#)#)#)#)#)#)#)#)#)#)#)#)#)#)#)# !D! !R#)#)#)#)#)#)#+#:#B#B#C#C#C#C                                            ",
"                                              !x!x!x!x!x#%#6#1#*#*#*#*#*#*#(!D! !R#(#*#*#*#*#*#*#*#*#*#*#*#*#*#*#*#*#*#*#*#*#*#*#*#*#*#*#*#*#*#*#*#*#*#*#*#*#*#*#*#*#*#*#*#*#(!R! !R#(#*#*#*#*#*#*#1#>#C#B#C#C#C#D                                              ",
"                                                !x!x!x!x!x#%#4#4#+#+#+#+#+#+#+# !D! !R#(#+#+#+#+#+#+#+#+#+#+#+#+#+#+#+#+#+#+#+#+#+#+#+#+#+#+#+#+#+#+#+#+#+#+#+#+#+#+#+#+#(!R! !D# #+#+#+#+#+#+#,#7#@#C#B#C#C#C#D                                                ",
"                                                  !x!x!x#%#%#%#/#6#0#,#,#,#,#,#,#,# !D! !R# #,#,#,#,#,#,#,#,#,#,#,#,#,#,#,#,#,#,#,#,#,#,#,#,#,#,#,#,#,#,#,#,#,#,#,#,# !R! !D# #,#,#,#,#,#,#,#1#9#B#B#C#C#C#D#D                                                  ",
"                                                    !x#%#%#%#%#%#.#7#5#-#,#,#,#,#,#,#,# !D! !B!R#(#,#,#,#,#,#,#,#,#,#,#,#,#,#,#,#,#,#,#,#,#,#,#,#,#,#,#,#,#,#,#(!R!A! !D# #,#,#,#,#,#,#,#-#7#>#C#B#C#C#C#D#D                                                    ",
"                                                      #%#%#%#.#.#.#.#4#7#5#0#0#0#0#0#0#0#0#,!k!D! !D!R# #0#0#0#0#0#0#0#0#0#0#0#0#0#0#0#0#0#0#0#0#0#0#0#0# !R!D! !D!k#,#0#0#0#0#0#0#0#0#3#;#B#B#C#C#C#D#D#D                                                      ",
"                                                          #.#.#.#.#.#.#/#7#7#3#1#1#1#1#1#1#1#1#1#*!k!D!A! !D!R!q#(#0#1#1#1#1#1#1#1#1#1#1#1#1#0#(!q!R!D! !A!D!k#*#1#1#1#1#1#1#1#1#1#2#9#@#B#B#C#C#C#D#D                                                          ",
"                                                            #.#.#.#.#/#/#/#4#7#7#3#1#1#1#1#1#1#1#1#1#1#1#(!k!D!D!A! !A!B!D!D!D!R!R!D!D!D!B!A! !A!D!D!k#(#1#1#1#1#1#1#1#1#1#1#1#3#8#@#B#B#C#C#C#C#D#D                                                            ",
"                                                                #.#/#/#/#/#/#/#4#7#8#5#2#2#2#2#2#2#2#2#2#2#2#2#2#2#0# !q!k!k!R!R!R!R!k!k!q# #0#2#2#2#2#2#2#2#2#2#2#2#2#2#2#5#9#@#A#B#B#C#C#C#D#D                                                                ",
"                                                                  #/#/#/#/#/#/#4#4#6#7#8#7#5#2#2#2#2#2#2#2#2#2#2#2#2#2#2#2#2#2#2#2#2#2#2#2#2#2#2#2#2#2#2#2#2#2#2#2#2#5#7#;#@#B#A#B#B#C#C#C#D#D                                                                  ",
"                                                                      #/#/#4#4#4#4#4#4#6#7#8#8#7#5#3#3#3#3#3#3#3#3#3#3#3#3#3#3#3#3#3#3#3#3#3#3#3#3#3#3#3#3#3#3#5#7#:#?#A#@#A#B#B#C#C#C#D#D                                                                      ",
"                                                                          #/#4#4#4#4#6#6#6#6#7#8#9#9#8#5#5#3#3#3#3#3#3#3#3#3#3#3#3#3#3#3#3#3#3#3#3#3#3#5#5#9#;#?#A#@#@#A#A#B#B#C#C#C#D                                                                          ",
"                                                                              #6#6#6#6#6#6#6#7#7#7#7#8#9#:#:#9#8#7#5#5#5#5#5#5#5#5#5#5#5#5#5#5#7#9#;#>#?#@#@#@#@#@#@#A#A#B#C#C#C#D                                                                              ",
"                                                                                  #6#6#6#6#7#7#7#7#7#7#8#8#8#8#9#:#:#:#;#;#;#;#;#;#;#>#>#>#>#?#@#?#>#?#?#@#@#@#@#A#A#B#B#C#C#C                                                                                  ",
"                                                                                        #7#7#7#7#7#7#8#8#8#8#8#8#9#9#9#:#:#:#:#;#;#;#;#;#>#>#>#>#?#?#@#@#@#@#@#A#A#B#C#C                                                                                        ",
"                                                                                              #7#8#8#8#8#8#8#9#9#9#9#:#:#:#;#;#;#;#;#>#>#>#>#>#?#?#@#@#@#@#A#A#B#B                                                                                              ",
"                                                                                                      #8#8#9#9#9#:#:#:#:#;#;#;#;#;#>#>#>#>#?#?#@#@#@#@#@#A                                                                                                      ",
"                                                                                                                  #:#:#;#;#;#;#>#>#>#>#>#?#?#@                                                                                                                  ",
"                                                                                                                                                                                                                                                                ",
"                                                                                                                                                                                                                                                                ",
"                                                                                                                                                                                                                                                                ",
"                                                                                                                                                                                                                                                                "};
