/* XPM */
static char * ixcoin64_xpm[] = {
"64 64 256 2",
"  	c None",
" !	c #FEE8B1",
" #	c #FEE7AE",
" $	c #FEE6AB",
" %	c #FEE4A7",
" &	c #FEE3A4",
" '	c #FEE3A2",
" (	c #FEE2A1",
" )	c #FEE2A0",
" *	c #FDE2A2",
" +	c #FEE29E",
" ,	c #FEE19D",
" -	c #FDE09E",
" .	c #FDE09B",
" /	c #FDDF98",
" 0	c #FDDE99",
" 1	c #FDDE97",
" 2	c #FCDE97",
" 3	c #FDDE91",
" 4	c #FDDD94",
" 5	c #FCDD94",
" 6	c #FCDD92",
" 7	c #FCDC90",
" 8	c #FFDB92",
" 9	c #FCDB8F",
" :	c #FCDB8E",
" ;	c #FCDA8E",
" <	c #FCDA8A",
" =	c #FDDA86",
" >	c #F7DB8B",
" ?	c #FCD886",
" @	c #FBD784",
" A	c #FBD782",
" B	c #FBD681",
" C	c #FBD680",
" D	c #F8D889",
" E	c #F7D787",
" F	c #F6D687",
" G	c #F8D584",
" H	c #F6D482",
" I	c #FED777",
" J	c #FBD57C",
" K	c #FBD47B",
" L	c #FBD377",
" M	c #FBD276",
" N	c #FCD26D",
" O	c #F6D37D",
" P	c #FFD180",
" Q	c #FCD171",
" R	c #FAD071",
" S	c #FBD170",
" T	c #FAD06D",
" U	c #FACE6B",
" V	c #F5D07A",
" W	c #F5CF73",
" X	c #F4CC6D",
" Y	c #F2CB70",
" Z	c #FACD68",
" [	c #F9CC6A",
" ]	c #FACC66",
" ^	c #F9CA61",
" _	c #F6CB6A",
" `	c #F9C85B",
" a	c #F9C75C",
" b	c #F8C75A",
" c	c #F8C555",
" d	c #F8C551",
" e	c #F8C44C",
" f	c #F7C350",
" g	c #F2C869",
" h	c #F2C661",
" i	c #EEC463",
" j	c #F8C148",
" k	c #F6C14A",
" l	c #F4BF55",
" m	c #F7C044",
" n	c #F6BE44",
" o	c #F8BE3C",
" p	c #F4BD43",
" q	c #F4BC43",
" r	c #F5BC40",
" s	c #F6BC3C",
" t	c #F4B93C",
" u	c #F3B93C",
" v	c #F6BA34",
" w	c #F5B62B",
" x	c #ECC264",
" y	c #EABE5E",
" z	c #F0BF52",
" {	c #EDBC50",
" |	c #E8B851",
" }	c #F0B942",
" ~	c #F2B739",
"! 	c #F1B736",
"!!	c #F1B535",
"!#	c #EEB842",
"!$	c #EBB63D",
"!%	c #F2B433",
"!&	c #F0B437",
"!'	c #F0B436",
"!(	c #F5B427",
"!)	c #F4B225",
"!*	c #F2B32F",
"!+	c #EEB436",
"!,	c #EEB132",
"!-	c #EDB133",
"!.	c #EDAE2F",
"!/	c #EEAF2B",
"!0	c #F2B024",
"!1	c #F1AF24",
"!2	c #EFAD24",
"!3	c #EDAB22",
"!4	c #EEAA22",
"!5	c #EBB134",
"!6	c #EBAD2A",
"!7	c #EBAB29",
"!8	c #E7B13E",
"!9	c #E7AD3B",
"!:	c #DFAD4A",
"!;	c #E7A930",
"!<	c #EBA925",
"!=	c #ECA921",
"!>	c #E9AA22",
"!?	c #E9A91D",
"!@	c #EAA720",
"!A	c #E7A720",
"!B	c #E9A623",
"!C	c #E9A521",
"!D	c #E9A520",
"!E	c #E7A623",
"!F	c #E7A41F",
"!G	c #E6A527",
"!H	c #E6A51C",
"!I	c #E8A223",
"!J	c #E6A320",
"!K	c #E6A21F",
"!L	c #E6A21E",
"!M	c #E4A21E",
"!N	c #E3A028",
"!O	c #E4A01D",
"!P	c #E3A11A",
"!Q	c #E39E1C",
"!R	c #DEA339",
"!S	c #DA9E38",
"!T	c #CBA454",
"!U	c #CCA149",
"!V	c #E0A323",
"!W	c #DE9E1C",
"!X	c #DF9C23",
"!Y	c #E19C1C",
"!Z	c #DE9C18",
"![	c #DF9B1D",
"!]	c #E09A1B",
"!^	c #DF9A1C",
"!_	c #DE991B",
"!`	c #DE991A",
"!a	c #E09914",
"!b	c #DB9A1A",
"!c	c #DD981B",
"!d	c #DD9719",
"!e	c #DB971A",
"!f	c #DB961A",
"!g	c #DB9518",
"!h	c #DA9318",
"!i	c #DB9224",
"!j	c #D99720",
"!k	c #D8911A",
"!l	c #D89117",
"!m	c #D69726",
"!n	c #D69520",
"!o	c #D5931C",
"!p	c #C9972F",
"!q	c #CE9122",
"!r	c #D6901A",
"!s	c #D78F16",
"!t	c #D58E15",
"!u	c #D48C14",
"!v	c #D48B14",
"!w	c #D38E16",
"!x	c #D28A14",
"!y	c #D28A13",
"!z	c #D08F18",
"!{	c #D08B1B",
"!|	c #CC8B14",
"!}	c #C28C21",
"!~	c #CF8919",
"# 	c #D18813",
"#!	c #CD871A",
"##	c #CF8612",
"#$	c #CF8512",
"#%	c #CE8411",
"#&	c #CD8516",
"#'	c #CC8310",
"#(	c #CC8211",
"#)	c #C98713",
"#*	c #CA8313",
"#+	c #CA810F",
"#,	c #C87F0F",
"#-	c #C77D0E",
"#.	c #C58311",
"#/	c #C17F10",
"#0	c #B78523",
"#1	c #BA7E11",
"#2	c #C67B0D",
"#3	c #C07B0F",
"#4	c #BD780D",
"#5	c #B47913",
"#6	c #B8760D",
"#7	c #B8730C",
"#8	c #B3720C",
"#9	c #B5700A",
"#:	c #B16D0A",
"#;	c #AA7212",
"#<	c #AE6C0A",
"#=	c #996E21",
"#>	c #AC6A0A",
"#?	c #A6680B",
"#@	c #A86508",
"#A	c #A66408",
"#B	c #A56308",
"#C	c #A36207",
"#D	c #9B6308",
"#E	c #A15F07",
"#F	c #A05F07",
"#G	c #A25C06",
"#H	c #7D5716",
"#I	c #5D3E0C",
"#J	c #4A2E05",
"#K	c #492A02",
"#L	c #472902",
"#M	c #462802",
"#N	c #432803",
"#O	c #442702",
"#P	c #422602",
"#Q	c #412502",
"#R	c #3F2401",
"#S	c #3C2503",
"#T	c #3D2301",
"#U	c #3C2201",
"#V	c #3A2101",
"#W	c #382001",
"#X	c #371F01",
"#Y	c #351F01",
"#Z	c #341E01",
"#[	c #321D01",
"#]	c #301C01",
"#^	c #2F1B01",
"#_	c #2D1A01",
"#`	c #2C1A01",
"#a	c #2B1900",
"#b	c #2A1800",
"#c	c #281700",
"#d	c #261600",
"#e	c #251500",
"#f	c #231400",
"#g	c #000000",
"                                                                                                                                ",
"                                                                                                                                ",
"                                                       O V V W W Y X X g g                                                      ",
"                                               G H O O V W W Y X X g g h h h h l l                                              ",
"                                         E G H H O Y x x x x x x i x x y y | { l z z z {                                        ",
"                                     D E G H Y x x X I I I I I I I I I I I I X y | | { { }!#                                    ",
"                                 D E G H x x U Q I = 3 . ( $ $ ! ! $ $ ) . 3 = I Q [ {!8!#!#!$!$                                ",
"                               D E H g i N C 3 ' $ # ! ! ! # # # # # # ! ! ! # $ ' 3 J N z!8!$!+!5                              ",
"                           D E G Y x T = + & $ # # % & & & & & & & & & & & & % # # $ & + = T |!;!-!.!6                          ",
"                         D E G x h = , ( $ $ ' ) ) ) ) ) ) ) ) ) ) ) ) ) ) ) ) ) ) ' $ $ ( , @ h!;!6!6!<                        ",
"                       D F O y S 4 . & % + . . . . . . . . . . . . . . . . . . . . . . + % ' . 4 T!9!>!>!?                      ",
"                     E G V y J 1 / & - 1 1 1 1 1 1 1 1 1 1 1 1 1 1 1 1 1 1 1 1 1 1 1 1 1 1 - & 0 1 J!8!H!?!?                    ",
"                   E G V y C 6 2 ' 5 6 6 6 6 6 6 6 6 6 6 6 6 6 6 6 6 6 6 6 6 6 6 6 6 6 6 6 6 5 * 2 6 A!8!H!H!H                  ",
"                 G G V y J : 5 - 9 : : : : : : : : : : : : : : : : : : : : : : : : : : : : : : ; - 4 : J!9!P!P!P                ",
"                 H O | Q < 7 / < < < < < < < < < < < < < < < < < < < < < < < < < < < < < < < < < < / 7 < S!;!P!W                ",
"               H O y ` A < 5 @ @ @ @ @ @ @ @ @ @ @ @ @ @ @ @ @ @ @ @ @ @ @ @ @ @ @ @ @ @ @ @ @ @ @ @ 5 < A b!X!Z!Z              ",
"             O O g { L A 4 B C C C C C C C C C C C C C C C C C C C C C C C C C C C C C C C C C C C C B 4 A L }!b!b!b            ",
"             O V | ` K 7 J K K K K K K K K K K K K K K K K K K K K K K K K K K K K K K K K K K K K K K J 7 K b!;!e!g            ",
"           V V y n Z A B M M M M M M M M M M M M M M M M M M M M M M M M M M M M M M M M M M M M M M M M C A Z m!n!h!l          ",
"           V Y!# m S ? R R R R R R R!T!T!T!T!T R R g!T!T!T!T!T!T x R R R R R R x!T!T!T!T!T!T g R R R R R R ? R m!;!l!w          ",
"         W W | s m C R U U U U U U!:#K#K#K#K#K!: U [#H#K#K#K#K#K#H U U U U U U#H#K#K#K#K#K#I [ U U U U U U R C m s!o!w!w        ",
"         W Y!8 o j J ] ] ] ] ] ] ]!U#L#L#L#L#L!U ] ]!U#L#L#L#L#L#L!U ] ] ] ]!U#L#L#L#L#L#L!U ] ] ] ] ] ] ] ] J j o!N!z!z        ",
"         X y!  s b Z ^ ^ ^ ^ ^ ^ ^!U#M#M#M#M#M!U ^ ^ ^#H#M#M#M#M#M#I ^ ^ ^ ^#I#M#M#M#M#M#H ^ ^ ^ ^ ^ ^ ^ ^ ^ Z b s!!!|!|        ",
"       X X!8 v v ` a a a a a a a a!U#O#O#O#O#O!U a a a!:#J#O#O#O#O#O#0 a a#0#O#O#O#O#O#K!: a a a a a a a a a a ` v v!o!|#)      ",
"       X g!9 v s e d c c c c c c c!U#P#P#P#P#P!U c c c c#=#P#P#P#P#P#J { {#J#P#P#P#P#P#= c c c c c c c c c c d e v v!X#)#)      ",
"       g y!/ w j v m f f f f f f f!U#Q#Q#Q#Q#Q!U f f f f {#J#Q#Q#Q#Q#Q#=#=#Q#Q#Q#Q#Q#J { f f f f f f f f f f m v j w!7#.#)      ",
"       h | w w e w v k k k k k k k!p#R#R#R#R#R!p k k k k k#0#R#R#R#R#R#N#N#R#R#R#R#R#0 k k k k k k k k k k k v w e w w#)#.      ",
"     h h!8!(!( j!(!( s n n n n n n!p#T#T#T#T#T!p n n n n n p#I#T#T#T#T#T#T#T#T#T#T#I q n n n n n n n n n n s!(!( j!(!(!|#.#/    ",
"     h h!9!)!) j!)!) w r r r r r r!p#U#U#U#U#U!p r r r r r r!p#U#U#U#U#U#U#U#U#U#U!p r r r r r r r r r r r w!)!) j!)!)!z#/#/    ",
"     l l!;!0!* r!0!0!0!% u u u u u!p#V#V#V#V#V!p u u u u u u u#H#V#V#V#V#V#V#V#V#H u u u u u u u u u u u!*!0!0!0 r!*!0!o#/#3    ",
"     l z!G!1!% u!1!1!1!1!% ~ ~ ~ ~!p#W#W#W#W#W!p ~ ~ ~ ~ ~ ~ ~!S#S#W#W#W#W#W#W#T!S ~ ~ ~ ~ ~ ~ ~ ~ ~ ~!%!1!1!1!1 t!%!1!o#3#3    ",
"     z z!G!2!%! !2!2!2!2!2!*!'!'!'!}#X#X#X#X#X!}!'!'!'!'!'!'!'!'#H#X#X#X#X#X#X#H!'!'!'!'!'!'!'!'!'!'!*!2!2!2!2!2 ~!%!2!o#3#4    ",
"     z {!V!3!,!'!3!3!3!3!3!3!/!,!,!}#Y#Y#Y#Y#Y!}!,!,!,!,!,!,!,!,#H#Y#Y#Y#Y#Y#Y#H!,!,!,!,!,!,!,!,!,!/!3!3!3!3!3!3!&!,!3!o#4#6    ",
"     { {!V!=!.!&!=!=!=!=!=!=!=!<!/!}#Z#Z#Z#Z#Z!}!.!.!.!.!.!.!.!m#V#Z#Z#Z#Z#Z#Z#V!m!.!.!.!.!.!.!/!<!=!=!=!=!=!=!=!&!.!=!z#6#6    ",
"     }!#!N!@!7!$!@!@!@!@!@!@!@!@!@#0#[#[#[#[#[!}!7!7!7!7!7!7!7#I#[#[#[#[#[#[#[#[#H!7!7!7!7!7!<!@!@!@!@!@!@!@!@!@!$!7!@!|#6#6    ",
"    !#!#!N!D!C!#!D!D!D!D!D!D!D!D!D#1#]#]#]#]#]#0!<!<!<!<!<!<#0#]#]#]#]#]#]#]#]#]#]#0!<!<!B!C!D!D!D!D!D!D!D!D!D!D!#!C!D#)#7#8    ",
"    !#!$!N!F!F!#!F!F!F!F!F!F!F!F!F#1#^#^#^#^#^#0!E!E!E!E!E!E#I#^#^#^#^#^#^#^#^#^#^#J!K!F!F!F!F!F!F!F!F!F!F!F!F!F!#!F!F#/#8#8    ",
"      !$!N!M!L!#!L!L!L!L!L!L!L!L!L#1#_#_#_#_#_#1!L!K!K!K!J#?#_#_#_#_#_#]#Z#_#_#_#_#_#?!L!L!L!L!L!L!L!L!L!L!L!L!L!#!L!M#6#8      ",
"      !+!;!^!O!9!G!O!O!O!O!O!O!O!O#5#a#a#a#a#a#5!O!O!O!O!b#S#a#a#a#a#a#H#H#a#a#a#a#a#S!e!O!O!O!O!O!O!O!O!O!O!O!G!9!O!f#8#:      ",
"      !-!,!j!Q!I!9!Q!Q!Q!Q!Q!Q!Q!Q#5#b#b#b#b#b#5!Q!Q!Q!Q#H#b#b#b#b#b#S!f!e#S#b#b#b#b#b#H!Q!Q!Q!Q!Q!Q!Q!Q!Q!Q!Q!9!I!Q#)#:#<      ",
"      !.!6!j!Y!Y!8!Y!Y!Y!Y!Y!Y!Y!Y#5#c#c#c#c#c#5!Y!Y!Y!|#_#c#c#c#c#c#D!Y!Y#D#c#c#c#c#c#`#)!Y!Y!Y!Y!Y!Y!Y!Y!Y!Y!8!Y!Y#4#<#<      ",
"        !6!V!e!]!9!N!]!]!]!]!]!]!]#5#d#d#d#d#d#5!]!]!]#I#d#d#d#d#d#J!c!]!]!_#J#d#d#d#d#d#I!]!]!]!]!]!]!]!]!]!N!9!]!f#<#>        ",
"        !<!>!l!`![!8!`!`!`!`!`!`!`#5#e#e#e#e#e#5!`!`#5#e#e#e#e#e#e#;!`!`!`!`#5#e#e#e#e#e#e#;!`!`!`!`!`!`!`!`!8!^!`#.#>#>        ",
"        !>!?!b!g!d!9!X!d!d!d!d!d!d#1#f#f#f#f#f#1!d!f#J#f#f#f#f#f#I!d!d!d!d!d!d#I#f#f#f#f#f#L!g!d!d!d!d!d!d!X!9!d!f#:#>#@        ",
"          !?!H!w!g!c!8!g!g!g!g!g!g!g#5#;#;#;#5!g!g!w#;#;#;#;#;#;!|!g!g!g!g!g!g!|#;#;#;#;#;#;!w!g!g!g!g!g!g!8!f!g#.#>#@          ",
"          !H!H!e!l!h!R!N!h!h!h!h!h!h!h!h!h!h!h!h!h!h!h!h!h!h!h!h!h!h!h!h!h!h!h!h!h!h!h!h!h!h!h!h!h!h!h!h!N!N!h!l#:#@#@          ",
"            !P!P!w!l!l!8!f!l!l!l!l!l!l!l!l!l!l!l!l!l!l!l!l!l!l!l!l!l!l!l!l!l!l!l!l!l!l!l!l!l!l!l!l!l!l!j!8!l!l#4#@#A            ",
"            !P!P!g!x!s!k!9!s!s!s!s!s!s!s!s!s!s!s!s!s!s!s!s!s!s!s!s!s!s!s!s!s!s!s!s!s!s!s!s!s!s!s!s!s!s!:!k!s###@#A#B            ",
"              !W!Z!w!u!t!j!R!t!t!t!t!t!t!t!t!t!t!t!t!t!t!t!t!t!t!t!t!t!t!t!t!t!t!t!t!t!t!t!t!t!t!t!t!R!n!t!u#<#A#C              ",
"                !Z!b#)!v!u!m!R!u!u!u!u!u!u!u!u!u!u!u!u!u!u!u!u!u!u!u!u!u!u!u!u!u!u!u!u!u!u!u!u!u!u!R!m!u!v#7#B#C                ",
"                !b!e!g#)!y!y!m!R!x!y!y!y!y!y!y!y!y!y!y!y!y!y!y!y!y!y!y!y!y!y!y!y!y!y!y!y!y!y!y!x!R!m!y!y#6#C#C#C                ",
"                  !g!l!w#*# # !o!R!w# # # # # # # # # # # # # # # # # # # # # # # # # # # # !{!R!o# # #4#C#C#E                  ",
"                    !l!w!w#.#$##!~!R!m####################################################!m!R# ###$#7#C#E#E                    ",
"                      !w!w!|#.#(#%#%!m!R!{#%#%#%#%#%#%#%#%#%#%#%#%#%#%#%#%#%#%#%#%#%#%!{!R!m#%#%#(#:#C#E#F                      ",
"                        !z!|!|#/#,#'#'#&!S!S!{#'#'#'#'#'#'#'#'#'#'#'#'#'#'#'#'#'#'!{!S!S#&#'#'#2#>#E#E#E                        ",
"                          !|!|#)#.#3#,#+#+#(!m!S!S!~#+#+#+#+#+#+#+#+#+#+#+#+!{!S!S!m#*#+#+#,#9#C#E#E#F                          ",
"                              #)#)#.#3#3#,#,#,#,#&!m!S!S!S!m!m!q!q!m!m!S!S!S!m#&#,#,#,#,#7#@#C#E#F                              ",
"                                #.#.#.#/#4#4#2#-#-#-#-#-#,#&#!!{!{#!#&#,#-#-#-#-#-#2#9#@#C#E#E#F                                ",
"                                    #/#/#3#3#6#7#7#4#2#2#2#2#2#2#2#2#2#2#2#2#4#9#>#B#C#C#E#F                                    ",
"                                        #3#4#4#6#6#8#9#9#9#9#9#7#9#9#9#:#>#@#A#A#B#C#E#F                                        ",
"                                              #6#7#8#8#8#8#:#<#<#>#>#>#@#@#A#B#C#C                                              ",
"                                                      #:#:#<#>#>#>#>#@#A#A                                                      ",
"                                                                                                                                ",
"                                                                                                                                "};
