/* XPM */
static char * ixcoin32_xpm[] = {
"32 32 256 2",
"  	c None",
" !	c #FFFFD5",
" #	c #FEE7AD",
" $	c #FEE6A9",
" %	c #FEE4A8",
" &	c #FEE4A6",
" '	c #FEE4A5",
" (	c #FEE4A4",
" )	c #FEE2A2",
" *	c #FEE29B",
" +	c #FDE09B",
" ,	c #FDDF9B",
" -	c #FDDF99",
" .	c #FEDF95",
" /	c #FCDE96",
" 0	c #FCDC90",
" 1	c #FDDB8C",
" 2	c #FCDB8D",
" 3	c #FCDA8B",
" 4	c #F8D889",
" 5	c #F7D688",
" 6	c #FFFF40",
" 7	c #FCD987",
" 8	c #FCD984",
" 9	c #FCD884",
" :	c #FBD680",
" ;	c #FBD67F",
" <	c #F7D786",
" =	c #FBD57D",
" >	c #F7D584",
" ?	c #F8D480",
" @	c #FBD174",
" A	c #F6D27B",
" B	c #F5D17E",
" C	c #F7D179",
" D	c #F9D073",
" E	c #F5D077",
" F	c #FACD6B",
" G	c #FACD69",
" H	c #F7CE72",
" I	c #F6CE6D",
" J	c #F4CE77",
" K	c #F2CD77",
" L	c #F1CE79",
" M	c #F5CE70",
" N	c #F3CE70",
" O	c #F8C979",
" P	c #F4CB6D",
" Q	c #F7CC69",
" R	c #F4CB69",
" S	c #F1CB71",
" T	c #F3C968",
" U	c #F2C86E",
" V	c #FACA5F",
" W	c #F9C85D",
" X	c #F9C85A",
" Y	c #F2C865",
" Z	c #F9C756",
" [	c #F2C762",
" ]	c #F1C65F",
" ^	c #F8C453",
" _	c #F0C561",
" `	c #F2C45C",
" a	c #F6C04D",
" b	c #F1C259",
" c	c #F6C047",
" d	c #F6BF46",
" e	c #F6BC3A",
" f	c #F0C157",
" g	c #F0BF57",
" h	c #EFBD4C",
" i	c #E5BD66",
" j	c #F0BC47",
" k	c #E9BB57",
" l	c #E4BB65",
" m	c #F4BA3F",
" n	c #EFBA47",
" o	c #EBB644",
" p	c #E8B955",
" q	c #F6B935",
" r	c #F5B837",
" s	c #F5B62A",
" t	c #F1B738",
" u	c #F2B535",
" v	c #F1B537",
" w	c #EFB436",
" x	c #FAAD4A",
" y	c #EEB031",
" z	c #EEAF30",
" {	c #EDB437",
" |	c #E9B13B",
" }	c #E2B149",
" ~	c #EDAE33",
"! 	c #EAAF35",
"!!	c #EAAD31",
"!#	c #E5AD39",
"!$	c #F4B52F",
"!%	c #F1B22E",
"!&	c #F3B125",
"!'	c #F0AE23",
"!(	c #FFAA00",
"!)	c #EDAC28",
"!*	c #EDAA22",
"!+	c #EBAF2F",
"!,	c #EAAD27",
"!-	c #E8AB2D",
"!.	c #EAAB22",
"!/	c #EBA929",
"!0	c #E8AA2B",
"!1	c #E5A826",
"!2	c #E7A62B",
"!3	c #E5A62F",
"!4	c #E9A724",
"!5	c #EAA620",
"!6	c #E9A71C",
"!7	c #E7A420",
"!8	c #E7A31E",
"!9	c #E5A525",
"!:	c #E3A524",
"!;	c #E6A221",
"!<	c #E49F1D",
"!=	c #E0A12D",
"!>	c #E2A024",
"!?	c #E2A11A",
"!@	c #E19B1B",
"!A	c #DCA737",
"!B	c #DF9F20",
"!C	c #DF9E1B",
"!D	c #DE9D1C",
"!E	c #DE9C1B",
"!F	c #DE9A1D",
"!G	c #DB9926",
"!H	c #DF991A",
"!I	c #DD981A",
"!J	c #DB9917",
"!K	c #DB961F",
"!L	c #DB9719",
"!M	c #DA9418",
"!N	c #D7A43B",
"!O	c #D99A1E",
"!P	c #D89723",
"!Q	c #D99717",
"!R	c #D69427",
"!S	c #D6951B",
"!T	c #D79321",
"!U	c #D69223",
"!V	c #D99318",
"!W	c #D79218",
"!X	c #D3A64A",
"!Y	c #D4951C",
"!Z	c #BBA20D",
"![	c #D29217",
"!]	c #D79118",
"!^	c #D79016",
"!_	c #D48F15",
"!`	c #D48D15",
"!a	c #D29025",
"!b	c #D18E23",
"!c	c #D28F17",
"!d	c #CC8E19",
"!e	c #D08D23",
"!f	c #D28D1D",
"!g	c #CE8D18",
"!h	c #CF8D16",
"!i	c #D08C23",
"!j	c #D08C1F",
"!k	c #D18C17",
"!l	c #CD8C13",
"!m	c #FF8000",
"!n	c #D18913",
"!o	c #D08814",
"!p	c #CE8511",
"!q	c #CC8812",
"!r	c #CB8210",
"!s	c #CB8110",
"!t	c #CA8A18",
"!u	c #CA8812",
"!v	c #C88712",
"!w	c #C88613",
"!x	c #C88411",
"!y	c #C48515",
"!z	c #CA8314",
"!{	c #C28315",
"!|	c #C88111",
"!}	c #C38111",
"!~	c #C77E0E",
"# 	c #C67E0E",
"#!	c #C27B0E",
"##	c #C08016",
"#$	c #C07E0F",
"#%	c #BC8116",
"#&	c #C17D10",
"#'	c #BD7B0F",
"#(	c #BE750C",
"#)	c #BB750C",
"#*	c #B9770D",
"#+	c #B7760D",
"#,	c #BA730B",
"#-	c #B7710A",
"#.	c #B4720C",
"#/	c #B16F0B",
"#0	c #B06C09",
"#1	c #A47E37",
"#2	c #9B7121",
"#3	c #A56F16",
"#4	c #AC6B09",
"#5	c #808000",
"#6	c #8D6A2A",
"#7	c #A96809",
"#8	c #A76609",
"#9	c #A86509",
"#:	c #A66408",
"#;	c #8F651A",
"#<	c #A46207",
"#=	c #A36008",
"#>	c #A05F08",
"#?	c #A15F06",
"#@	c #A65A03",
"#A	c #9F5F03",
"#B	c #866321",
"#C	c #866220",
"#D	c #835E1C",
"#E	c #84590E",
"#F	c #795517",
"#G	c #775110",
"#H	c #734E14",
"#I	c #724B0B",
"#J	c #714B0B",
"#K	c #704A0B",
"#L	c #634109",
"#M	c #4D3206",
"#N	c #4E3007",
"#O	c #482D05",
"#P	c #472B05",
"#Q	c #482A02",
"#R	c #452A04",
"#S	c #452802",
"#T	c #422905",
"#U	c #412602",
"#V	c #402602",
"#W	c #402501",
"#X	c #3E2401",
"#Y	c #3B2201",
"#Z	c #382103",
"#[	c #382001",
"#]	c #341E01",
"#^	c #311E01",
"#_	c #311C01",
"#`	c #301C01",
"#a	c #301B01",
"#b	c #2E1A01",
"#c	c #2B1800",
"#d	c #291700",
"#e	c #271600",
"#f	c #241400",
"#g	c #000000",
"                                                                ",
"                         ? A E M P T [ `                        ",
"                     > L S P I I I R Y b h h                    ",
"                 < K N 8 . ( $ # # $ ( . 8 ] o {                ",
"             4 B P 1 ' % & ) ) ) ) ) ) & % ' 1 g!+!,            ",
"           5 K C + ) , - - - - - - - - - - , ) + P!0!6          ",
"         > K C / / 0 0 0 0 0 0 0 0 0 0 0 0 0 0 / / H!:!?        ",
"         L R 2 3 7 7 7 7 7 7 7 7 7 7 7 7 7 7 7 7 3 2 `!C        ",
"       A f : 9 = = = = = = = = = = = = = = = = = = 9 :!#!J      ",
"       Y Z ; @ @ @ i l U D l l l H @ @ H l l l D @ @ ; Z!O      ",
"     H n V F G G k#Q#Q#6 G#F#Q#Q#1 G G#1#Q#Q#H G G G F V!-!c    ",
"     _ q X W W W p#S#S#B W!X#R#S#N p p#N#S#R!X W W W W X q!h    ",
"   T n q c ^ ^ ^ }#U#U#C ^ ^#C#U#U#C#C#U#U#B ^ ^ ^ ^ ^ c q!S!w  ",
"   [ { e s d c c!##X#X#D c c |#O#X#V#W#X#P | c c c c d s e!D!}  ",
"   b!+ r!&!$ m m!A#Y#Y#D m m m#2#Y#Y#Y#Y#2 m m m m m!$!& r!B#$  ",
"   f!/ u!'!'!% v!=#[#[#F v v v! #P#[#[#P!  v v v v!%!'!' u!<#'  ",
"   h!9 w!*!*!*!)!G#]#]#F y y y!-#T#]#]#T!- y y z!)!*!*!* w!F#*  ",
"   n!9 ~!5!5!5!5!Y#_#_#G!/!/!/#;#_#_#_#_#;!/!4!5!5!5!5!5 ~!S#+  ",
"   o!:!!!8!8!8!8![#b#b#I!7!7!Y#Z#b#a#a#b#Z!Y!8!8!8!8!8!8!!!h#.  ",
"   {!:!;!2!<!<!<!d#c#c#J!<!<#K#c#c#I#J#c#c#J!<!<!<!<!<!2!;#&#/  ",
"    !1!H!3!@!@!@!t#e#e#K!@#%#d#e#`!g!c#^#e#d#%!@!@!@!@!3!H#/    ",
"    !.!L!=!F!I!I!t#f#f#K!I#M#f#f#E!I!I#E#f#f#M!I!I!I!F!=!w#4    ",
"      !E!V!=!M!M!M!y!{!k!W!{!{!{!]!M!M!]!{!{!{!W!M!M!=!V#/      ",
"      !?!_!K!G!^!^!^!^!^!^!^!^!^!^!^!^!^!^!^!^!^!^!G!K#&#:      ",
"        !J!k!G!T!`!`!`!`!`!`!`!`!`!`!`!`!`!`!`!`!T!G!x#8        ",
"        !Q!c!o!U!U!n!n!n!n!n!n!n!n!n!n!n!n!n!n!U!R!p#7#=        ",
"          ![!l!x!f!R!o!p!p!p!p!p!p!p!p!p!p!o!R!f# #9#?          ",
"            !l!u!}!s!b!a!j!r!r!r!r!r!r!j!a!b!s#,#<#?            ",
"                !x#&#!!~!z!i!i!e!e!i!i!z!~#,#8#?                ",
"                    #'#*#)#)#(#(#(#,#-#0#:#=                    ",
"                        #+#.#/#4#7#7#:#<                        ",
"                                                                "};
