/* XPM */
static char * ixcoin32_xpm[] = {
"32 32 256 2",
"  	c None",
" !	c #FFFFFF",
" #	c #FFFDFD",
" $	c #FDFEFE",
" %	c #FEFCFC",
" &	c #FDFCFC",
" '	c #FEFBFB",
" (	c #FCFBFB",
" )	c #FBFEFE",
" *	c #F9FFFF",
" +	c #FBFDFD",
" ,	c #F7FFFF",
" -	c #F4FCFB",
" .	c #FCFAFA",
" /	c #FBFAFA",
" 0	c #F6FAFA",
" 1	c #FCF7F7",
" 2	c #F6F6F6",
" 3	c #F3F7F7",
" 4	c #E7F6F6",
" 5	c #F8EEEE",
" 6	c #F0F1F1",
" 7	c #FAE9E9",
" 8	c #E8E8E8",
" 9	c #E2F0F0",
" :	c #DEE8E8",
" ;	c #E1E7E7",
" <	c #F1E0E0",
" =	c #DBE2E2",
" >	c #DADDDD",
" ?	c #EECECE",
" @	c #D8DEDE",
" A	c #CCD5D5",
" B	c #D0D4D3",
" C	c #FBC5C5",
" D	c #FCBAB9",
" E	c #E5C2C1",
" F	c #C9C2C2",
" G	c #BAB8B8",
" H	c #F9B0B0",
" I	c #F9ABAB",
" J	c #F8A3A2",
" K	c #C4A5A5",
" L	c #F89B9A",
" M	c #F49B9B",
" N	c #F69593",
" O	c #C79B9B",
" P	c #BCACAC",
" Q	c #AFAFAF",
" R	c #B69999",
" S	c #BC9696",
" T	c #AC9191",
" U	c #A09191",
" V	c #FF7F7F",
" W	c #F98282",
" X	c #F77979",
" Y	c #F67272",
" Z	c #FF6868",
" [	c #DE6868",
" ]	c #B57272",
" ^	c #A08382",
" _	c #928787",
" `	c #A27A7A",
" a	c #A66E6E",
" b	c #9E6A6A",
" c	c #916A6A",
" d	c #FF5151",
" e	c #F34F4F",
" f	c #F34646",
" g	c #F74443",
" h	c #DD3E3D",
" i	c #FF3433",
" j	c #FB2F2F",
" k	c #DE3635",
" l	c #F82727",
" m	c #F92322",
" n	c #FA1F1E",
" o	c #EA2121",
" p	c #DF2525",
" q	c #D32423",
" r	c #B85959",
" s	c #AD5959",
" t	c #9C5656",
" u	c #975A5A",
" v	c #985757",
" w	c #A85555",
" x	c #BC4645",
" y	c #974242",
" z	c #C62E2E",
" {	c #B32A29",
" |	c #B13333",
" }	c #C61C1B",
" ~	c #A02A29",
"! 	c #7F2B2B",
"!!	c #772A2A",
"!#	c #F61514",
"!$	c #F91110",
"!%	c #FB0F0E",
"!&	c #F90C0B",
"!'	c #F70C0B",
"!(	c #FE0807",
"!)	c #F80706",
"!*	c #FF0504",
"!+	c #FC0504",
"!,	c #FA0504",
"!-	c #F20504",
"!.	c #FC0403",
"!/	c #F90404",
"!0	c #F80403",
"!1	c #F60403",
"!2	c #F20404",
"!3	c #F20403",
"!4	c #F00403",
"!5	c #F80303",
"!6	c #F70302",
"!7	c #F30302",
"!8	c #F00303",
"!9	c #F00302",
"!:	c #FF0201",
"!;	c #FB0202",
"!<	c #F80202",
"!=	c #F60202",
"!>	c #F50201",
"!?	c #F40202",
"!@	c #F30201",
"!A	c #F20201",
"!B	c #F10201",
"!C	c #F00202",
"!D	c #F00201",
"!E	c #EF0504",
"!F	c #EF0403",
"!G	c #EF0302",
"!H	c #EE0302",
"!I	c #EF0202",
"!J	c #EF0201",
"!K	c #EE0202",
"!L	c #EE0201",
"!M	c #ED1413",
"!N	c #E31413",
"!O	c #E30C0B",
"!P	c #D80F0F",
"!Q	c #D80C0A",
"!R	c #E70403",
"!S	c #DC0908",
"!T	c #ED0302",
"!U	c #ED0201",
"!V	c #EC0201",
"!W	c #EB0202",
"!X	c #E90201",
"!Y	c #E80303",
"!Z	c #C81010",
"![	c #AA1919",
"!]	c #CA0303",
"!^	c #BF0303",
"!_	c #AE0504",
"!`	c #9F1716",
"!a	c #951818",
"!b	c #9F0606",
"!c	c #7F1111",
"!d	c #000202",
"!e	c #FF0101",
"!f	c #FE0101",
"!g	c #FD0101",
"!h	c #FC0101",
"!i	c #F90101",
"!j	c #F80101",
"!k	c #F80100",
"!l	c #F70101",
"!m	c #F40101",
"!n	c #F40100",
"!o	c #F30101",
"!p	c #F30100",
"!q	c #F20101",
"!r	c #F20100",
"!s	c #F10101",
"!t	c #F00101",
"!u	c #F00100",
"!v	c #EF0101",
"!w	c #EF0100",
"!x	c #EE0101",
"!y	c #EE0100",
"!z	c #ED0101",
"!{	c #EC0101",
"!|	c #EC0100",
"!}	c #EB0101",
"!~	c #E90101",
"# 	c #E60101",
"#!	c #E30100",
"##	c #E20101",
"#$	c #DF0101",
"#%	c #D50101",
"#&	c #D40101",
"#'	c #D30101",
"#(	c #D10100",
"#)	c #CB0100",
"#*	c #C80101",
"#+	c #C40101",
"#,	c #C20100",
"#-	c #BB0100",
"#.	c #B30100",
"#/	c #B20100",
"#0	c #AF0100",
"#1	c #AC0100",
"#2	c #A70101",
"#3	c #970100",
"#4	c #8A0100",
"#5	c #7D0100",
"#6	c #3C0101",
"#7	c #FF0000",
"#8	c #FB0000",
"#9	c #F90000",
"#:	c #F80000",
"#;	c #F70000",
"#<	c #F60000",
"#=	c #F50000",
"#>	c #F40000",
"#?	c #F30000",
"#@	c #F10000",
"#A	c #F00000",
"#B	c #EF0000",
"#C	c #EE0000",
"#D	c #ED0000",
"#E	c #EB0000",
"#F	c #E90000",
"#G	c #E40000",
"#H	c #DE0000",
"#I	c #D90000",
"#J	c #D70000",
"#K	c #CF0000",
"#L	c #CA0000",
"#M	c #BD0000",
"#N	c #870000",
"#O	c #740000",
"#P	c #550000",
"#Q	c #4D0000",
"#R	c #4C0000",
"#S	c #480000",
"#T	c #440000",
"#U	c #420000",
"#V	c #410000",
"#W	c #400000",
"#X	c #3F0000",
"#Y	c #390000",
"#Z	c #340000",
"#[	c #300000",
"#]	c #2F0000",
"#^	c #260000",
"#_	c #210000",
"#`	c #1F0000",
"#a	c #150000",
"#b	c #090000",
"#c	c #040000",
"#d	c #030000",
"#e	c #020000",
"#f	c #010000",
"#g	c #000000",
"                          !M o j i e Y                          ",
"                    #+!R!-!+!+!,!,!)!% m g X                    ",
"                #2!V!e!l!w!w!w!w!y#B#C#C#@!/ i W                ",
"            #R#*!f!q!x!v!D!D!D!D!D!D!C!C!4!w#C!n d C            ",
"          #Q##!h!{!v!D!t!D!D!J!D!t!t!t!t!D!D!8!J#D j D          ",
"        #X##!i!{!t!t!v!t!t!J!7!@!G!H!I!D!t!t!w!v!E#C m C        ",
"      #_#)!g!{!t!t!t!t!t!v!o#H###?#:#;!@!I!G!D!t!u!E#D i <      ",
"      #3!e!{!t!t!t!t!t!J!6#K a O r z!P#G#@#<#A!t!t!u!E#C Z      ",
"    #R!n!t!v!t!t!t!t!t!L!i!^ _ > , ; F S r h!M!u!D!t!D!G!) I    ",
"    #0!g!z!t!t!t!t!t!D!t!u!3#K!  3 ! ! 3 9 A q#<!G!D!u!F#C d    ",
"  #W!v!s!t!t!t!t!s!t!t!t!J!2!W t ) 1 + a!a ~!X!r!D!t!t!D!x!& H  ",
"  #5!e!z!t!t!t!t!t!t!t!s!>!.#+ R ! ' 3 x#8#A!q!D!t!t!D!t!F#A Y  ",
"#c#/!g!x!t!D!t!t!t!t!s#E#K#B!b B ! ! B }!=!E!D!D!t!u!u!t!4!z g  ",
"#_#(!j!v!B!s!t!t!t!I#;![ G O u 2 % ! S#F#;!J!t!B!t!t!u!t!9#C m C",
"#Y#!!o!v!t!t!s!t!t!L#9!` ^ F 6 % . ! O }!O!3!v!D!t!t!u!t!D#B!$ I",
"#U!~!q!t!t!t!u!t!v!?#I w ]!! P ! / 6 8 : P!N#?!9!s!t!u!t!D#B!' L",
"#U!~!q!t!t!t!t!t!L!<#+ _ = 8 6 ( ! F!  b s!Y!r!D!t!u!t!t!D#B!' N",
"#Z##!m!t!t!t!u!t!t!t!C#L!b c ! ( & 0 ? R z#;!G!t!u!u!t!t!D#B!$ L",
"#`#(!j!v!D!t!t!t!t!t!v!*#I ` ! & 2 u ^ G z#;!G!t!t!t!t!u!C#B n I",
"#d#0!e!z!s!t!t!t!B!t!T!5!_ F ! ! > }#J#M#D!r!t!t!t!t!t!t!9#C j  ",
"  #O!e!z!s!s!t!s!t!s#=#8 ~ 9 # ! P!S!.!/!B!t!t!t!u!t!t!t!I#> f  ",
"  #Y!}!q!u!u!t!v!B#F { | v + 1 ) ]#@!G!J!B!t!D!t!u!t!t!D!w!( Z  ",
"    #2!e!|!t!t!L!5#* U 9 0 ! ! - r# !7!D!s!t!s!s!t!t!t!C#B m    ",
"    #V!v!s!v!u!t!q!Y![ y ` P = * 8 K p#>!G!t!t!t!t!t!D!y!* g    ",
"      #N!e!|!t!t!t!q#9#C#J#-!` y T T!P#>!J!t!t!t!t!t!x#=!#      ",
"      #a#-!:!V!t!t!t!K!8!1!;#9#E#L#L#>!D!t!t!t!t!t!J#@!(        ",
"        #^#L!:!{!v!D!t!D!J!L!H!4!0!6!D!B!t!t!t!t!U!p!*!Q        ",
"          #^#-!:!s!{!D!D!t!D!D!t!v!J!t!t!t!t!x!x!k!<!^          ",
"            #a#4!s!:!q!z!z!J!J!t!t!J!v!L!z!v!j!f#'              ",
"                #S#1!x!:!g!l!m!A!s!o!=!;!e!i#&#3                ",
"                    #W#5#.#%# !U!x!X#H#,#3#O                    ",
"                        #d#^#6#S#R#T#[                          "};
