/* XPM */
static char * ixcoin16_xpm[] = {
"16 16 163 2",
"  	c None",
" !	c #FEE2A0",
" #	c #FEE19F",
" $	c #FEE19E",
" %	c #F3DC97",
" &	c #F3DC8B",
" '	c #FCDB8D",
" (	c #FCDB8C",
" )	c #F9DB8E",
" *	c #FBDA8F",
" +	c #FADA8E",
" ,	c #FBDA8A",
" -	c #FBD989",
" .	c #FAD88A",
" /	c #F9D786",
" 0	c #F8D481",
" 1	c #F6D583",
" 2	c #FBD37A",
" 3	c #F7D37B",
" 4	c #F5D383",
" 5	c #FFD287",
" 6	c #FAD278",
" 7	c #F4D17C",
" 8	c #F0D278",
" 9	c #F6D079",
" :	c #F6CE75",
" ;	c #F5CE74",
" <	c #F3CD73",
" =	c #F8CC6B",
" >	c #F9CB64",
" ?	c #F3CC73",
" @	c #F4CB6F",
" A	c #F9CA62",
" B	c #F7C965",
" C	c #F3C867",
" D	c #F3C864",
" E	c #EFC870",
" F	c #F3C762",
" G	c #F2C458",
" H	c #F7C14D",
" I	c #EFBF60",
" J	c #F1C052",
" K	c #F7BE43",
" L	c #EFBC4B",
" M	c #F2B83B",
" N	c #EEB83E",
" O	c #F2B739",
" P	c #EDB742",
" Q	c #EDB53D",
" R	c #EEB230",
" S	c #E7B631",
" T	c #F1B127",
" U	c #EFAF30",
" V	c #EBAD2B",
" W	c #ECAC2C",
" X	c #EBAC2D",
" Y	c #ECAB29",
" Z	c #E6AC32",
" [	c #E8AB2B",
" ]	c #EBA822",
" ^	c #EBA821",
" _	c #E5A528",
" `	c #E7A61E",
" a	c #E6A321",
" b	c #E6A221",
" c	c #E5A11E",
" d	c #E4A528",
" e	c #E3A11E",
" f	c #DEA125",
" g	c #DAA433",
" h	c #D0A64D",
" i	c #D9A433",
" j	c #CDA44C",
" k	c #E1A025",
" l	c #E29F1A",
" m	c #DB9E18",
" n	c #DF9A1A",
" o	c #D8981B",
" p	c #D9961F",
" q	c #D8961F",
" r	c #DA941A",
" s	c #D79315",
" t	c #D89117",
" u	c #D49A26",
" v	c #D5921F",
" w	c #D5921D",
" x	c #D4901F",
" y	c #D48F16",
" z	c #D58E18",
" {	c #D48D17",
" |	c #D29826",
" }	c #D28E16",
" ~	c #D18D16",
"! 	c #B48D3F",
"!!	c #D18B1D",
"!#	c #D38B14",
"!$	c #CE881A",
"!%	c #CE8615",
"!&	c #CC8C0D",
"!'	c #CD8915",
"!(	c #CC8912",
"!)	c #CC8811",
"!*	c #CB8619",
"!+	c #B38C3E",
"!,	c #CD8411",
"!-	c #C78118",
"!.	c #C48310",
"!/	c #C68018",
"!0	c #C47F15",
"!1	c #C18010",
"!2	c #C07E10",
"!3	c #C17A13",
"!4	c #BF7A0E",
"!5	c #BC7C10",
"!6	c #BB7711",
"!7	c #B47B14",
"!8	c #B17914",
"!9	c #B7750E",
"!:	c #B1700C",
"!;	c #B16E0B",
"!<	c #B06E09",
"!=	c #B26C0A",
"!>	c #AE6B09",
"!?	c #AE6A09",
"!@	c #A8670A",
"!A	c #AA6611",
"!B	c #A76609",
"!C	c #95712D",
"!D	c #906A23",
"!E	c #986710",
"!F	c #A26006",
"!G	c #A16008",
"!H	c #8A641B",
"!I	c #A65900",
"!J	c #9E5B06",
"!K	c #995900",
"!L	c #995500",
"!M	c #855B13",
"!N	c #7D591B",
"!O	c #7C591A",
"!P	c #7E550E",
"!Q	c #78500C",
"!R	c #694916",
"!S	c #69460B",
"!T	c #69450B",
"!U	c #62420F",
"!V	c #5C3E0C",
"!W	c #553809",
"!X	c #513308",
"!Y	c #4F3208",
"!Z	c #4F3207",
"![	c #4B2F05",
"!]	c #472A02",
"!^	c #462902",
"!_	c #3D2604",
"!`	c #3C2504",
"!a	c #3C2302",
"!b	c #3B2302",
"!c	c #351F02",
"!d	c #361E02",
"!e	c #271600",
"!f	c #261500",
"!g	c #000000",
"                                ",
"         4 3 / + + 0 F P        ",
"       7 * ! # $ $ # ! . N      ",
"     < , ' ( ( ( ( ( ( ' - Z    ",
"   ; = 2 : ? ; E 6 6 E ; 2 B o  ",
"   J A >!C!R h!]! !+!^ j > A f  ",
"   M K H!D!U H!O!Y!X!N H H K [  ",
"   R T O!H!V M g!a!b i M O T V  ",
"   X ^ ]!M!W W u!c!d | Y ] ^ _  ",
"   d b c!P!Z c!T!`!_!S c c a q  ",
"   e k n!Q![!7!e!E!E!f!8 n k!1  ",
"   l p r y ~ }!' t t!' } r w!@  ",
"     s v {!#!#!#!#!#!# { x!;    ",
"      !(!$!!!%!,!,!%!!!*!>      ",
"        !2!4!0!-!/!3!=!G        ",
"                                "};
