/* XPM */
static char * ixcoin256_xpm[] = {
"256 256 256 2",
"  	c None",
" !	c #FFFFFF",
" #	c #FFFFFE",
" $	c #FFFEFE",
" %	c #FDFFFF",
" &	c #FEFEFF",
" '	c #FEFEFE",
" (	c #FDFEFE",
" )	c #FEFEFD",
" *	c #FFFDFD",
" +	c #FEFDFE",
" ,	c #FEFDFD",
" -	c #FEFDFC",
" .	c #FDFDFE",
" /	c #FDFDFD",
" 0	c #FDFDFC",
" 1	c #FEFCFD",
" 2	c #FEFCFC",
" 3	c #FDFCFD",
" 4	c #FDFCFC",
" 5	c #FDFCFB",
" 6	c #FEFBFB",
" 7	c #FFF9F9",
" 8	c #FCFEFD",
" 9	c #FCFCFD",
" :	c #FCFCFC",
" ;	c #FCFCFB",
" <	c #FBFCFB",
" =	c #FCFBFC",
" >	c #FCFBFB",
" ?	c #FCFBFA",
" @	c #FBFBFB",
" A	c #FCFAFA",
" B	c #FBFAFB",
" C	c #FBFAFA",
" D	c #FBFAF9",
" E	c #FBF9F9",
" F	c #FAFBFA",
" G	c #FAF9F9",
" H	c #EAFDFD",
" I	c #FBF6F6",
" J	c #F6F5F5",
" K	c #F7F0F0",
" L	c #EFECEC",
" M	c #F0E6E6",
" N	c #F4D8D8",
" O	c #E2DDDD",
" P	c #DBD2D2",
" Q	c #FBBEBE",
" R	c #FBBBBB",
" S	c #FCB7B7",
" T	c #FBB3B2",
" U	c #E5C9C9",
" V	c #ECBBBB",
" W	c #CDC3C3",
" X	c #C3B6B6",
" Y	c #FBADAD",
" Z	c #FBA8A7",
" [	c #FAA0A0",
" ]	c #F99999",
" ^	c #FA9191",
" _	c #F98A8A",
" `	c #F98383",
" a	c #F87C7C",
" b	c #D6ABAB",
" c	c #B6A6A6",
" d	c #C19999",
" e	c #E08484",
" f	c #A69696",
" g	c #A28B8B",
" h	c #9F8281",
" i	c #927E7E",
" j	c #F77473",
" k	c #F86B6B",
" l	c #F66464",
" m	c #F65E5D",
" n	c #F65756",
" o	c #F54E4E",
" p	c #F44948",
" q	c #F54343",
" r	c #CE6767",
" s	c #CE5050",
" t	c #957272",
" u	c #9A5151",
" v	c #DA4443",
" w	c #C84646",
" x	c #B44848",
" y	c #9E4949",
" z	c #866A6A",
" {	c #815F5E",
" |	c #7E5353",
" }	c #785050",
" ~	c #864B4B",
"! 	c #7A4C4C",
"!!	c #774D4D",
"!#	c #764A4A",
"!$	c #755050",
"!%	c #754C4C",
"!&	c #734B4B",
"!'	c #685353",
"!(	c #724747",
"!)	c #704444",
"!*	c #664444",
"!+	c #F43D3C",
"!,	c #F43636",
"!-	c #F33030",
"!.	c #F42C2C",
"!/	c #F42827",
"!0	c #F32323",
"!1	c #F31F1E",
"!2	c #F31A19",
"!3	c #EF3837",
"!4	c #EF2E2D",
"!5	c #EF1E1E",
"!6	c #F11818",
"!7	c #E63E3D",
"!8	c #E52626",
"!9	c #C93534",
"!:	c #F41413",
"!;	c #F11514",
"!<	c #F11211",
"!=	c #F01211",
"!>	c #F20D0C",
"!?	c #F00D0C",
"!@	c #F20606",
"!A	c #F00808",
"!B	c #F00505",
"!C	c #F00403",
"!D	c #F00302",
"!E	c #EB0C0C",
"!F	c #EE0505",
"!G	c #ED0302",
"!H	c #C40B0A",
"!I	c #A00808",
"!J	c #763332",
"!K	c #6E3434",
"!L	c #782828",
"!M	c #712A2A",
"!N	c #683838",
"!O	c #682E2E",
"!P	c #672D2D",
"!Q	c #672B2B",
"!R	c #7E1E1E",
"!S	c #821818",
"!T	c #762424",
"!U	c #741E1E",
"!V	c #8D0D0D",
"!W	c #930606",
"!X	c #850E0E",
"!Y	c #7A1010",
"!Z	c #593B3A",
"![	c #573131",
"!]	c #612C2C",
"!^	c #592C2C",
"!_	c #5C2B2B",
"!`	c #5B2A2A",
"!a	c #592726",
"!b	c #542525",
"!c	c #462626",
"!d	c #531F1F",
"!e	c #491C1C",
"!f	c #4B1616",
"!g	c #4F0A09",
"!h	c #3F1615",
"!i	c #3E0E0E",
"!j	c #3B0F0F",
"!k	c #230C0C",
"!l	c #F40201",
"!m	c #F20201",
"!n	c #F10202",
"!o	c #F10201",
"!p	c #F10200",
"!q	c #F00202",
"!r	c #F00201",
"!s	c #F00200",
"!t	c #EF0202",
"!u	c #EF0201",
"!v	c #EF0200",
"!w	c #EE0201",
"!x	c #EB0201",
"!y	c #E80201",
"!z	c #E40201",
"!{	c #DD0201",
"!|	c #D20201",
"!}	c #C10201",
"!~	c #830201",
"# 	c #F40100",
"#!	c #F20101",
"##	c #F10102",
"#$	c #F10101",
"#%	c #F10100",
"#&	c #F00102",
"#'	c #F00101",
"#(	c #F00100",
"#)	c #EF0101",
"#*	c #EF0100",
"#+	c #EE0101",
"#,	c #EE0100",
"#-	c #EC0101",
"#.	c #E80100",
"#/	c #E30101",
"#0	c #DF0100",
"#1	c #DC0100",
"#2	c #D70100",
"#3	c #CE0100",
"#4	c #C50101",
"#5	c #BC0101",
"#6	c #B20101",
"#7	c #A90101",
"#8	c #A10101",
"#9	c #990100",
"#:	c #940100",
"#;	c #8C0100",
"#<	c #7C0100",
"#=	c #540100",
"#>	c #F20000",
"#?	c #F00001",
"#@	c #F00000",
"#A	c #EF0001",
"#B	c #EF0000",
"#C	c #D60000",
"#D	c #C10000",
"#E	c #AB0000",
"#F	c #7D0000",
"#G	c #6D0000",
"#H	c #630000",
"#I	c #5B0000",
"#J	c #540000",
"#K	c #4E0000",
"#L	c #470000",
"#M	c #430000",
"#N	c #410000",
"#O	c #400000",
"#P	c #3F0000",
"#Q	c #3E0000",
"#R	c #3D0000",
"#S	c #3C0000",
"#T	c #3B0000",
"#U	c #3A0000",
"#V	c #390000",
"#W	c #380000",
"#X	c #370000",
"#Y	c #330000",
"#Z	c #2F0000",
"#[	c #2B0000",
"#]	c #230000",
"#^	c #1E0000",
"#_	c #1A0000",
"#`	c #150000",
"#a	c #100000",
"#b	c #0B0000",
"#c	c #070000",
"#d	c #050000",
"#e	c #020000",
"#f	c #010000",
"#g	c #000000",
"                                                                                                                                                                                                                                                                                                                                                                                                                                                                                                                                ",
"                                                                                                                                                                                                                                                                                                                                                                                                                                                                                                                                ",
"                                                                                                                                                                                                                                                                                                                                                                                                                                                                                                                                ",
"                                                                                                                                                                                                                                    !H!|!H!E!H!6!6!6!=!6!5!5!0!0!0!0!0!8!4!4!4!-!4!7 v p n m r                                                                                                                                                                                                                                  ",
"                                                                                                                                                                                                                      #3!|#2#/!y!l!l!@!>!:!:!2!1!1!1!1!0!/!.!.!.!.!.!.!-!,!,!,!,!,!,!+ q q q q q q p p n l e                                                                                                                                                                                                                    ",
"                                                                                                                                                                                                            #5#3#2!z# # !l!l!@!A!?!=!6!5!5!0!/!4!-!-!-!,!,!+!+!+!+!+!+!+ q p p q q p p o o p o o o o o o o o o o n l e ]                                                                                                                                                                                                        ",
"                                                                                                                                                                                                  #8#5#3#1!x#'#@#*!w!F!?!=!;!6!5!5!0!/!.!-!-!-!,!,!-!-!-!,!,!,!,!,!,!,!,!+!+ q q q p p o o o n n n n n m m m n n n n n n n l j ]                                                                                                                                                                                                ",
"                                                                                                                                                                                          #:#E!}#2#/#.#.#/#.!G!A!?!;!2!1!0!0!/!0!0!0!1!1!2!2!6!6!;!;!=!?!?!?!>!>!>!>!?!<!=!<!6!6!2!1!0!/!-!,!+!+ p o o n m m m l l l l m m m m m m k e b                                                                                                                                                                                        ",
"                                                                                                                                                                                    #:#E#4#2#1#2#1#/!y!F!?!<!;!2!1!1!1!2!6!;!=!?!A!B!C!D!o!s#(#@#@#@#B#B#B#@#B#@#@#@#@#B#B#B#B#@#@#@#@#*!C!B!A!?!;!2!0!.!, q p n n m l l k k k l l k k k k e [                                                                                                                                                                                  ",
"                                                                                                                                                                              #;#E#4!|!|!|#2#0!y!F!>!<!6!2!6!6!<!?!>!A!C!u#(#B#B#B#@#(#(!o!r!r!r!r#'!r!r!u!r!q!r#'#'!r!q!r!r!r!r!r!r#'!u#*#@#@#@#@#>#@#'!B!?!;!5!/!, q o n m l k k j j j k k k j ` Z                                                                                                                                                                            ",
"                                                                                                                                                                        #F#8#5#3#4#3!|#1!y!F!>!<!;!;!<!<!?!A!D#(#(#@#B#*!r!r!r!u!r!r!r!r!r!r#)!u!r!r!r!v!r#'#'!s!s#*!r#'#(!o!s!u#)#'!r#'!u!u!r!r!D!o!r#'#(#@#@#@#@!C!>!;!1!-!+ o m l k j j j j j j j j _ V                                                                                                                                                                      ",
"                                                                                                                                                                  #I#;#E!}!}#4#3#2#/!G!@!>!<!=!?!A!B!o#(#@#(#@#)!r!r!r!r#)#)!r!r#*!r!r#*!u!u!r#'#)!r!r!r!r#'!r!r!r#'#(#*#'!r#(#)#'#(#(#)!r#*!r!s#'!r!r!r!r!r!D!o#(#(#@#@#B!u!A!<!1!, p n l j a a a a a a a ` [ U                                                                                                                                                                ",
"                                                                                                                                                              #G#9#6#5#5!}#3#1!y!F!A!>!>!A!B!D#@#(#@#(!r!r!r!r#'!u!s!r!s#'!r!r!r!r!r#)!u#)#)#*#'!r!r#'!u#'!r#'!r!r!r#'#(!r#'!r!u!u!r!s#*#(!r#'!r#(#'!r!r!r!r!s!r#(!r!r!r!u!u#B#B#B!r!>!2!4 q n l j a a ` a a a a ^ V                                                                                                                                                            ",
"                                                                                                                                                        #P#<#9#6#6#5!}!|#0!x!F!A!A!A!C!r#*#@!v#(!r!r!r!s#'!s!r!v!r!s#(#'#'!r#'!r!r!s!s#'#*!r#(!r!r!r#*#(#'!r!r#)#'#)!r#(!r!r#'#(!u#*#)!r!r!u!r!r!r!r!s#'!o!o!r#'!r!r!r#'!u!r!u!u!r#*#B#B#B!A!6!. q m k a ` ` ` ` ` ` _ V L                                                                                                                                                      ",
"                                                                                                                                                    #L!~#8#6#6#6!}!|#/!G!B!A!F!C!u#(#(#(#'!r!u#(#'#'#'#*#*#*#'!r#'!r#'#)!s!r#'#(!r#(#(#'#)#*!s#(!r!r#)#*!u!u#)!u!r!u#)!u!r!r#)#*!s!r!r!r!r!r#'#)!r!r!r!r!r!s#(!s!r!r!r!r!r!u!t#)!r!r!u!q!r#@#B#*!A!2!- o l j ` _ _ ` ` ` _ Z M                                                                                                                                                  ",
"                                                                                                                                                #L!~#8#7#E#6#4#C#/!w!C!B!F!u#B#(#'#)#*#'#)#'#*#'#'#'#'#)!r#(#'#'!r!r!r!r!s!r!r!v!s#(!v!s#'#)!r#*#'#'#'#'!u!r#'!v!v!r!u#)#(#)#'!u#*!r!r!r!r!r#*#'#'#(!r!r!r!r!r#'!r!r#)!r!u#*#)!u!r!r#)#)!r!u!r!r#(#B#*!?!0!+ m j ` _ _ _ _ ` _ Z M                                                                                                                                              ",
"                                                                                                                                            #M#<#9#8#7#6#4#2!z!G!C!C!t#)#(#(#*#*!u#'#'#*!s#'#*!r!r!r!r#'!r!r!r!r!r!r!r!s#)#'#'#*!r#(#'#'#*!v#(#'!r#'!r!u#)#*#(!u!r#*!u!r#)#)#)#'#)#)!r#'#'#'!s!r#(!r!r#$!r!r!r!r#'!r#'!u#)!u#'!v!r!v!s!s#*#)#'#'!r!D!s#@#@!B!6!, o k a _ _ _ _ _ _ Z M                                                                                                                                          ",
"                                                                                                                                        #X#G#:#8#8#E!}!|!z!w!D!D!u#*#*#*#*#*#)#*#(!s#'!u#)#'!r#)!r#)!u!v#*!r#(!r!s#)!r!r#(#*!r#(#)#*#*!r#'#*!u!r#*!s!u!r!r!r!t!u!r!u!v!u!u#'#)!r#'#'!r!r!r#'!r#'#'!r!o!r!r#'!r!r!r!r!r!r!v!u#)!r!s#'!r!r!u#'#'!r#(#(!r!u!q#(#@#'!>!. p l a _ ^ ^ ^ ^ _ V K   !                                                                                                                                  ",
"                                                                                                                                    #]#H#;#9#9#E!}!|#/!x!r!r!u#(!s#'#)#*#*#)#*!u!s!r!r#'#'#&!u!r!r!u!s!u#*#)!r!r!r#)!r!r!r!r!r!v!u!u!r!r#)!r!s#*#*#*!v#(!r!r#*!u!u!u!u!r!u!r#'#'!r!r#'#*!s#$!r#'!r#'#'#'#'!r#'!r!r!r!r#(#'!s!u#'!r!r#(#)#)!u!u#*!r!u#'!u!r!r!D#'#>#@!A!0 q l a _ ^ ^ ^ ^ ] V < ! *                                                                                                                              ",
"                                                                                                                                #b#K#F#:#:#8#5#3#0#-#)#)#)#)#*#*#)#(#*#*#)#)#'#*!r!r#'#'#'!r!r#(!r#)!r!u!u#)!r!r!v!u!r!r#)!r!r!r#(#'#'!r!r!r!v!r#'!r!r#(#*!r!r!r#)#)#)#)!u!u#*!r!r!r#'#$!r!r!r!r!r!r#*#'#)!r!r#'#(!r!r#(#(!s!r!r!r!r#'#'#)#'#)!r!r!u#)#*!r!r#'#'!D!D#@#@!A!1 q l ` ^ ] ] ^ ^ ] N % ! 6                                                                                                                          ",
"                                                                                                                              #U#G#;#;#9#E#4!{!x!u#)#)#)#)#)!v!r#)#)!u#*#*!v#(#'#'#'!r!r#'!r#'#'!r!u!u!u!r#)!u!r!u!r!r!r#)#'#)#'!r!r#(!r!r!r!r!r#(#)!s!s!r!r!r!r!r!r!u!s!u!u!r#'!r#'#'!o!r!q!r#(!r!r!r!r!s#(!s!u#)!v!u#'!r#'#*!r!r#'!r!r!r!r!u!u#)#)#'!u!r!u#'!r!r!r!r!q#@#B!B!1 p k ` ^ ] ] ] ] Y L ! ! *                                                                                                                      ",
"                                                                                                                          #_#I#F!~#:#7#5!|!z!w!r#)#)#*#)!u#)#)!v!r#)!r#)#)#)#)#)#'#(#'!o#'!r!r!r#*#*#*!u!u#*!u!r!u#)!u!u#)#)#)#'!r!r!r!r!u!r!u#'!r!r#(!s!s#)!r!r!u!u!u#*#*!r#*!r#'!s!r!r!s!o!r!r!r#)!u!u!u#)!r!u#*!u#)!s!r#'#'!r!s#*!r!r#*#)!u#)!u!v!r!r!r!r!r!r!r#(#)!r!r!t#(#@!A!/ o j _ ] ] ] ] ] U 8 ! 6                                                                                                                    ",
"                                                                                                                      #g#T#G!~!~#9#6#3#0!x!u!r!r#(#)#'!u#)!v!w!u#'#*#*!u!u#)#*#'!r#'#)#'!r#)#'!r!u#*!r#*#)!u#)!v!v!u#)!u!u#*!r!r!r!D!r!r!u!u!r!r!r!r!v#(#*#*!r!r!u!u!u!r#(#'#*!r#'#*#(!r!o#'#'!r!r#'!s#)#)!u#*#*#)#*#*!v#*!v!u!r!s!r!r!r!u#(#)#(!r!r#(!r!r!r!r!u!u#(#*!s!u!u!s!t#B#B!?!. n a ^ [ [ ] ] Z M ! $ *                                                                                                                ",
"                                                                                                                    #`#J#<#F#;#8!}#2!y!u!r!v#(#*#'#)#)!v#'!v!r#)!u!u!r#)#)#)!r!r#'#'#(#(!v#)#)#)#*#'!u#)#)#*!u!u#)!u#)!v!u#'!u!r!r#)!r!r!r!r!r!r!r!r#(#'!u!r!r!r#'!r!r!r!u!v!r!r#(!r!r!r!r!r#(#)!r#(!s!r#*#'#)!v!u#)#*!r!v#*#&#)#)!r!r!r#(!r!r#'#)#'!r!r#*#'#'#'!r#)!r!r!u#)#*#)!u!r#B#@!=!+ l ` ] [ [ [ [ U 8 ! 6                                                                                                              ",
"                                                                                                                #g#Y#H#<#F#:#6#3#/#-!u#'#'#(#)#'#)#)!v#)!s#)#)!v#)!s!u#'#)!r!r#*!r#'#'!r!u!v!s#)#)!u!s!r!r!u!u!u#)#)!u!v!u!u!r!u!r!r!r!r#'!r!r!r#'!r#'#)!v!r!r!r!r!r#'#)!s!r!r#)!r!r!r!r!q!q!r#)!r#'#)#)#)#*!u#)#)!r#)!v#*!v#*!r#)#'!r!s!r#(!r!u#*#(!s!r#)#)!r!r!r#)#)!r#*#)#*#*#)#)!u!r#B!t!5 p j ^ [ [ [ [ Y M ! * !                                                                                                          ",
"                                                                                                            #g#b#L#G#G!~#9#5#2!y!w!r!r!r#)#'!u#'#'!r!r#)#)#)!u!u#'#'#'!r#)#)#)!u#)#(!r!r#'#*#)!u!v#)!r!r!r!r!u!r!r!r!u#)#)!u!u#'#*!r!r!r!r!r#$#(!r#'!u#*#(#(#*#'#(#'!r#)!r!v!r!r#'!r!r!r!r!r#'#'!u#'#)!r#*!u#(#(#(!s#'!r#'!r#)#'!r#'!r#'!r!r!s!r!r!r#*#*#)!r!r!r!r!u!u#)!v!r#+!u!v#*!v#*!u#*#B!A!- m ` [ [ [ [ [ U % ! *                                                                                                        ",
"                                                                                                        #f#g#^#J#G#G#;#7#4#0#-!r#$!r!r!r#*#)!s#'!u!s#*#*#'#*#'#)#)!r#'!s!r#'!v!r#'!r#*#'#'#'#(!v#)!r!u!r#)!r!r#*!r!u!r!u#)#'!u!u#'!r!r!r!o!r#'#'#*!r!v#(#'!r!u!r!r!r#'#'!v#'!r#'#'!r#'!r!r!r!r!r#'#'!r!r!r!r#'!r!r!s#'#'!u!r#'!r!r#(!r!r!r!r#'#)!r!r#)!r#'!r!r#'#'!r!u!u#)#'!s#*#,!u#*#)#'!u!q#(#(!6 p j ^ [ Z [ [ V F ! 6                                                                                                      ",
"                                                                                                      #g#g#Z#I#G#<#:#6!|#/#,!o!o#$!r#'!u#)#)#*#*!v!v#)#)#)#*#'#'#'!r#'!s#*#'#(!r#'!r#*!r#'!r!v#*!r!v#(!r#)!r!u#'!u!r!u#)#)!u!r!r#'!r!r#&!q!r!r#'#'!u!v!u!r#*!r!s!r!r!r#(!r!r#'!r!r!r!r#'#'!r!r#*!r!r!r!r!r!r!r#'!r#'#(#(!s#'!r#(#'#'!r!r!o!r!r!r!r!u!r#'!s!s!r#'#'#'!u!r#)#'!u#*#*!r#)#)#*!u#)!D!r#@!A!- l _ [ Z Z Z Y M ! * !                                                                                                  ",
"                                                                                                    #g#c#R#H#H#<#9#5#2#.!r!o!r!r#(#*#'#'#*#'#)#)#*#)#)#)#'!r!v#*#'!r!r#'#'!r!r#(#'#'!r#'!r!v#)!r#(#'!r!r#)#)!r!r!r!r!r!r!u!r!u!r#'!r!r!r#'!r!r#(#'!r#)!r!r!s#*!u!r!r!r!r!r!o!r#'#'!r!r!r!r#*!r#'!r#'#'!o#'!r#(!r#'!r!r#'#(!r!r!r!o!r!r!r!r!o!r!r!r!r#'#'!u#)!u!r#'#)#'#)!u!r!u#'#)#'!r#)!s#)!v#'!r!D#@#B!2 o a ] Z Z Z Z N ! ! *                                                                                                ",
"                                                                                                #f#g#a#L#H#H!~#8#4#0#-#(!r!r!s!s!s!u!u#'#)#*#*#)#'#)#*#'#'#'!s!o#'#(!r#'#'!r!r#'!r#'!r#'!s#(#*#*#(#'#'#'#'#*#'#(!r#)!r#(!r!s!u!r#)!r!r!r#(#*#'!r!s#'#'#'#(!r#'!r#'!r!r#(!o#$!r!r#'#'!r!r#'!r!r!r!r!r!q!r!o!r#*!r!r#(#(#(!u!r!r#'!r!r!o!o!r!o!r!r!s!r#'!r#'!r#'#(#'#(!r#)!u!r#(#'#(!u!r#*!r!r#*!u!r#)!r!u#B!?!, k ^ Z Z Z Z U % ! /                                                                                              ",
"                                                                                              #f#g#_#K#I#G!~#7#3#/!w#'!r#*#(!s#(!r#'!r#*#'#)#)#*#'!u#)#'!r#'#'#$#'!r#'#'!r#'!r#'!r!r#'#'#'!s!r!u#(!r!r#*!n!u#'#(!r!r!s!u!r!q#*!r!r!r#'!r!r#'#'#'!r#(#'#'#'!r!s#(#'!r!r!r#(#%!r!r!o!r#*!r#'!r#'#(!r!r!r!r!r#'#(!r#(#(#(#'!s#'#*!r#'#'!o!o!o!r!s#'#'#'!r!r!s!r!r!r!r#'!u#'#*!r!r#*#'!r#'!r!r!r#*!u#)#'#)#'!u#B!D!/ m _ Z Y Y Z V F ! *                                                                                            ",
"                                                                                            #f#g#]#J#I#G#;#6!|!y#)!r#)#'#'!v#'#'#'#(#'#'#)#*#)#)#*#'!s!u#'#)!r!r!r!r!r!o!r#'!s!r#(#'!o#'#'#'#'#'#'!r!r#*!s#'!r#'#'#(!r!u#(!r!r!r!r!r!r!r#*#'!r#*#*#*!r!s#'!r!r!r!r#'!r!r!r!r!n!r#(!r!r#(!v#*!v!r!r!r!r!r!r#(#'#'!r#'#(#(#(#'#*#'!o!o!o!r!p!r#'!u!r!r!r#(!r!r!r!r!u#)#)#*#*!u#'!u#*#(!r!r#'#*!r!v!v#'#*!s#(!u#*#B!6 o ` [ Y Y Z T K ! 6 !                                                                                        ",
"                                                                                        #g#g#g#[#J#I#G#:#5#2!x!r!u#'!r!r#'#)!s#(#'#'#)#)!s#)!r#)!u#(#'!r!u#(!r!r#'!r!r#%!o!r#(!r!r#'#(#'!r#(#*!r!s!v#(#$#'!r#(#(!v#'#'#'#'!r!r#'#)#'!r!r#'!r!r!r!s!v!r#'!r#'!r#*!r!r!r#'#'#'!r#'!s#*#'!r#'#'#)!s#'!r!o!r#%#(#'#'!r#(#(!s#'#(!v#(!r#'#$#(!r!r!r#*!r!r!r!r!o#%!v!v#*!u!r#*#)#*!v!u#(#*!r!v!r!r!u#)!u#)#'#(!u#*!u!u#B!?!+ j [ Y Y Y Y M ! * !                                                                                      ",
"                                                                                      #f#g#e#Z#K#I#<#9!}!{#-#'!r#(!s#(!v!v#*!s#*!v!r#'#'#*#*#)!s#'#)#'!u!u#*!u!o!o#'#(#$!r!r!o!r#'#'#*#(#)!v#*!r!r#'#(!r!r!r!r!r!v#(!s#'!o#'!r#'!v!r#'#*#'!r!r!r#'#(!r#'!r#*!r!s#*!r!r!r!r!r#'!r!r!r!u!s!v!u!r!s!r#'#(!o#(#'#'!r#'!p!r!s#'#(!r#*#*!r!r!r#(#)#(!r#'#(!r!s#'#'!r#(!r#*#*#'#*#)!r#(!u#'#*!s#)#*!s#)#)#)!r!u!u#(#*!w!t#@!B!- k ] Y Y Y Y N ! * !                                                                                    ",
"                                                                                    #f#g#d#Y#K#J#<#8#4#/#+!r#'#'!s!s#*#)#'#)#*#*#'#*#'!r#'#'#(!r#'!u#'#'#'#'#'!r!r#'#'!r!r!r!r!r#'#(#'!s#(!r#'#'#$!r#'#(!r!r#(!u!r#)#'#'!r!r!r!r!r#'!s#*!r#'#(#'#'#'#'!s#(!u#'#(!r#'#'!o!r#'!r#*!u!r#(!u#)!s!s#(!r#'!r#'#'!s!o!o#$#'#'!r#*#'#(#*!r!r#'!r#)#(!r!r#'!r!r!r!r!r!r#'!v!r#*#'#'!u#)!r#)#)!u#)#)#*#'#)#)!r!r!u#+#,#,!u#*!u#@!r!/ l ^ Y T Y Y N ! * *                                                                                  ",
"                                                                                  #f#g#c#Y#L#J#<#8#3!z!v#)!u#)#*#*!r!r#)#)#)#*#)#'#'!s!r#'#'#)!u#'#)#*#'!r#'!r!r!o!r#'!r#*!r#*!u!u#'#*#'!v!r!r!r!o!r!r!r!r!r!r!r!r!u!r!r!r!r!r!r!r#'!r!r!o#'#'!r!r#'!u!r#)#)#*#'!r#'!r#'#(!r#*!r#(#*#)#)!s#'#(#'#'#(#(#(#(!o!r!r!o!r#$#'#'!s!r#(!s#$!r!r#'#'#'#'#$#$#'!s!r!r#'!r#*#(#(#'!r!r#)#(!v#'#)!u!u#*#(!v!r!r#(#)#*!u#*#)#'!r!r#*#B!1 n _ Z T Y Y N % ! !                                                                                ",
"                                                                                #f#g#c#Y#L#J#<#8#3#.!r!u#)#*#)!v!r#)#)#*#)#*#*!u#*!r#'#(#)#'!u#*!s!r#)#*#'!r!r!r#(!r!r!r#)#)#(#*!u!r#'#'#)!r!r#(!r!r!r!r#'!r!r!r#'#(!r!r!r!r!r!r!r!r!s#'!s!s#'!r#'#(#(#(#)#'#'#'#)#'#'#)!r!v#)!s#*#)!u#'!r!s!v!r#)#'!s#'!r#'#$!r#'!r!r#'!r!r!s#(#'!r!r#'!r#'#'!r!o!r#'#'!v#'#'!r#(#(#(!r#'#'#*!r#)#'#)#'!r#)!u!v!s!r#)#*#*!s!r#(#'#'#'!u!u#@!; o ` Z T T Y U % * !                                                                              ",
"                                                                              #f#g#c#Y#L#J#<#7#3#.!r!u#*#)#)#*#)!r#)#*#)#*!v#'!r!v#*#)!r#*#)#*!r#)#'#'!u!r#'#(!r#*#*!r#'#)!u!r!v#(#*#'!r!r!r#'!r!o!r!r!n!r!r!s!r!r#'!r!r#(!r!r!r#'#'!r#'!v!r#'!r#(#'#*#*#(!r#*#'!r#'!r#'!v#'#*#(#*#)#)#'#'!o!r!s#'#'!r!o#'#'!o#'#'!r!r#(!o!r#(!r!r!s#'!r#(!r#'!s!r!r!u!r#'!r#'#*#'#'!u#*!r!s!r#)#)!r!v#(#'!r!r#)#*#)#)#*#*#)#'#*#'#'#(!r#'!t#@!> p ` Z T T T U % ! *                                                                            ",
"                                                                            #f#g#c#Y#N#J#<#7!|#.#'!r#)!u#)#)#)#(!r#'#*#)#)#)!r#'#)!s#*#'#'!r#'#'#)#'!u!r#*!r#'#'!r!u!r!v#)#(!s#)!r!r!v!v!s!r!r!r!r!r!q!r!r!r!o#'!r!r!r!s#(!r!r!r!r#(!o#'!r!r!r#(#(#'#'#(#'#'!s!s#'#'!r#'#)#'#)!u#)#*#)!v!r!p#'!p#'#'#'#(#(#(!r!s!r#'!r!r!r#$!r!r#(!r#(!r#'!r#(#'!r!r#'!r!r#'!r!r#'#'!s#*!r#*#)#)#'#)#)!v#'!r!r#)#)#*#)#*#)!r!s!s#(!s!r!r#'!u!t#B!? q a Z T T T U ! ! !                                                                          ",
"                                                                          #f#g#c#Y#O#K#<#7!|!x#$#)#*!r#)#'#*#)#*#'#)#*#)#)#'!r#*#'#)#'!u#'#)!u#*#'!v#*#)#(#'!u!s!r#)!u!u#'#'!r!s#*!r#'#*!s!r!r!r!r!r#)!r!r!r#'!r#'!r!u#(#(!r!r!u#'!r!r#(!o!r!o#(!r#'#'#'#'!r!u#(#(!r#'#*#*#*#'!r#*#*#'!r#(#'#(!p#$#'#(#'#'#'#(!r!s!u#'#'#(!o!s!s!s#(!s#'#(!r!r!r#'#)!s!u!u#(#(#'#*#)!s#*#*#)#*#*#*#)#*!s!v!r!r#)#)!u#*#)#*!s#'#*#'#'!r#'!r!r#*!t#@!@!+ a Z S T T U % ! /                                                                        ",
"                                                                        #f#g#c#Y#P#K#G#7#3#.!s!u#'#*!r#*!v!u#*!u#*!v#*#*#'!r#'!r!r#)#'#*!s!r#)#'!s!u#(#'!r#(!r!u#*#*!u!u!u#*!u#)#'!r!s!u#'!r!r!r#'#'#)#(!r!r!r!o#'#*!r!v!s!r#)!u#'#'!r!r#'!r#(#'!r#$#$!r#'#*!r#'#(!o#(#(!s#(#)!r#)#*#(!r#(#(!r#%!o!r!s#'!r#'#'!s!r!r!r#'!r#'#'#'!r#'#'!r!r#'!r#(!s#*!s!u!v!u#*!r#)#*!r#*#*#)#)#*#)#*#)!r!u#)!u#)#,#)#*!u!u#*#(!r!r!u#(#(!r#*#'#'!r#@!B!+ a Z S T T U % * !                                                                      ",
"                                                                      #g#g#d#Y#Q#L#G#8!|#.!o!r#'!r!s#)#*!v#'#'!v#)!u#*!r!r!r#)#*#*!v!u#*!r!u#*!r!r#(#'#'#*!r#)#)#*#)#'#'!r!u#'#'#*#*!r!r#'#)!r!r#'!u!s!v!r!r#'#'!r!r#)#*#)!r#(!r#'!r!r!r#'#'!r!o!r#'#(#(#'!v#*#'!r#(#*#(#*#)#(!u#*!u!u#'#'!r!r#(!r#'#(#'#'#(!r!r#*#'#'!r#'#'#'#(!r#'!o#'#(!s#(#'#(!r!v#*#*#,#*!s#*#)#*#*#)#*#,#*#)#*!r!s#*#(#)#)!u#*#)!u!u#)!v!v#*!v!v!r!u#*#'!s#*!u#@!@!+ a Z S S T U ! * /                                                                    ",
"                                                                    #g#g#d#Z#Q#M#G#9#3!x!m#(#(!s#(!v#)#(#(#)#)#)#*#)#(#'!u#*#)!u#A#*!r#(!r#'!r!r!r!s!r#*!u!r#)#*#)#*#*#)#*#'#)!r!s#'!v#(!r#'!r#)!r!r!r#(#'!r!o!r!r#'!r#'!s#'#*#'#'!u!r!r!r#(#'#(#'#'#(!u!r!r#*#'#'#(!u#'#*!s!r!v#(#*#)#(!r#'!s#'#'!s#(#(!r!u!s#'#'#*!r#'!r#(!r#*#'#'!r!r!o#(!s!s!v!u!u!u!s#)!u#'!s!v!v#+#)!u#)#)#*#*!v#(!r#'#*#)#)#*!r#)#)#)#)#*!r#'#*!s#*!u!u#'#(!v!r#%!@!+ a Z S S S N ! * %                                                                  ",
"                                                                  #g#f#g#[#P#M#H#9#4!y!o#)!r#%!s#'#(#'#*!r!v#)#)#*!r!u!v#)#*#*#)!u#)#*#(!s!v#)#(#'#'#(!r#'#)!r#)#*!u#'#'#)#(#(!s#'#(#)#'#(!r#)!r#'!s#'#(!r#'#(!r#'!r!r!r!v#'!r!r#*!r#)!u!u!r!r!v#*#'#)!u!r!r!r#'!r#)!s#*#'#'#(!r!v#*#*#*!v#'#(#'!r#'!r#*!r!r!r#'!s#'!r#'!r!r#(#'#(!u#(#(#'#(#'#'#'#'#'#'#'!r#(!r!r#*#*#*#*!r#*#'!s!s!r#'#*#)#'#)#*!u!u#*!u#)#*!u#(#(!r!r!s#'#*#(#(#)#(!r#>!@!+ a Y R S S N ! * !                                                                ",
"                                                                #g#f#g#]#O#Q#H#:#4#.!o!r!r#'#%!r#*!u!r!r!v#)#)#)#*!r#(#)!u#)#)#)!u#*#)#*#*#)!u#'#'#*#'#*#)#'#)#*#*#(!r!r#*#(#)#*#)#(#)!r#*#)#*!r#*!r#'#'!r#'!r#'#'!r#'!r#'!r!o!r#(!r#'#'!u!r#'#'#'#'!r#'#*#(#'#'!u#)#*#'#'!r#*!v#)#'#)#)#*!v#)#'#'!r!r!s#(#'#'#'#(!o#(#'#(#)#'#'#(!r#*#'!v#(!s#'#(#'!r!u#)!r#(#(#'!v#*#)!s#'#)#)#*#'#*#)#*#)#'!s#)#(!v!v!u#*#+#)#*#*#'#'!s#'#(#)!u#'!r!s!D#@!@!+ ` Y R S S M ! * !                                                              ",
"                                                              #g#f#g#]#O#U#J#;#4!z#$!v#'#(!o#'!s#(!s#*#*#*!u#*#)#)#*#*#)#*#*#)#*#*#*#*#)!r#*#*#'#'#*#)#(!r#'#'#'!r#*#'#'#'!s!v#)#)#*!v#(!v#)!r#'!r#'!s!r#(#$#'#'!r#'!r#'!r!r!s!r!o!r!r!r!r#)!r!v#'!r!r#(#(#'#'#*#(#(#'#'#'#'!u!v!r!v!v#*#(#'!v#'#'#(#*#)#(#*#'#'#(!r!s#'!r!r#*#(#)!u#(#*#(#*!v!r!r#*#(!s#'#)#*#'!s!u#(#'!r#'#(!r#(#*#*#'!r#'!r#)#)#*#)#*!s#'#)#*#*!r!r#'#*#*#*#(#(#*!r!r!o!r#@!A p _ T R S S K ! 6                                                              ",
"                                                            #g#f#g#_#O#U#K!~#5#/#$!r#(!s#'#(#'#'#'#(!u#*#*#*#)#)#)!s#)#*#)#*!r#'#*#)#)#)!s#)#*#*#'#*#)#'#(!s#(#'!r#(#*!r!r!u#)#*!s#)#*!r#(#)!r#'!r#(#'!s#'!s#'#'#(!r!s#(!r#'!r!r#'!r#(!s!p#'#'#)!r#'!s!r#'!r!r#'#'#'#'#'!r!r!r#*#'#*#)!v!r#*#*!r!r!r!s#*!r!r!r!v#(!s#(#(!o#(#*#(#)#'!s#(#(!v#)#(#*#(#*#*#(#)#)!r#)#)#)#)!s#(#'!r#(!r#(#*#'#'!r#*!v#)#)#*#'#'#'!s#*!v#(#)!u#)!u#)!u!v#(#(!r!s!r#@!> o ^ T R S Q G ! *                                                            ",
"                                                            #f#g#a#R#T#L#<#6#1!r!u!s#'#(#(!s!r#(!r#(!u#)#)#(#)#*#)#)#*#*#*#*#*#(#*#*#)#)!u#)#(#*!v#(#(#(#'#(!r!s!r#*!u!r#)!r#'!v#'#)#*!r#(#'!r#'!r#*#'!o!o#(!r#$#'!r!r!o#(!s#)!r!s!r!r#'#'!r#*#'!r!r!r#'#(!r#'!r!r!r!r!r#'#(#*#'#(#'#'#(#*#)!u#*#*!r!r!s#(#'#'!r!r!s!r#'#'#(!v#*#)!v!v#(#(#(#*#(#(#*!r#*#'!r#(#(!s#*#'#(!s!r#(!r#(#'#(#'!r#(#'!u#*#)#)!u!r!r#)!u!r!r#*#)#'#(#)#*#)!u!s#)!r!r#(!D#@!< n ] S R S Q 8 ! !                                                          ",
"                                                          #f#g#c#X#S#N#G#E#2#)#(#)!s#)#(#*#(!s!v#'#'#(!v#)#)!v#)#+#*#(#)#*#'!r#*!r#*#)#)!r#(#)#'#*#)#(!r#(!s#'!r!s#)!r#(#*!r!r#'#'#'#*#)#'!r#'#'#'#'#(#'!o#(#'#'#'!r!r#'#'!r!r!r#(!r!r#)!s#'#*#'#(#)#'#'!r!r#$!r#'#'!r#'#)#)#'!r#'!r!v#'#'#'#*#'!u!u#'#'!s!r#'#'#'!r!r#'!r#'#*#*!v#)#*#)#(#'#*#*#'#'#)#(#'#*!r!s#)#'#*#(#(!s#'#(#B#(#'#'!r!r#'!v!r#*!u!r#)!r#*#*#(!r!r!r#'#'!u!s#*!u!u!u#)#'!r!o!r#@!6 m [ S R S U % * !                                                        ",
"                                                        #g#f#f#Y#P#S#H#8!|#+#'!v#*#*#)#'!v#*#)!r#(#*!r#*!w#)#)#)#*#)#'!s#(#)#*#*#)#'#*#*!r!s!r#'#)#*#(#'!r!v!v#)#)!s!r!u!r#(#'!u!v!r!r!s!r#'#(!r!s#'!o!r#'#(!r!r!r!o!r!r#'!v#*#*!s!r#'!r!r#'#(!v!u#(#*#*#(!r!r#'!r#'#*#*!s#(!r!s#(#(!r#(#)#)#*#)#)!u!r#*#)!s!r!v!r!r#(!o!o#)#*#(#'#'#'#*#'#'#'#'!r!s!r#(#'#'#(#(!r#)#)#'!r!r#(#'#'!r#'!r!r#'#'!s#(!r#)#'#*#*!r#)!r!r!r#'!v!u#'!v!u#)#)#)!u!v#(!r!r!D#@!0 k Z R R S N ! 6 !                                                      ",
"                                                      #g#f#g#]#N#V#J#:#3#-#$!u#'!v!r#(#*#*#)#'#(#'!u#'#*!w!u!u#)!r!v#)!s#'!u#)#*#)!v!r#'#(#(#'#'!s!r#)#(#(#'!r#)#)!r#(#*!r!v#'#'#*#)!s!r#(#(!r#(#'#'#'!r!s#'#'#$!r#'#'!r!s!s!r#(!r!r!r#(#)#*!v!r#*#'#(#(#(!r!s#*#(#'#)#)#(!v#(#'!r!s!v#(#(#(!u#'#'#(#*#)#'#(!r!r!r#'!s!s#(#'#*#'!s#*#)#'#*!r#(#'#(#(#(#(#(#'#'#(!s#(#(#'!o#(#$!r#'#(!r!s!s#(#(!r!r#'!r#*#)!u#'#(!r!r!r!r#*#)!u#*#*#*#*#*#*!u#'#*!r#'!r#@!. j Y Q R R L ! 6                                                      ",
"                                                    #g#f#g#_#O#V#L!~!}#.#$#)#(#*#*#*!s#*#'#'!v!v!r!s!s!v#*#*!u#)#*#(!s#'#(#*#)#)#*#'!v#)#'#'#'#'!s!s#)#(#'#'#'!u#*#*#)!v#*#(!v#*#'!r#'#'#'#'#(#$#$!s#'#'!q!r!r#'#'!r!r!s#'#'!r#'#*#'#(#*#'#'#*!r!v!r#'!r!r!r#*#'#)#*!u#)#*#'#(#'!r#(#(!r!r!s!r#(#*#)#*!r#)!v!r!r!s!r#'#(#'!r!s#(#'#'#'#)!r#(#'!r#'#(#'#*#)!r#'#'#(#(#'!s#(#'#'!r#'#'!r#'#$#$#'#'!r#(!s!u#*#+#*!r#*#*#)!r!r!u#*!r#)#*#)#+!u#*!u!u!r#'#'#'!D!+ ` T Q R Q F ! !                                                    ",
"                                                    #f#g#b#T#T#N#<#6#/#$#)#(#'#'#@#'#(!r!o#(#'!v#'!v!r!r#(#*!v#)#(!r#'!o#*#*!s#*#(!r#*!r#'#(!r#'#'!s#'#(!r#'#)!r#(#*#)#*!v#)#(#'#(!s#(#'#(#'#%!r!r#'#'#$#'!r#'!r!r!r#'!r!r!r#(!u#(#*#(#?#*#*#B#B#B#(#)!r!r!r#*!v#*!v#*#)#*!s#)!u!r!r#(!s#'#(#(#*#'!u!v!s!u!s#*!r!s#'#$#(!r!r!r#(#'!s#(!r#*!s#*!r#'#'#'#*#'#(!s#(#'#'!r#'#'!r!r#$!o!r!o#$#'!s#'#'#(!v#'#*#*#*!u!r#)!r!v#*!u#)#*!v#*#)#)#*#)#*!u!v#'!r#'!r#B!A o ^ S Q R U % * !                                                  ",
"                                                  #g#f#e#Y#Q#T#H#7#2#(#)#*#'#'#)#(#(#'#(#'!r#(#(!r!r#'!s#(#'#(#'#'#'#'#'!r#(#'#'!r#(#'!s#(!r#'#'!r#$#'#'!r!r#(#'!r!r#*#*#'#(#'#(#(#'#(#(#(#(#'#(#(#$#(#(#(!r!r!r!v#)!r!r#'!r#'#'#(!u!C!A!>!<!<!?!?!F#'#@#@#(#'!r!r!r!s#'!r#*#*#'#(!v!r!s#'!s#(#'#*#'#(#)#'#'!u#'!r!p!o#'!o#(#'#(!s#(!r#(#'!r!r!r#'#*#'#'#'!s#'#(#(#(!r!r!r!r#$#'!p!r#'#'#)#(#'!s!s#(#*#*#*#)#*!u#)#*#(!r!u#*#'!u#*#+#,#*#,#)!r!s!u!u#'#'!D#@!; m [ R Q R N ! 6 !                                                ",
"                                                #g#f#g#]#N#V#J#9#3#,#(#*!u#*!u#)#'#(#'!r!r#(!o#'#'!r!r#'#'!r#'#'#'#'!p#'#'!r#(!s#*!r!r#'#'#'!r!s!r#'!r!r!p!r#'#'#'#'!v#(#'#*#(#'#)#'#*#'#(#(#'#*#'#'#'#(#'#(!r!r!u!r!r#)!r!r#(#'!w!w!t!E!6!8!4!4!.!0!2!<!?!F#*#B#B#*!r!u!r!r#(#'#'!r#(#(!r!o#'!o#'#'!r!r#'#'#'!r#(#'!o#(#%#'!r#(#'#)#'#'#(!s!r!r#'#'#*#(#(#*#*!v!s#'#)!r#'#'#'!r!r!r!s#(!r#'#(!r!r!s#*#*#)!r#)#*#)#)#(#)#(#(#*#)#)#)#*#*#*!u#)#)#)#)!v#'#)!r#@!0 j Y Q Q R K ! *                                                ",
"                                              #g#f#g#`#O#V#L!~#4#.#(#)#)#(!r#(#(#'#'!s!r#$!r!r!r#(#)!r!r!s!r#'#*#*#'#*!u#'!r#(#'#'!r!r#'#'#'!u#'#)!v#'!r!o#(!r!r!r#'#(#'!s#'#'#'!r#'#'!s#(#'#(#(#'#(#(!s#'#(#'!r#)#*!r!u!v#)#'!y#0#1#2#4!H!9!9 w v!7!7!,!.!0!2!=!?!F#*#B#@#@#)!r!r!s#'#(!o!r#(!o!r!r!r#'#*#'#'#(#(!r!r#(!o!r!r!r#*#'#'#'!s!s#*#(#(#'#)!r#(#*#*#'#)!s#*#'#'#)#*#(#(#'#(!r#'#'!r#'#(#'!r#'#(!r#)!r#'#'!s#'!r!r#(#(#*#*#)!v!u#)#(#*#)#)!u#(#'#'!r!r!, ` T Q R Q < ! !                                              ",
"                                              #g#g#c#V#R#R#G#6#/#%#*#*!v#)#'#)#'#'!s#'#'#(!r#'!r!r#'#*#'!v!r#'!v#'#'#)!r#(#*#)#(#'#)#(#)#(#(#'#(#(#'#'!r#$#(!r!o#'!r#'#'#'#'#'#'#*#(#(#'#(#'#(#(#)#(#'!s#'!s#'#*!u#)!u!r!u#(!x#C!H!H#6#9#<!d!P!) ~ y x w v!7!7!3!.!0!2!<!?!B#)#@#@#(!v#'!n!r!r#'!o#'#(#'#(#'!r!s#(!r!r!r!r!r!r#'#(#'#'!s!r#'#'!r!r#'!r!r#*#'#'#(#(!r#'!r#*#)!r!v#(!r#(!r!r#(#'#(#'#'#'!r#(#'#'#*!s!r#*#'#'#(#'#*#)!r#)#)#*#(#(!u#*#*#'!v#'#(!D#B!A o ] R Q R N ! * !                                            ",
"                                            #g#f#g#[#O#V#I#8#2#(#*#*!s!s#)#(#B#'#'#'#(!s#'!r!r!s!s#'#'#)!u#'#*!v!u#'#*#'#)#(#(#*#)#'#*#'!s#*#'!u#'#'#*!r#'!r#(!r!o!r#%#'#*#$#(#(#*#?#(#(#$!p#'#'#(#'#'#'#*!r!r!r#*!r#(#)#)!o#/#5!V!S!~#<#L#T!a!N!(!&!# ~ ~ y x w v!7!7!,!.!0!2!<!?!B!u#@#@#(!r!r!r!r!r!r!r!s!s#'!r#'#'#'!r!s#(!r#(#'#'!s#(#'#'#'!s!s#(!o#'#*#(!r#'#(!r#)#'#*#)!r#*#*#(#'!r!s#'#)#'#'#'!r!o#(!r!v!r!o!r#)#(#(#(!s#*#)#)#*!s!r#)!r#)#)!r#(#*#)#'!D#@!6 l Z Q Q R M ! /                                            ",
"                                          #g#f#g#_#N#U#L#;#4#-#'#(#'#'#(#*#)#'#'#'#(!s#*#'#$#'#'#'!r!v!v!v!v#*!r#)#)#*!r#(#'#(#)#(!r!u#*#*#)!r!r#*#'#*#'!r!r!o!r!r#'!r#(!r#(#'#'#'#'#(#%!o#'#*#'#'#*#'#*#(!s#*!r!r#*#(!s#(!u!|!I!R!U#H#I!f#Z#P!`!)!#!!!%!&!&!#!  ~ y x w v!7!7!,!.!/!2!:!?!F!u#B#@#(#(!r!r!r!o#'!r#'!r#(!r#$#'#'!r#'#*!r#'#'!s#'#$!o!o#'#(#)#(!r!u!u#)#'#(!s!r#*#)#'#'#(#'#'!o#(#%#$!r#(#'#$#(!r#*#'#'!s!r!r#)#*#)#*#*#)!s#'!r!r#)#)#)#*#)#)#'!r!r#@!. a T Q Q Q < ! !                                          ",
"                                          #g#g#c#V#R#S#G#5!z#!#)#(#*#*#*#)#'#)#)#(#'#)#'!s#(!r!r!s#(#*#*#)#*#*!r#'#)#(#'#'#'#'#(#'#'#)#)#*#)!u#)#)!r#'#*#*#(#(#'#'#$!s!r#'!r!r#'!s!r#'!r!o!r#(#(#)#(#'#'!r#*#'#'#*!r!r!r#%!x#5!X!L!Q!f!g W W g z |!(!)!)!(!!!!!%!&!&!# ~ ~ y x w v v!7!,!.!0!1!<!?!B!r#@#@#%!r!r#'!u!s#$!r#'#'#'!s!r#)#'!v#*#'#(!o!o#'!o#(#(!r#(#*#*#'#'!u!r#(#(#'#*#'!r#'!r#'!o!r!s!o#$#(#(#(#(!r!s#(#'!r#*#*#)#)#*#*#*#'!r#'#'!u#)#)#)!v#(!r#'!r#'!B p ^ R Q R N ! * !                                        ",
"                                        #g#f#g#[#O#V#J#8#2#%#'!s#(#'#'#(#)#*#*#*#'#)#'#)#'#'#'!s!r#'#*#)#)#*#*!u#'#(!r#(#'#(#(!u#)#@!s#)#)#*!s#'#)#'#'#'#)#'#(#'#'#'!r!r#$!o#%#'#(#'!p!o#'#'!r#(#'#*#(!s!r!r#'#'!r!s!v!u#!#0#7!S!M!]!f![ 6 ! ! ! K P c h {!(!)!)!(!!!!!%!&!&!#!  ~ y x w v v!7!,!.!0!1!;!?!B!u#B#B#*#(!r!r!r#'!r#*#(#)#)#)#'#'#(!o#%#$#$#(#(!s!r#(#*#*#(!u!r#*#'#)#)#'#'#'#(#(!o!r#*!r#'#(#(#(!s!r#(!v#'#*#)!r#'#)#)#)#)#'!q!o!r#'!u#)#*#)#(!s!u#)!D#@!; l Z Q Q R K ! /                                        ",
"                                      #g#f#g#`#O#V#M!~#4#,#'#)#'#'!s#)#*!u#)#'#*#'#'#'#'#(#(#'!s#(#(#'#(#(#*#B#*#(#'#'!s!r#'#'!r#'#'#*#)#)#'#(!r!r!r!u!r#*#'#(#(!r!r#(!r#)!r#(!r#(!s#'#'#(#(#(#B#'!r#'!s!r!o#'#(#$#'#'#'!o!|!W!T!O!_!i z ! I B 6 ! ! ! ! K P c h {!&!)!)!(!#!!!%!&!&!#!  ~ y x w v!7!7!,!.!0!1!;!?!F!u#B#B#(#)!u!u#*#*#+#*#*#)!s#(#(#'#$#(!s!r#(#(#)#'#*#*#'#)#'#)#'!r!r!u#'#(#'#(#'!s#)#(!s#'#'!s#(!s!s#'#'#(#)#*#*#,#*#)!r!r#(!u#(#'#*#(#(#)!u#*#*!q#@!. a T Q Q Q % ! !                                      ",
"                                      #g#f#e#Y#Q#U#H#6!z!p#)#(#(#'!s#'#)#*#(#(#'!r!s#'!r#(#'#'!r#(#'#(#(#'#*#*#'#'!s#(!p#'#'#(#(#(!s#)#*#*#*#'#(#(!r#)!u#)#'!s!v#'!r#'#'!r#'#(!o!o#%#'#(#'#'#'#'#*#'!v#'#)#'!r!o!s!r!r#'!w#D!V!L!P!a!j X ! G / ' / > D > ! ! ! ! J P c h {!&!)!)!(!!!!!%!&!&!#!  ~ y x w v!7!7!,!.!/!1!;!?!F!u#B#B#B#(#)!u!u!r#(#(#)#*#'!r!o#'#(#*#(#'#(#)#(#'#*#'#'#'#(#(!s#'#*#'!r#(#(#(!o#'#*#'#'#)#'#(#'#)!s#)#*#)!u#*!r#'#'#*#'#'!r#*#)#)#*!v#*!r#)!A p ] R Q Q N ! *                                      ",
"                                    #g#f#g#]#N#V#K#9#C#(#)#(#*#*#)#*#*#*#*#(#'#(!r!r#'#'#(#'#'#'#'!u#(#)#'#(#*#(#'#'#(#'#%#(#(#)#)#*#(#)!u#'#*!s#'#'#*#'#'!r#'!r#'#(!r#'!r#'#'#'#'#'!r!r#(#'#'#'#)#'#(!v#'#(#'!o!r#'!r!o!y#6!S!M!]!d!c O ! : / / , , 3 3 4 > C > ! ! ! ! J P c h {!&!)!)!(!!!!!%!&!&!#!  ~ y x w v v!7!3!-!/!1!;!?!F!u#B#B#@#*#)#)#)#*#(!r#(#(!s#(#'#'#(#'#*#)!s#(!r!s#(#'#'#(#)#*#(#'#%!s#'!o#'#'!r#'#(#*#)#)!v#*#)#*#*#)!r!r#(!r!r!u!r#(#)#*!s#,#*#*!r#@!6 k Z Q Q Q G ! /                                    ",
"                                    #f#g#b#S#S#S#<#D!x#'#*#*#)#*#)#*!v#*#'#'#$#(!r!o#'#(!s#(#'#'#)#)!s#(#*#(#)#*#'#(#'#'!s!o#'#'#(#*!r#)#)#(#'#*!r!r#'#)#'#(#(#'!r#$#'#'#(!s!r#'#'#'!q#$!r#(!r#'#'#'#'!r#(!s#'!r#$#'#)!m#0#8!R!K!]!e!' , 4 ' 3 4 / / / 4 / , / 4 4 6 @ : ! ! ! ! K P c h {!&!)!)!(!!!!!%!&!&!#!  ~ y x w w v!7!3!-!/!1!;!?!B!u#B#B#B#'#)#'#'#(#(!s#(#'#'!s#'#'#(#*!v!v#(#)#'#(#'#'#*#(!o#'!r#'#$#'!r#*#*#)#*!v#)#*!r#*#)#*!s!r#'!r#*!r!r#'#'#*#)#,#*#)#'!r#'!, _ S Q Q N ! * !                                  ",
"                                  #g#f#g#[#O#W#J#8#0#%#)#*#(#)#)#*#)#'#*#'#'#'#'#*#'#(#'#'#(#(#'#*#A#'#'!s#*#'!r!r#(!p#$!s!o!s#'#'#*#'!v#'#'!r#$!r!o#$!r!s#(#)!s!o#$#'!r#'!r!r!o!r#'#'#*#(#(#'#$!o#)!r#@!r#)#'#$#(!r#'!m#C!W!L!K!N!e g / F , 4 4 / , ' / / / 4 0 4 , , , : C C > $ ! ! ! J P c h {!&!)!)!(!#!!!%!&!&!#!  ~ y x w w v!7!3!-!/!1!;!?!F!u#B#@#(#'#(#'#'#(#)#)#'#*#*!u!s!r!r#(#)#(#'!o!s#'#$!r#'#$!o#'#'!s#)#*#*!v!v!u#*#)!u!r#(!r!r#*#*#'!u#'#*#)#)#)#)#)#)!r#@!? m [ Q Q Q K ! *                                  ",
"                                  #f#g#`#P#U#O!~#3#)#*#)#'#)#'!v#*#(!r#'!r#(#(#(#(#%#(!r#'#(#(#'#*#*#'#)#'#'#)#(!r!s#'!r!o!o!p!r#'#'#*#*#'#'#%!s!r!o#(#'#'!r#)#'#'!o#(!r#(!v#)#'!r!r#(#'!r!r!r#(#'#'#'#'#(#(!r#'!r!o!r!m#C!W!L!)!*![ O ! ' C G @ 4 , / , / / , / / 0 , / / / 4 3 : : @ > $ ! ! ! J P c h {!&!)!)!(!#!!!%!&!&!#!  ~ y x x w v!7!3!-!/!1!;!?!A!D#@#@!r!r#'#*#'#'!v!s#(!r#'#(#)#(!s!p#$!r#(!o!p#$#(#(!r!u#*#'#)#*!u#*#*!u#'#'#*!r!r!r#*#*#)#(#*#'!s#)#'#(!v#(!r#B!/ a T Q Q U % ! !                                ",
"                                #g#f#f#Y#P#W#I#6#.#%#)#)#(!r#(#'#)#'#(!o!r#(#(#(#(#(!r#(#(#'#(#'#'#(#'#'#*#*#)#(#)#(#@!r#$#(!o!s!p#'!o#(#'#'#%#(#$!o!o#$!o#'#(#(#'#'!o!r!r#*#A#(#'!o!r!r!o#'#)#'#'#'#'#'#(#(#'#'!o#(#)!l#C!W!L!(!*!Z g W L ! ! ! ! @ F > 4 4 4 , , , / / / 4 - / , / / 4 > @ @ > ! ! ! ! J P X h {!%!)!)!(!#!!!%!&!&!#!  ~ y x x w v!7!3!-!/!1!;!A#)#(!r#)#*#*#'#'!r#(!s#(#'#*#*#(!o#'#$!o!s#(#)#(#'!r!v#'!u#*#)#*!v!r#)#'!r!r#)#)!r#(#)#)!r!s#*#*#)#)#(#(!r#(!A o ] Q Q R M ! /                                ",
"                              #g#f#g#_#O#U#M#;!|#$!r#'#(#(#'#'!r#(!s!o!p#'#'#'#(#'#(#(#'#)#)#(#'!r#)#*#)#*#*#(#'#(!r#$!s#(#(#'!s!s!r#(#'#(#'#'#(#%#(!m!o#(#(#'#'#'#'!s!s#'#'#(#'#'!r!o!o#'!u!r!s#(#*#'#'!s#(!r#'#%!o#)#!#1#8!L!(!&!*!c!c![ { f W K ! ! ! ! D 4 ' ' ) 0 3 4 0 / / 4 / 4 / , 4 / / 4 A C > # ! ! ! I O X h z!%!)!)!(!#!!!%!&!&!#!  ~ y x x w v!7!3!.!6!B#>!r#(!s#'#)!v#'!r#*!r#(#'!s#'#'!o!r#(#*#)#(#(!r!s#*!r!r#*#(#(#(!r#'#'#)#'!u#)#'!u!v!u#*#(!s!u#)#(!r!r!D#@!1 j Y Q Q Q % ! !                              ",
"                              #g#g#e#X#Q#V#H#5!x#%#(#(#'#)#(#'#'#'!r#'#'#'#'#'!o#(#(#(#'#*#(!s#'!u#'#(#'#*#'#(#(#(#'!s!r#(#(!s!s!s!r#'#(#(#%#(#$#(#%!o!o!o#'#'#(#'#'!s!r!r!s!s#'!o!r#'#'!r!o!r#'!r#(#'#'#*#'#(#%#(#'!u!o!y#6!S!J!)!*!N!^!d!h!j!h![ { g W K ! + ) ) / / 4 4 3 / / 0 / 4 4 4 / / , 4 / 4 0 4 @ C > ! ! ! ! I O X g z!%!)!)!(!#!!!%!&!&!#!  ~ u x s v!3!1!C#(!r!r!r#(#*!r!s#(#(!r#'#(#'!r#'#'!s#)#'#*#'#'!r!r!r!r!r#(#'!r!s#(#'!r#*#*#)#*#)#*#'#*#)#)#(!v#'#'#'!r!r!q q ^ R Q R M ! /                              ",
"                            #g#f#g#^#O#U#L#:#2#%#*#(#'#'!r#(#*!s!r#'#*#'!o#(#(#'!s#'#)#(#*!s#'#(#*#(!s!r!r#(#'#*#*#'!s#(#'#'!o#'#'#(#(#(#(#$#%#(!s#(!r!o#$!o#'#'!r!o#'#'#'#(#(#'!s!r#'!r!r#'!o!o#'#'#(#'#(#'#(!r#(#'#(#(#)!|#8!S!J!J!K!O!]!_!`!b!e!i!j!h!Z f ; / > / 0 / / 3 0 0 4 0 4 4 0 3 3 0 0 0 / / / , 2 / 4 @ C > ' ! ! ! I O X g z!%!)!)!(!% } | { z t t r s!+!;#(#'#'!r#)!r#'#'!r#(!s!r#'#)!r#(#$!r#(#(#'#(#'!r!r!s!r#'#(!r#'#(!r!r!r#)#*#)#*!s#*#*#'#)!v!r#(!v#*#(#'!D#@!6 k Y Q Q Q % ! !                            ",
"                            #g#g#d#X#Q#W#H#5#-#(#)#'#'#(#)#(#*!r#(!s#'#'#'!r#'#(#(!r#(#*#(#*!r#)#(#'#'!s!r#'!s#)#(!v!s!r#'#'!r#'#(#(#(#'#(#(#(#(!o#(#%#'!o#'!r!r#'#%!r#'#'#'#'!s#'!r#$#$#'!o!o!o#$!r#%#'!r#(#'!r#(!r!v#*#%!x#3#7!V!S!T!M!M!O!P!]!]!`!^!^!c!h z 2 = / 0 3 / / 4 / 0 , / 4 / 4 4 / 0 0 0 0 0 0 4 / / , / / 4 > @ @ ' ! ! ! I O X g z }!! | z t h g h r o!/!C#(#$#'#)#'#)#'#'#(#*!r#'!r#'#'#(!u#(#'#(!s#'#'!r!r!r#'#'!v#'#'#*#(#)#*!r#(#)!u!r#'#*#'!r#(#)#*#*!r#(!r!r!r q ^ R Q R M ! *                            ",
"                          #g#f#g#^#N#V#L#:#2#!#)#*!u!r#(#'#'#(#'#(#(#'!r#(!p#'#(#%#(#(#*#*#(#*#'!r#'#'#'!r#'!r!s#(#(!r#'!r#$!r#(#(#'!s#'#(#'#$#$#$#'#$#'!o#(!r!o#'#'#$!o#$!p#(!s!r#'#'!o!r!r!o#'!o!o!r#$!r!s#)#'!s#)!r#(!v#$#-#2#D#7!W!X!S!R!T!M!M!O!O!Z!Z!Z!c X ! @ , 4 8 0 4 0 0 4 / 4 3 0 0 9 / 0 0 / - 0 , / / , / / 2 / / 0 4 ; @ ? $ ! ! ! I O W c f f d d f h r!-!A#@!r#'!s#)#*#(#*#'#*#(#(!s#(#'#(#'!r!r#(!r#'#(#(!o#%#(#(!v!r#'#*#*#*!v#(#*#*#'#'#'#'#(!r#*#)#*#)#)#*!r!r#@!6 k Y Q Q Q % ! !                          ",
"                          #g#g#d#X#Q#W#H#5#-!r#)#(#*#(#'!s!r#'#'#(#(#'#*!s#$#$#%#%#'!r#(#(#(!r#)!r#(#'#(!r!r#'#$!r#$!r#%#$#'#(!o#(#'#(#@#(#'#'#%#'#%!r#(#'!s!o!p#'!o#$#$!o#'#'#)!s#$#$!r!s!n#'!o#'!r#$!s#'#(!s!s#*!s#'#'#*#)#'#'!x#0#3#5#E#8!W!X!S!R!M!N!*!Z!c i ! G 0 0 0 / 3 0 0 0 3 / / / 0 0 3 0 0 , / 0 , 0 0 / 1 , 0 / / 4 / , , / : > C A ! ! ! ! I K W f g h r!,!A#@!r#(#(!s#'!r!u#(#'#'#%#(#'#(!r#'!u!r#(#(#'!o#'!r#'!o#'!o!r!s#)#*#*!u!s#*#*#(#*#)!r!v!s#)#+!v#)#)#'#'!r!r!r!+ ^ R Q R M ! *                          ",
"                        #g#f#g#^#O#U#M#;#1!m#)#'#*!u!s#'!u#'#'#'#(!r#'#'#'#(#(#'!r!r!s#(#'#(!s!s#*#*#'!v#'!s!p!o#'!o#'#'#$#'#'!s!p#$#'#'#'#'#'!r!o#'!r#'#(!s!p!o#$!r#$#$!o#'#'#'!s!p!o#(!o!o!o!o#%!p#'!s#'!s!s#(#(!r#(!r#(#(!v#)#(!o!u!G!z#2#3#5#7#;!X!J!*!Z!c!' ! > , / 4 0 4 4 0 0 0 / / / / 3 / / 4 2 / 1 / / / 0 / , , 0 4 0 / , / / 0 0 / ) / 0 C C / ! X g h t s!,!A#B!r#)!r#'!r#*#'!r!r!o!r#'#(#'#(!u!r#(#*!r!o!s#%!r!p#(!s!r#*#)#)#)!v#)!r#)#)#)#(!r#'#*#(#)#,!u!v!r!u!r!r!r#B!6 k Y Q Q Q % ! !                        ",
"                        #g#g#e#X#Q#W#H#5!x#(#*#(!s!r#'#*#(#(#)#(#(#'!s!r#'#'!s#'#'#'#'!o!v#'#'!s#(!r!s!r#*#'#(!r!s!r#(#'#'#%#'!o!o#'#(!r#$#%#'#'!o!s#(#(#(#'#'!o!o!o!r!o#%#(#%#%!p!r#%!r#$!r#'#(!p#%#(#(!o!s#(#*!s#*#*!r!s!r#'!u#*#*!u!u!r!r#)!x#0#6#;!T!N!Z!c!' ! : 4 4 0 4 / / / 4 0 4 3 4 , 0 2 0 / 3 3 0 4 / 4 , , 4 / 4 0 , , / / 4 / 3 3 ( ' / : > $ K g t z u s!.!A#(!u!r!r#'!r!r#(#'!r#'#'#'!r#'#'#(#'!r#(#(!s#'#$!o#(#(!r#(#'!s!s!r#(#'#*#)#)#)#*#'!r#'#*#*#+#)!v#)#*#)!r!r!r!q q ^ R Q R M ! *                        ",
"                      #g#f#g#_#O#U#M#;#2#!!u!s#*#*#(!u!s#)#(#(#(#(#(!v!r#'#*!r#(#(#'#(!s#*#*#'!s#'#'#'#(#)#)#'#'#(!o#$#'!r!r!r!o!o#$#$#(!r#'!r#$#'#(#@#'#'#'!r!r#$!o!o#%#%!o#%#$!r#(!s!o!r#$#%!p#'#(#%#(#(!r!r#'#*#'!r!r!r!r#*#'!r#)#)!w!w!w#,!v!m#3#:!R!N!Z!e!' ! > 0 / - 4 , 2 4 0 / 0 / / 0 0 / / / 0 0 0 3 / 0 / / 4 / - 4 4 4 1 / / 4 / + ' , 4 0 ; ! P z z { u v!0!C#(#'#(!r#'!s!s!s#(#'#'#'!r!o#(#'#(!r#$#(!r!r!r!r#'#(!s#(#(#'#'#'#)!v#)#*#*#)#(!s!r!r#(#*!v#)#)!u#*#)#)#(#(!q#@!2 j Y Q R U % $ !                      ",
"                      #g#g#f#Y#P#W#I#6#-#'#)#)#*#*#*!v#'#'#*#*#*!r#'!o#'#'#'#'#(#'#(#'!s!r!r#)#'#'#'#(#'!s#'#(!r!r!o!o#(!o!o!o#$#(#(#'#$#'#'#'#'#(#$#'#(!r#'#'#'!r!o!o!o!r#(#'!r!s#'#'#'#'#(#$!r!r#'#'#'#*#'!u#*#*#*!s!r!r#'!r!r!r!u!r#*!u!u!w#,#'#3!W!T!K![!h z ! G 4 / / / / 0 / / / 0 / / 0 / 0 0 0 0 0 0 / / 0 0 / / / C : ! ! , G G : , ) , / , ' : ! c!! | | x!3!2#*#'#)#'#(#'#(#(!u#*!s#'#'#'#'#'!r#(#(#)!r#(!r!o!o#(!r#(#(#'!r#'#'!r#*#)#)!v#)#*#*#'#'!s#*#*#)#*#*#*#)#)#(#'!r#(!D p ] R Q R K ! !                      ",
"                      #f#g#`#P#T#R!~#C#!!u#'#'#'#'#*!s#'#'!r#(!u!r#(#(#*#'!r#'#'!r!r#(#(!v!r!v#'!s#(#'!o#'#'#(#(!o!o!o!r#'#$!o#$#$#$!o#%#$!r#'#'#'#'!s!r#'!s#'#(#(!o!r#$!s#(#(#'#'!r#'#(#'#'#'#'!s#'#'#'#*#*#'#*#*#'#)!r!r#'#'!r!r#*!u!u!u#*!u#)!w#4!V!L!O!^!j f ! G / , , 4 4 0 0 / 0 0 0 , / 4 / - / / / 0 / / / / / 0 @ ! ! J L G ! ! ! ' F C : / 0 , 4 z!)!! ~ w!-!=#@!r#'!r#'#'#*#)#(#(!r!s#(#(#'!r!u#)!r!u#)#'#(!r#'!r#(#'!r#'#'#*#(#(#)!s#*#*#)!v#(!r#*!u#'#)#*#*#)#)#*#(#'!s!s!q#B!1 a T Q R N ! 6                      ",
"                    #g#f#g#[#O#W#K#7!y#%#*#'#'#'#)!r#'#'#'!r#'#)#'#'#)!r#'#'!r!r!r!r!s#(#)#(#(#'#(!o!r!o!p#(#'#'#$#(#(!o#'!o#$#'#$!o#$!o#'!s#(#$#(!s!r#'#*#(#(#)#'#'!o!r#(!r!o!s!r#*#(#(#(#(#$#'#(#'#'#'#(!s#(!s#)#'#(#)!s!s!r!r!r!r#)!r#'#)!u!r!y#6!X!M!]!b!h P ! @ / / - 4 4 0 0 0 0 0 0 / / 4 4 4 0 0 0 4 , / / , / > ! c!*!e!e!Z z X M ! ! ! ! C G / O!_!N!) y v!/!A#@!r#)!r!s#'#(#*#(#(#(#)#(!r!s#)#)#)#)!r#(#'#(#'#(#(#'#(!u#'#'#'!r#(#'#*#*#)#)#*#'!r#*!u#(#)!u!r#)#)#)#)#)#(#'!r#(!A n [ Q R Q G ! !                    ",
"                    #f#g#b#T#S#U#G#3#$#*#'#*!r#(#(!s#*#'#'#'#'#)#(#'!r#*#'!r!r#$#'#'!r#'#*#(#(#'!r#'#(!s!o#'#'!r#'!o#$!o!o#'#(!o#(!r#$!r!r!o!p!o#$#$#'#(!r!r#(#(!r#'#'#'!r#(!s!s!s#'#'#'#'!r!p!o#$#'#(#(!r#(!r#'#*#'#*!u!r!r!r!r!u!r#(#)!r#*!v!o#0#8!S!M!_!e!Z J ' / , / : 4 4 / / / 0 / 0 4 0 / 0 0 0 / 0 , , 0 4 / @ ! t#]#Y#P!g!i!i!j!c!' i W L ! ! ! c#V!]!N y!7!1!t#(#'#'#(!r#'#(#(#'!s!r#'!s!r!r!v#*!r#)#'!u!s#(#'!r!r!r#'#*#)#(#'#(#(#(#)!r#*#)#)#(#'#*#*!u!r#)!s#*#)#*#(!s!s#'#*!q#B!. ` S Q R N ! *                    ",
"                  #g#f#g#]#O#V#L#9#/#!#*!r!r#(!u!r#(#(!r#*#'#'!v#'#)#(!r!s!s#(!r#'#'!s!r#'#*#(!r#*#(!r#(!r#$!r#'#A#(#'#(#$#%#'#%#$!o#$!r!r#'#$#'!o#%#'!r#(#'#'#'#'!v#'#(#(#(#(#(#'#'#'#(!p#(#(!r#(#@#(#(!r#'!r#'#(#)!r!r!r#'!s!u#'#(!v#)#)#*!u#$!|!W!T!O!`!i z ! C / 4 / 4 0 / / 4 4 / , 4 4 4 0 , , / 8 4 / / , 4 G ! c#^#V#K#=!f!a!`!a!d!h!j!h!^!$ f P!$#[!e!J!9!4!;#(#'!s#'#*!r#'#'!r!r!s#*!r!r!r#'#(!s#'!r#'#(!r#(#(!r!r#'!r#'#*!s#'!s#'#*!s#*!r#)#*#'#)#*#)!r#*#*!u#*#'#)#(#*#'#)#'!r#B!? l Z Q R Q % * !                  ",
"                  #g#g#e#Y#Q#W#H#5!u!p#(#'#(#'!r!v!r!r#(#(#(#'#)#'#*!r#(#(!o#$!o!n#(#'#(#(#'#'#'#*#(#'#(#$!s!o!o#'#(#'#(!s#$#'#$#'!o!o!p!o#(#'#(!s#$#'!r#'#)#)#*#(#'#(!r#'#(#'#'#(#)#'!p#'#$#$#(#$!r#(#'#'#*#(#$!o#'#)!s#*!r#'#)#'#(!r#)#)!u#'!w#D!V!L!]!a!j X ! G 4 , / - 4 3 / / 0 0 / 0 / 1 / 0 / / , 4 / 0 , 4 / I![#Y#T#H#<!U!Q!Q!P!]!_!`!b!d!i#P#K#=#L!g!R!9!/!>#@!r#)!p#(#(!o!p#(#$!r#%!r!r#(#'#'#(!r!r!r#'#)!r!r#(#'#(!r#)!r#'#'!s!r#(#(!r!v#(#*#)#'!u!r!r!v!r#'#*!r#*!r#*#(!s#*#)!r#@!+ ^ S R R K ! /                  ",
"                  #f#g#`#P#T#R!~#2# #*!r#'!s!r!s#)!r#*#'#'#(!r#*#*!r#*#'!o#(!p!o#'#'#'#(#*!r#'#'#)#*#$!r!o#'#%!o#'#'#'#(#(!o#(#(#$#$!o#(#$!r!r#$!r!o!r#'#*#(#(#*!r!r#(#$#*#'!s!s#'#(#'!o!p#%#'#(#'!r!o#'#(#'#'#(!r!r!r!s!r!r!s#*!r#'#*!r#'!v#$!z#E!S!M!]!d!c M ! : 4 4 4 , / 0 4 / 0 0 4 / 4 / / 0 0 , / / , , , C ! X!f!f#L!~#6!V!S!T!L!M!O!O!P!]!_!a!g#G#F#9!H!8!6!C#(!r#'#$#(#'#'!r!r#(#%#'#'!p!r!r!s!r!r#'!r#)#'#'!r#'!o!o#'!r!r!r!r#'#(#(!s!s!r#(#)!r!s#)#*#)#(#)#)!u!u#'#*#*#(#'#(#'!q#@!6 j Y R S N ! *                  ",
"                #g#f#g#[#N#V#K#7!x#$!r!r#'!r#'#'!v#'#(#'#*#(!u!s#'#'#(#'!r!o!o!p!o!o#'!r#'#'#(#)#*#*!o!r#'#'#$#'!r#'#'#'#(#(#(#(!o#%#'#'!p#'!o#$#%#'#'#(#'#(!s!r#'#(#(#'#(!r!s!s#(#'#'!o#'#%#'!o#'#%#(#'#'#(#'!s!r#(!s!s!r!r!p!r!r#*!r#(!o#*#$#2#8!R!O!_!h!' * 4 / , / - / 4 4 0 / / , 0 0 0 3 , , 1 / / / / 3 / 4 ! t!`!^!a!I!{#3#7!W!V!S!R!T!M!M!M!M!U!X#7#4!{!;!A#(!o!r#%!r!s#(#'#'#(!r#'#)!r#'#)#'!r!r#'!v#'!r!s!s!s#'#'!s#(#'#(!r!r#'!r!r#(!r!r!r#'#)#'!r!r#'#(#'!r!v#*#*#+#*!v!s#'#'#'#*!C o [ R R Q : ! *                ",
"                #g#g#c#V#Q#W#G#4#$#)!s!r!r!r!r!r#(!o#'#*#(!r#(!r#*#'!r#(#$!p#$!o!o#(#'#(!r!r!s!r!r#'#(#'#(!o#'#(#(!r#%#'#'#(#(#$!o!r#(!p#(#(!o!o!s!o#(#'#'#)#'!r!o#(#*!s!s#(#*#(#(!s#(#$#$#'#$!o!o#$#'#(#'!r#'#'#*#'#(!r!s#'!r!r#'!r!s!r#)#*#)#3!W!T!O!`!j g ! G , ) , / 4 0 / / 0 / 4 0 0 / 0 - 0 / : 3 1 0 / 4 ! L!$!N!N!J!9!6!G#1!|#D#6#8!W!X!S!R!R!S!I!H#0!t!A!D!s#(#(#$#$#'!s!s#(#)#'!r!s!s#'#'#'#)!s#'!r#*#'#'#'!r#'!o!r!o#'#'!r!o!r!s!r#'!s#(#'#(!u#'!r!s#'!u!s#*!v!u#*#*#*#*#*!r#*#)!t#B!. ` T R S M ! *                ",
"                #f#g#^#N#U#O#;#0#!!u!s#'#(!s#'#'#'!s#'#*!s!v#(!s#'#'#@#$#%!p#%#$#(!o!r!r#'#(!s#'#)#'#'#(!o!s#(#'#'#'!p#'#'#(!r!p!r#'#*#'#%!r!o!o!o!r#(#'#*#(#*#'#'!u!s!r#'#*#@#(!r!o#$#'#'#'#(!p!o#'#*#'#(!s!r#(#(#*!r!o!r#$!r!r#$!r#'#(!u#'!x#5!X!M!]!b!h P ! D / / / 3 4 / 0 0 0 0 / 0 / 0 4 / 0 0 4 / / / - > ! P!)!(!) y!7!0!F#@#'!w!y#1#3#5#6#7#7#6!}#C!z#)!o#$#%#(#$#(#'#%!o#(#'#*#(#(!o!r#'#'#)#*!r!v!r!r#*#*#'!r#'#'#'#(!r#'#'!r!o#(!r!s#'!r!r!v#'#)!r!s#(!r#*#*!v!r#*#)#*#+#)!v#'#'!r#@!= l Z R S U ! /                ",
"              #g#g#g#Z#O#W#J#6#+#'!r!r#'!r!r!r#'#'!r#*#'!r#'#(#'#'#'#'#(#$!o!o#(#$!r#(!r#'!r!r#'#'#(#(!r!r#'#'#'#'#*#(#(#'#(#'#(!s#'#'#'!o!o!o!o#'#(#$#$#(#'#'#(#'#'!r#'#*#(!r!s#'#(#'#'!s#(!r#'#'#'#(#(!s!v#'#(#'#%!r!r!r#'!r!o!o!r#'#'#)#%#/#7!S!M!]!e![ J ! > 0 0 4 0 / 8 , / 0 0 3 / , 3 / 4 0 / / 0 , / / @ ! c!)!%!# x!3!2!v!u!u#'#%!o!o!w#.#0#0#0#/#.#,!r#%#(#%#$#$#(!r!p!s#'#'#'#(#'#'#'!r#'#'#'#*#'!r#'#'#(#'#'!s#'#'#(#'!p!s!r!r!r#'#'#'#(!r#'#)!r!r#$!r!v!r#'#'!s!u#)#)#)#)#*#*#(!r#'!r q ] S S R I ! !              ",
"              #g#g#b#S#R#V#G#3!l!u!s!s#'!r!u!r#*!v!r#*#*#'#'#(#'!r#%#'!o#'!r!o#%!r#(#'#'!r!o#'#(#(#(#'#%!p!s!s#)#*#(#'#(#%!r#(#'#*#(#'#$#'#$!s#(#(#(#)#(!v#'!r#'!r#(#'#*#(#'!r#'#'#(#'#%!o!o#(#'#*#'!p#(#(#'#*#*!r!r!v!u#'!r!r!r!r#'!r!u#)#%#C#9!R!O!_!j { ! > / / 4 0 / 3 , 1 0 0 / / , 4 / 3 / 8 0 , / / / / / / t!(!% ~ w!-!<#@!r!r#*#*#'!r!o!o!o#$#'!o!o#%#%#$#'#'#$!s#(!r#%!s!r#(#(!r#'#*!u!v#(#(!r!r#%#(#'#'!s#'#'#'#(!r!r#$!r#$!r!r#'#'!o!r#*#'#'#*!r!r#'!u#(#(!r#)#)#*#*#*#*#)#)#(#(#'!q#@!/ a T R S N ! *              ",
"              #f#g#^#N#U#O#;#/#!#'#'#*#(!s!u!u!r#*!v#(#)!r!r#*#'#'!s#'!p#$#'#'#$!p#'#'#'!r!o#'#'#(!o#'#(!r#'#'#'#(#'#'!r#'#%#'#'#)#@!r!r#%#%!s#(#(#'#'#)#(#'!r#*#(#'!r#*#)!r#'#'#(#'!p#$#%#(#'#'#'#%!r#'#(#*#*!s!s!r!r#'#'!r!r!o!r!r#'#)#(!w#4!V!T!P!a!j f ! F ) / 4 4 0 3 0 / 0 0 3 / / , 0 1 / 0 / / , 3 , 4 ! O }!!!% u v!/!A#@!r#'!r!r!s#'!r#'#)#,#*#*!r!s#'#%#'#'#'#%#'!r!o#$!r!o!s!r!r#(#*#'#)!r!r!r#(#(!r#)#(#$!o!o#(#(#(!o!o!o!o!r#$#'!v#*!u#*#(!r!s!v!r!v#(#*!s!r!u#*#*#)#)#)#*#(#'#(!r#@!> l Z R S U ! *              ",
"            #g#g#g#[#O#W#J#6!w!p!r#'#'#$#(#'!r#'!r!r!r!r!r!r!r#'#)!r!r#$#'!o#'#(#(#'#'#'!p#'#$!o#$#%!s#$#'!r!r!s#(#(#(#'!o#%#$#'#(#(#(!s#%#$#(#*#(#'!s!r!r#(#'!r!r!r#'!r!v#'#)#(#(#$!s#'#$#(#'#(!p#'!s#'#*#'!r!r!r!s#(!r!s!r!r!r!r!r#'#*!o!y#6!X!M!]!d!e O ! @ / , , 0 1 3 0 : 0 0 3 0 0 / / 0 0 3 , / / 3 , @ ! X!) }!% y!7!1!t#(!r!r#(#'!o#$#'!r#'#)#)#'#(!s#'#(#%#(#'!r!r#(#'#(!r!r#*!r#)#*#'#)!r!r!s#(!r#)#'#*!r!o#'!o#$#$#%#'#(#(!r!o!r#(!s#)!r#(!r!r#'#'#'#(#(#*#'!s#'#)#*#*#)!u#*#)#(#(!r#'!o q ] S S R F ! *            ",
"            #g#g#c#U#R#W#G#3# !r!r#(!r#(!r#(#'#*!r!r#'#(#'!o#'!r#(#'!s!p!s#'#'#(!s!r#(#'#'#(!o!r#$#(#'!o#'#'#(!p#%#'!o#$#'#(#%#'#(#%!s#(#(#'#(#(#*!r#'#(#(#(#(#'#(#(#'!r!r#*#*#'!r!r#(#'#'#)#(!r!r#(#(!r#*#)!r!r!r!u!r!r#'#(!r#)!u!r#'#'#$#1#8!R!M!_!f!* 6 0 : 4 / / 4 / 4 / 0 3 4 0 0 0 0 , / 3 / / , 0 / 4 > ! g!)!!!  x!3!6#B!r!r#'#$!p!r!r#'!u!r#'#*#*#'!s#(!r!r!p#'#'#'!r#'#'!r#*!r!r#'#'!s!r!r#(#'#(#(#(#'#'#'#'#(!r#$#$!r#(!r!r!r!o#*#'!r#(!r!r#(#(#)#'#)!r#'#)!r#(#*#*!s!s#(#)#)#)#*#(!r!o#@!/ ` T S S M ! /            ",
"            #f#g#_#O#T#Q#;#/!m#(!p#'#'#'#'#'#*#'#(#$!r!r!o#%!o!o#(#'#'#(#(#%#$!r#(!r#(!s#'!r!r#%#(#'#$#'#$!s#%#$#%!r!p!o#(#'!o!o!o!o#%#(#(!r#'#)#'#*!s#'!r#'#'!r!r#*#'#'#'#*#*#(!r!s#(#'#(#'#(#(!p#*#(!r#'!r!r#'!r#)#(!r#(!u#'#'#*!s!r!u!o#3!W!T!P!`!j i ! F / 0 / , , 0 ; 4 4 / 0 0 4 , 0 4 / 3 3 4 0 / 0 / ' J {!(!% ~ w!-!>#>!r#'#'!r!p!s!s!s#)#'#'!o!r#'!r#'#(!s#'!s#(#'!r#'!r#)#*#)#'#'!o!s!o#'#(#'#*!r#(#(#'#%!p!r#'!o!s#(!o#'#(#'!r#(!r#(#)#(#'#)#'!r!r#)#'!s#'#'#'#*#'#(!u#'!r#*#*#*#(!r!q#@!< k Z S S U ! *            ",
"          #g#f#g#[#O#V#K#7#,!r#(!o!r#'!o!r!r#'#(#*#'#$#'!o!r!r#$#(#'#'#'#'#%!p#%#(#'!p!p!o#'#'#%#%!r#'#$#'#(!o#'!r#%#'#'#'#'!p!o!o!o#%#$#(#'!r#(!o!r#'!s!s#'!r!r#'#'#'#*#(!s#'!s#*#(#'#(!u#'#*#'#(!r!o!r!r!r!r!r!r!r!r!r!r!r#)!r!r!v#)!o!x#5!X!L!]!b!j X ! > , / 4 0 0 3 0 / 0 1 0 0 0 0 4 0 / 3 0 0 - / / > ! P!(!!!& y v!/!B#@!r#$!s!r!s!s!s#'#(!v#*#(#(#(#)#*#'!v#*!s#$#'!r!r!r!s#(#*!s!s!r!r!r#'#(#(#'#(#'!r#(#'#(#(#*#)!r!s#'!r!s#'#(#*!r#*!v!r#(#*#(!r!r!r#(#'#(#'#'!r#(#'#*!u!u#'#*#(!r!s#'#(!C o ] S S R % *            ",
"          #g#g#e#X#Q#W#H#4#!#(#(#'#(!s!r#'!r#'#(#)#'!o!o#%#'!r#'#'#$#'#'#'#%#%!o!o!o#(#(#(!p#'!r#$!o!r#(#$#$#'#(!r#(#(#(#'#$!s!o#(#$#'#'#(#(!r#'!r#%!r#(#(#'#(!r!r!s#(#'!u#)#'!u#*#*#*#(#(#'#'#)#'!r!r!o!r!r#'!r!r!r!r!u#)!r!s#'#'#*#)#$!z#E!S!M!]!e!b L ' 4 ' / 4 4 0 0 0 / 9 , 0 0 4 / 3 0 / - / 4 , , , @ ! c!)!!!  x!7!2#*#(#'#'!r#(#(#(#*!s!r#'#(#*!r#'#*#'!r#(#'#'!r!r!o!o!r!o#(#(!r!r!s!r#'#'#(#*#'#'!r!o#'!r#)#(#(#)#*!r!s!s!r!r#'#'!r!s#'#(#(#A#(#(!s#'#'#(#(#'#*#)!s!r#(!v#)#)#'#'#(#(!r!u#@!- _ T S T K ! !          ",
"          #f#g#a#Q#S#U#<#1# #'#(#'#(#(#'#(!r#(#(!r!r#'!o!r!r#'#%#'!p!p#$!o!r#$!o!p#'#%!r#%!r!o#'#(#(#$#'!s!r!s!r#(#'#(#'!o#$#$#(#'!o#(#'#'!o#(#(!o!r!r#'!s#*#'!r!r!r#(!u#)#'#*#*#*#'#*#'#(!u!r!r!r!r#(!r#%!o#(#'#'#'#'!r#*!r!r!u#(!r#)#$#2#9!R!O!_!i { ! C 0 / / / 4 0 / 3 0 / 0 0 0 / 2 / / , 4 / 3 / / / / + t!)!! ~ w!,!<#B!r#(!r!r!s#'#'#)#(!r#'#'!r#'#(#(#'#(#'#'#(!p!o!o#'#'!r!o!o!r!r!r!r#(#(#%#'#*!s!r#$#'#$#'#*!s!r!s#*!r#)!s!r!r#'#'!s#'#(#'!o!r#'#'#%!r!s!s!r#(!r!r#(#'#*#)#)#*!r!r#'#(!t#@!2 j Y S T N ! 6          ",
"        #g#f#g#]#O#U#M#9#.#!!r#'#'#(#(#'#'!o#%!r!r#'#'!r!r!r!r#'#(#(#$!o#%#$#'#$!o!o!s#'!o#'!p#'#'#(#'#'#(!r#(#'#'#'#'#'!o#%!p#'#'#(#'#'#$!o!r!r#'#'#(#*#(!r#'#(!r#(#(!r#*!v#)#*#)#*#'#'#*#*!r!s#(!q!r!r#$!r!s!r!r!r!s!s!s#'!r#*#*!u#(#+#4!V!T!P!a!j f ! G 3 0 4 / - 4 4 0 3 / 0 0 0 4 1 0 0 4 / 0 / , , : ! M |!#!% ~ v!.!A#B!r#(!r!r!r#(!u#'#'#'!r#(#'!r!r!r#(#(#'#(!r!o#%!o!o!r#'!o!s!s!o#(#(!r!s!r#'#(!r#(!o!p#$#'#(#(#(#(#'#)#'#(!s#(#'#)!u#(!s#(!r!r#'#'!r!p#(#(#$#(!s#(#(#(#)#'!s#*#)#*#'!r!u#@!A m [ S T Q % *          ",
"        #g#g#g#[#P#W#K#6#%#'#(#*!r!s!o#(!r#(#(!r#'#'#'!r#$#'!r#$#$!s!o!s#%!o!r#(!r!r#'!o#$!r!s#(#(!o!r!r#'#'!r#'#(#(#(#(#(!o#(#'#(#'#'#'#'!o!r!s#'#'#(#*#(#(!r!s#'!r#*!s#'#*!u!s!s#)#*#(#(#(#)!r#'!p#(#'!s!o#'!r#'!r!r!s#*!r#(!s!r#*#$!y#6!X!M!]!b!h P ! @ 4 4 / 0 , / / 4 0 3 0 0 / / / , / 0 4 / / / / @ ! W!)!!!% y!7!0!C#(!r#(#(#(#(!s!s#(#'!p!r!r#'!r!o#'#(#'#'#'!r!r#(!o!r!o!o!o#'!r!o#'!r!r!r!s#'#'!r#(#'#'!r#)#(#)!u#*#*!v#(#(#'!v#*#'#'#(#(!s#'#(!s!s#'!r!s#(!o#'#'!s#(#(#)#'!s#)#)#*#*#)!r#'!r q ] T T S 9 !          ",
"        #g#g#d#X#Q#W#H#3# !r#(#(#'#'!s#(#$!r#'#(#'#'!r#(!r!r#'#(#'#%#'!r!o#'!s!o!o!s#$!o!r#'#'#(!s#'!p!s!s#(#*#(#'#(#$!o#$#(#'#(#(#(!s!v#'#(#'!s#(#(#'!r#*!s#(!o!o!r#(#'#(#'#'#*!s#'#'#'!s#(#(!r#(!r!r!o!r!r#'#*#'!r!v#'!s#'#(!r!r!u#$#0#8!S!M!_!f!* E / 0 / 3 0 4 / / 0 4 0 0 4 0 3 3 / 0 0 0 / / , , / > ! f!)!!!  x!3!6#*!r!r!s#'!r!r!r#(!s#$!o!o#(!o!o!r#'#(#%#(!o!r#(!r!r#%!o!o!o!o#$!r!r#$#'#(!s!r!r#(#$#$#'!r#(#(#*#*#'#(#*#)!r#(#(#(!r#(#'!r#'#(!r#*#(!u!u!u!s#'#(!r!r#(#'#*#*!v#*#*#*#)!v!u!u#B!. ` Y T T K ! *        ",
"        #f#g#a#R#S#U#<#1!l!s!p!o#(!r!p#'#%#(#'#(#(!r!u#'!s#'#'#(!s!p!p#$#'#(#'!o#$#(!o!o!r#'!s!r!s#(!s!r#(!s!r#(#(#'#$#(#(!o#'#'!o!o!s#(!r!r#*#(#(#'!r!r#'#(#(#(!s!s#(!s!o#(#(#'#'#(#(#'!r#(!s#(#(#(#@#%#%#%!s!r!s!r!o!s!s!r!r!r!r!r#'!|!W!T!O!_!j t ! G 4 4 , / / , 3 4 0 4 4 0 / / 0 0 0 0 4 4 / , , 4 ' G z!(!% ~ w!-!?#B!r!r#'!s#'#(#(#'!s!s!r!o!o#(!o!s#(!o!o!r!r!r!o#$#$!p#(!s#$!o#(!p#(!r!o!r#'#'!s#$#(#(#'#'#*#*#*#*#(#*#'#(#)#*#@#'#(!r#'!s!s#(!r#*#B#*#*#)#*#(#(#(!r!s#*#)#(#*!r#*#*#*!v#'!u#B!6 j Z T Y N ! *        ",
"        #f#g#^#O#U#P#:#.#!#(!r#$#(#'#(!s#'!r#(!r#'#'#'!r#%#'#(!r!r#$#(!r!r!r!r#(!r#$!r!r#'#(#'#'!o#(!r#*#'!s#(!p#'!p#'#)!p#(#'!r!o#'!p#'#'!r#'#*#'!r!o!o#(#'#'!r#(#'!p!o!r!r!s#'!r#'#)#(#*!s!r!C!@!>!>!>!A!F!q#(#@#B#(!r!v#)!r!r#)!r!w#D!V!L!P!a!j X ! F , / , , / 1 0 0 4 / / / / / 4 4 4 4 0 / , / 4 6 ! O!$!!!% y v!/!A#(!u!v!s!v!u#(#'#(!r!r!r!o!o!o!o!o!r#(!o#$#(!r!r#$!o#(!p!r#%#$#(#%!r#(!r#(#'!r#(!r#'#'#'#'#*#*#*!r#)#)!v!r#'#)#'#'!r!s!s#(#(!r#'!v#)#(#)#*#)#(#'!r!s!u!u#*#'!r#*#)!r!s!u#*!r#@!A m [ T Y Q % 6        ",
"      #g#f#g#[#O#V#L#E!r#%#(#%#(!s#(#%#'#(!s!r!s#'!r!r#$#(!s!r#'#(#(!p!s#'#'#'#'#(!r!r#'#'#(#(#)#'!p#(#'#(#(#(#(#'#'#(#'#'#*!r!r!r#$!r!o!r#'#'#(!s#'#(#*!r!r#'#'#'!o#'#'!r#'!o#'#*#(#%#(#(#*#+!C!?!6!5!/!/!0!1!<!A!C#*#@#@!s!u!q!u!o!z#E!S!M!]!d!c M ! > , , / / 0 ; 0 0 / / / 3 0 , 0 0 , 4 / 4 / / / B ! X!) }!! x!7!1!u#(!r#'#'#*#*#(!v#'!p!o!o!r!o!o!o#'!s!o#$!o!o#$#'!r#$#'!o#(#'!o#'#'!r#'!r#%#'#'!r#*#*#'#*#'#(#*#*#*#)!u#*#*#)#*!r#'!o!p#'#'#'!o#'#'#'#*#B#(!s#'#*#(#(#'#)!v#*#)!r!r!v#(#*#)!u#)!t p ] T Y S % !        ",
"      #g#g#f#Y#Q#W#I#D!l#'!o#(!p#(#'!r#(#'#(!r#'#'!s#'#'#'#'#'#%#'!s#$#'!s!r#(!r!r!p!r#'#(!p#'#'#'!o#%#'#(#*#'#'#*#'!r!o#(!r#'#(#'#'!o!o!s#'#'#(#'!r#*!u#'!r#'#(!s!r#(#'!o#(!u#(#'!s!r!r!x#/#0#1!|!H!9!9!9!7!7!,!.!0!2!<!A!t#*#B#B!o#1#8!R!O!_!h!' $ : ) / 0 0 0 0 0 0 0 0 / 0 0 / 0 0 0 , - 4 , 0 / / 4 ! h!)!!!  w!3!<#B!u!r!s!r#)#'#*!s#'!r!o!o#(!r#$#$!o!o#(!o!p#$!o#$!r!r#'#$#%!p!o!r#'#(!r#'#(#'!r!r#(!r#(#(!r!s#'!r!r#*#(#)#*#*#)#(#(!s#'!r!s#(#'#'#'#(#'#(!s#'!r!u!r#'#*!s#)#*#*#*#*!r#'#*!s#'!u#B!- _ Y Y Y I !        ",
"      #g#g#b#U#R#W#G#C!l#(!p#'!p!p#'#(#(#(#'#)#(!r#(!s!r#'#(#(#(!o#%#$!r#(!r!r#(!r!o#'#'!r#'#'#'#(!r#'#'#'#(#'#'!r#(#(#'#(#'#'#'#(#$!o#%#(#'#'#'#)#'#(!u#(#'#'#'#(!r!s!s#(!r#'#'#(#)#(#)#1#4!H#5#7!~!U!J ~ y x w v!7!3!-!.!0!6!?!F!t#3!W!T!P!`!j g ! G , / 0 0 0 / 0 4 , / 0 4 0 0 0 / 0 0 0 / - , / 4 ! L {!#!& ~ v!.!?#@!u#)#(!s#*#*#(!r#*!s!r!s!p!r!o#%#$#$#(!o!o#%#$!o!r!o!o#'!o#%#'!o!p#'#(#'#'#$!r#'#*#'!r#'#$#%#'#'#(#'#*#)!u#)#(!r#(!r#(!r!r!s#'!r#'#$!r#'!s#'#'!u!s#(#(!s#(#*#*#)!r!r!s!s#(#*!r#B!0 a Z Y Y M ! /      ",
"      #f#g#`#P#S#U#F#0!m!v#'#?#(!s!r#'!r#*#'!u!r#'#'!s#(#'!r!r#(#'#$!r!o#(#%!o!r#'#'#(!r#'#'#'#(#(#(#$!o#(#(#(#'#*#(#(#(#(#'#(#'#(#$!p#%#$#$#%#(#'#'#(#'!r!o#'#'#(#'!r!r#(!r#*#)#'#*#%!y#4!I!S!W#F#=!i!`!N!(!  ~ ~ y x w v!7!3!-!/!>#3!V!M!]!b!h W ! F / 1 0 0 / 0 / , 1 0 4 0 0 / / 0 - - 4 / 0 0 / A ! W!)!!!& y!7!0!C#*#'#(!r#)!r!r#)#(#'!s!o!r!o!r#'#'#$!o!o!o#$#$#$!p#'!s#%!r##!o!o#$#$#%#'!q#$#'#'#(#'#$#(#(#'#$!o#$#$#'#*#*#)#*#*!s#(#*#)#'#)#'#'!s#'#'#'!s#(#'#(#(#(#'#'#*#(#)!v#)#*#*#*!u#*!r!q#B!= k Z T Y N ! /      ",
"      #f#g#]#O#U#O#:!x#%!v#'#'#'!r#)#'#(!r#'#(#(#'#'!r#'!r!r#$!s#'#%!o!p!o#%!o!o#%!r#'!o#(#'#$!r#(#'#'#'#(#'!s#'#'#(#'#(!r#'#'#'#$!o#'#$!o!p!r!o!s#*#'!s!r!o#'#(#'#'#(!o#(!s#'#'!r#)!r#2#7!S!U#H#H#L#[!i!N!( } }!$!!!  ~ u y x w v!8#1!S!Q!]!e![ J ' 4 / 0 0 0 4 / / 0 4 4 4 / 0 / / / / 0 / / 0 / , > ! f!)!!!  x!3!6#*!u#)#*#'#'#'#'!u#(!r#'!s#(#(#'!s#(!r!o!o#$!o#%#%!s#$#%#$#(#$#'!o#$#%#$!r!r#'!o#'#'!o!r#'#'!r!o!p#%!o#'#(#(#(#*#'#'#(#*#*#(#)#(!o#%#'#$!r!r#*#)#'#(!r#(#*#)#)#)#*#)#*!r#(#)#)!r!r#B!A n [ T Y Q ! *      ",
"    #g#f#g#[#O#V#L#7!s#(#(#*#)#(#*#'#'#'#(!r#'#(#*!s!r#'!r#'!r#$#'#$!o#(!p!o!o!o!s#$!s#$#$!o#%#'#(!s#'#(#'#'#(#(#'#'#(!p#'#(#(#(#'!o!o!o#%!o!o#(#'#'!r!r#(!p#$#'#'#(#(#)#*#'#'#'#)#'!w#4!V!T!Q!d#L g f!$!*!)!)!(!! } } }!$!!!  ~ y y#6!I!a!a!i { ! C , / 0 0 4 0 / / / 0 4 / 0 4 / / / / 3 - / / 4 3 ' C z!(!% ~ w!-!?#@!r!r!s#'#)#'#'!v#'!s!v#(#'#(#'#'#(!r!r#*#'!o!o!o!r#'#'#%#$!o#$!o!o!o!r!r#(#'#'!r#(#(!p#'#'!r!o!s#$#$#(#'#(!r#(#(#'#*#'#*!o#$!s#(#'!r#'!p#'#*#*!r#(#*#)!r#(#)#)#)#)#*#)#(#*!r#*#'#'#) p ^ Y Y S % !      ",
"    #g#g#g#Y#Q#W#J#5#!#*#*#*#)!r#'#)!s!s#(#'#*#'!o!r#'!r#'!r#$!r#%#$!o#$#$!o!o#!!o#'!s#$#$!o#'#(#*#*#'#'!o#$#'#(#'#(#'#'#$#$#(!o!r!o!o!o!s!o!o!o#(!r#'#'#(#'#'!s!r#(#)#*#'!r!r#'#)#$!y#6!S!M!]!d!f M ! ! L P c i {!&!)!(!! } }!$!&!N!g!~#H!d!j c ! G / , 0 4 3 0 / 4 0 0 0 3 , 4 0 4 4 0 4 / / , / : ! O!$!!!& y v!/!A#(!r!r!r#(#*!u#(!s!s#(!s#'#'!r!r#(#*!o#%#(#'!r#'!o!r!s#%#$!r#'!o!o!o!o#$!o#'#(!u#)#'!r#(#(#'#'#(!s#'#(#'#'#(!r#*#(#'#)#'#(#(#(#'!o#'#$#'!o#'#'#'#'#'#*#'!r#)#*#B#*!r!u#)#)!s!r#)#'!r#B!, _ Y Y Y G !      ",
"    #g#g#d#X#R#X#H#3#!#,#)#(#*#)#)#)#*#(!u#'#*#'#'#(#(#(!o!r!o!s!o!p!o!o!o!o#%#$#$!s#$#$!o#%#'#'#(#'#$#(#%#'#'#'#(#(!o#(#%#'#$#%#(#(#(#$#$!s!s!s#'#'!s#(#'#$!o#%#'#'#'#)#)!s#(#'#*!o#1#8!R!O!]!f!& 4 G G $ ! ! ! L W f t |!(!(!#!!!)!d#L#I!g!h P ! > / 0 0 0 2 3 / / 0 0 4 0 , 0 4 0 / / 3 , / , 4 F ! X!) }!! x!7!1!D!s!r!r!r!o#'#'!s!r#)!o#'#(#(#'#'!o!r#'#'!r#'#'#(!r!o!o#'!r#'!o!o!o#$!o!p#%#$#'#'#(#'!r#(#(#'#$!o!s#(#(#(#(#(#'#(#(!s#'#'#'#'#'#'#$#'!r!r!s#'#'#'#'!s!r#'#'!r#*#*#*#(#(#)!s#'!s#*#)!q#B!/ a Z Y Z K !      ",
"    #f#g#b#S#R#X#G#2!l#,#)!v!s#*#(#'#*#*#'#(#(#'!s#'!o#'#'#'#$#(#(#%!o!o!o#$!o#$#$!o!p#$!o#$#'#%#(#'#(#'#(!r#$#'#$#%!r#%#'!o!r#%#'#'#(#$#$!o#(!o#'#'#$#'#'#$!o#%#%#'#(#)#'#(#'#(!u!r#3!W!T!O!`!j g ! C 5 > @ > > ! ! ! 1 M X g z!!!N!b#W#N#N!Z 4 0 / 4 4 0 3 / 0 0 / / 3 4 , - 0 3 4 4 / / , / / / > ! h!)!!!  w!,!;#B!r!r!r!r#'!r!r!r#'#(#'#'#'#'!r#$!r!r#'#*#*!r!r!r#'#(#(!r#(!o!p#$#$!o!o!o!o#$#(#(#$!s!s#'#'#$!o#$!o#(#$#'#(!o#'#(#)#(#(!r#'#'#(!r!r#(#'!r#'#$#'#'#'#'!s#'#(!s!r#'#(#*#(!r#*#*#)#*#'!D#B!2 j Z Y Z M ! *    ",
"    #f#g#`#P#T#U!~#/#!#,#*#'#*!s#*!r#(#'!r!v#'#*#'!r!r#$#'#%#(!o#(#'!o#$#'#'!o#'!o!o!s#$#%!r#'#'#(!s#'#'!r#'#'#'#$#$#'#(!r!s!o#'#'#%#$!p#%#(!r#'#'!o#$#(#'!r#'!o#(#(#(!r#(#'#'#'!o!w#5!X!L!P!b!h W ! ? , 2 / 4 4 : > @ 3 ! ! ! I O c t!`#[#^ t ! G 4 , 4 0 0 / 0 0 0 0 4 0 / 0 0 , 0 0 3 / / / / 4 ! K {!#!% ~ v!-!?#(!r#'!o#'#(!r!r!r!s!r#'#)#(#'!o!r#(#'#(#*!u#(#'#'#(!r!r#'#$!o#'!o#'!o#$#$#'#'#$!o!o#$#%#$#%#%!o#$#'#(#(#%!s#'#(#(#'!r!r#(!s!s#$#'!r#(#(#'!r#(#'!r!r#'#%#$!r#(#'!r#(#'!r!s#(#)#*#'#)!r#@!< l [ Y Z U ! *    ",
"    #f#g#^#O#T#Q#:#-#'#*#*#(#*#*#)#*#)#(#'#(#(#*#'#'#$!o#(#'#(!o#$#$!p#'#'!o!o#$#%#$!o#%#$#'#*#(#(!r#)#(#'#'!o!o!o#$#$#'#'#(#%#$#'#'!r#(!o#'#'#'!r#(#'#(!s#'#'!r#'#'#'!r#(#*#*#'!m!y#E!S!M!]!d![ L % / ' , 0 4 4 / ( / 4 > @ > # ! ! ! L X t W ' ; 0 4 4 / 0 3 0 0 0 - 0 4 / 0 - 4 : - 3 0 / / , C ! P!(!!!% y!7!/!F#(!r!r!r!r!r!r!r#'#'#'!r#(!r#'!r#'#*!r!s#)!r#)#'#)#*#'!r!o!o#$#%!o!o!o#$#(#(!r!r!p!p#'#(#%#$#$#$#(#'#'#'!s#(#(#'#'#(#(#'#(!s!r#(#'#'#*#*#)#'#(#$!o#(#(!o!s!s!r#'#(#(!r!r#(#(!r#)#'#'!r#@!A n ] Z Z Q ! *    ",
"  #g#f#g#]#O#U#M#8#(#'#*#*#*!v#)#'#*#)#*#(#'!s#(!r#(#'!p!p#(#$#'!r!p#(!v!r#'#'!o#$#$#$!p#(#'#(!s#(#)!s#(#%!o!s#(#'#$!o#$#'#(#(!r!o!o!o#'#'!r#'#'#*#*#(#'!r#(#'#'#(#'!r!r!s!s#*!u!o#0#8!R!K!N!e { 4 G 0 ' . 0 , / / , / / / 0 / 4 > C A $ ! ! ! 4 , / 4 4 / 0 : 4 0 0 0 / 0 / 0 4 0 / , , / 3 / 3 @ ! c!) }!  x!3!2#)!s!r#(!r!r!r!s#(#'#(!s#'#(#'#$!r!r!r!r#(#'!r!r#*#'#(#(!s!o!r!r!o!o!o!r#$#(#(!r#(!s#(#'#(!o#%#$#$#%#$#(#'!r!r!p#(#'!s#(#(!r#(#'#(#(#)#(#'#'#(!p#'!r!o!o#'!r#$!r!r#'!s!r#(#*#'#'!u!v!s!q#@!B o ^ Z Z V % *    ",
"  #g#f#g#[#O#V#L#6#%#*#'!u#*#'#'#'#)!r#'#(#'!r!o!s#'#(#'!r#(#'!o#(!r!r!r!r#'#'#(!o#$#$!o#'#$!r!r#(#*!s!o#$!o#'#'#%#$!n!o#'#'#'#'#$!r#(!r!r!s!r#'#'#'#'!u#(!r#'!r#'#*#(#'#(#'!v!u#!#1#8!L!)!*!c X ! $ > C C : 4 ) , / / 3 , , / - 0 : ; > @ F ; 4 4 : 4 0 / 0 4 0 4 / 0 0 0 / 0 4 0 / / , / 3 4 4 , ' i!! | | s!+!6#@!r!r!u!r!o!o#(!r!r#*#)!s#'#'#(#'!r#'#(!r!r!s#*#(#(#'!o!o!s#'!r!r!r!o!r#$!s!r!o#%#'#(#%#(!o#$#(!r#$!o!o#'#(#%!s!s!o!r!s!s#'#*#(#'#'#(#(#)#'#(#'#%!r!s!r!o#$!o#'#'#'!r#(#)!r#)#)!r#(#)!r!u#) q ^ Z Z T ! *    ",
"  #g#g#g#Z#P#W#J#5# #*#'#'#*#*#*#)#'#'!r#'!r#'#'#'#'#'#'!r#'!r!o#(#'#'!o!r!r!r#(!o#(#'!s#(!s#(#'!o#(#$#$!s#%#'!o#$!o!r!o#$#'#(!o#'#(#(!o!s!r#)#'!o!o!r#*#*#'#(!r!r#(#(!r#'!r!r!u#$#1#8!L!)!*!Z i X O ! ! ! ! > C > / / / / + , / 4 : 4 / ' ' / 4 4 : / / 4 0 / / / 3 / - 4 / 4 0 0 4 ) , 4 0 / : ! M z { z t r o!/!>!t#*#B#(#(!r!r!r#'!u#)#*#'!r#'#(#*!s!r#'!s#(#'#'!s#'!r!v#*#(!r!r!o#'#(!r!s!o!r#%#)#'!s!r!o#(#'#(!o!o!o#'#'#$!p!o!o!s#'#)#(!r#)#*#(#(#(#(#B#(#'#(#(#%#$!o#'!r#'#'#'#'!r!u!u#*!r#)!v!v#*!u#B!+ _ Z [ Y 8 !    ",
"  #g#g#f#Y#Q#X#I#4# #*#(!r#*#'#(!r#*#'#'!r!o#(#'#'#'#'#'#(#(#(#(#'#$#$!s!r#'!o#(#'!p!p#(#'#'#(#(!o#$#$#(!o#(!o!o!o#(#'!s!r!r!s!r#'#(!r!o!r#*#'#'#(#(!u#*!r#'#(#(!v#*#'!r#(!r!r#)!o#/#7!R!)!&!*![!c!c!' g W L ! ! ! ' C C : / / / 3 / 3 , + , / 5 4 4 / 3 / 4 0 4 4 / / 4 , 0 3 4 0 , 1 4 4 3 ) @ ! W t h g g e m!+!.!0!6!?!A!t#B#B#@!v!u!u!u#(!r#)#*!r!r!r#'!r#(!s!o!o#$#(#*!r!r#(#'#'!s!r!s#(!o#'#(#(!s!r#(#(#(#%!o!o#$#$#'!r!o!o#(#'#'#(#'#'#(#'#'#(#'#(#(#'#'!s#(!r#$#$#$#$#'#'!r!v!r#'#)#)#*#*!u!v!s!r!u#B!- ` Z [ Z F !    ",
"  #g#g#c#X#R#X#H#3# !u#(#(!r!r#*#*!v#'#'#'#'#'#'#'#'!r!p#(#'#'#'!o#$!o!r!r!o#(#'#'!r#(#(!s#(#'!p#(#%!o#'!o!o!o#%#$#'#'!r#'!o!r#'!r!p#'#'!s#'#(#(#*!v#'!s#'#'#'#'!u#'!r!r!r#*#,#,#$#.#5!V!J!)!*!N![!d!f!j!h![ { f P G ! ! ! / G G ; ) & / / / 4 4 4 4 3 / 4 4 4 / 0 / , 4 3 0 - / / 0 0 0 0 0 , 0 ! X f c c f h r s v!7!3!-!/!1!;!?!F!w#B#(#*#)#)!r!r#*#(#*!s#'#(#(#$#'#'!r#'!r#'!v#'#*!r!r#'#$!p!o#$#(!o#'#B#*!v!o#$!o#(!o!r!r#(#'!r#'#(#(!r!s#(#'!o#(!s!r!o!o!r#'!r#$#'!p!o!s#'!v!v#)#'#(#)#'#)!w!u#)#)#*!D#B!/ a [ [ [ K !    ",
"  #g#g#b#T#S#X#G#2!l!u#(#'!r#'#*#'!r!r!r#'#)#'!u#'!s#'#'#'#%#'#'#'!s!o!s#(#(!o!s!p!s#'!p#'!r#(#(#(!r!r!p!o!p#(#'#%!o#'#(#(#$#(!r#$#'#'#'#'!o#%!r#(#(!r!r#'#(#(#(#(#)!r#*!u!u#)#*#,#(#2#E!S!L!K!K!O!]!_!`!b!e!h!j!h!Z t X O ( ! ! ! , ; : / 4 4 / / , / 3 0 4 4 0 / 0 0 - 0 4 0 0 - 0 ; 4 / - 4 ! E X X c f h z { ~ u y x w v!7!3!-!/!1!<!?!F#)#B#'#'#(#'#)#*!s!r#(#*#(!o!o!o#'#'#*!v!v#'#(#%#(#(#'!o#(#(#$#'#(!s#(#'!s#%!r!o#(#'!r#(#(#'#'#(#'#'#(#(#'#$#(!s#$#(!o!o!o#'!s#(#'!r#(#'!s!v!u!r#*#)!v#*#*#*#(!t#B!1 j [ [ [ M !    ",
"  #f#g#b#S#S#X#G!{# #)!s#*!r#(#(#'#'#)#(#'#)#)#(#'#'#'#'#'#(!r#'!r#(!o#$#'!r#(!s#$#@#'!p#(#'#)#'#'#'#'#$#$#(!r#'!p!p#'#'#'!s#(!r!o#(!r#(#'#(#'#(#'#(!r#(#'#(#'#'!r#'#*!u#)#*#)#)#'#*!y#2!}!I!S!R!M!Q!O!O!P!]!_!`!b!e!i!j!c!* i X M ! ! ! / : 4 , / / 0 3 / 0 4 4 / / 0 / 4 / / 0 / 0 4 4 / 4 0 ' K W c f t z { | }!&!%!  ~ u y x w v!7!3!.!0!6!A#)#(#(#'!o#'#(#'#(#(#(!o!o#%#'#(#(!r#(!s!o#'!o#'#'!o!r!o!s!r!o#%#'#$#$!o!s!s!s#(#(#)#'#(#(#(#*#'#(#'#$#%!o#$!o#%#$#$!o!r#'#'#'#'!r!u#*!u#*#*!u#)#(#)#*#*#)!u#B!2 j [ [ [ M !    ",
"  #f#g#`#Q#T#W#<#/#!#)!r#'#(#(#'#)#*#'#*#(#'#'#'#'#'#'!r#(#$#'!r!r#$#'#'#'#'#'#$#(#%!o!r#'#'#(#'#'#(#'#'#%#(#$!p#%#%#'!r!r!o#'#'#*#'#'#(!r#'#'#'!s#(#(#'#(#*#(#(!s!u#*#*#*#)#*#'!w!y!y!z!z!{!{!|!H!I!S!U!M!O!O!P!]!]!_!a!d!f!j!h!c!' f P C 3 4 4 / / 0 : : , / 0 , / 0 4 3 / 0 4 0 4 / 3 4 , / ; 4 I M W f z }!(!(!# } }!!!%!!!  ~ y x w s v!+!.!;!q#(!r!r#'#'#*#'#)#(#'#(#(!r!r!o#(#(!r!o!p#%#(#(#'#'#'#%#(!o!o!o!o#'#(#(#(#'#(#'#'#'#*#'#(#(!r#(#'#'#'#'!o!o#%#'!o#$!r!r!r!s#(!r#)#*#)#)#)#,#*#,#,#*#*#'!D#@!6 k ] [ [ N !    ",
"  #f#g#`#Q#S#V#<#/!m#)#(!r#'!o!r#(#(#(#)#*#'#'#'#'#'#(#$#%#'#'#$#'!o#'#'!o#$#(#'#'#(!r!r#(#(#$#(!p#'!r#'#(#$#'#%#%#%!s#%!o#$#'#'#)#*#'!r!r#'#'#'#*#'#*#(#'!r!r!r#)#*#*#)#,#*!r!x#0!{!|#4#6!I!9!9!9!8!5!H!H!I!S!T!Q!O!O!P!]!_!`!^!c!c!h!Z I ' 4 0 0 0 / 0 4 1 / 0 4 0 0 4 4 4 0 4 0 0 / , 4 / 4 : 4 # ! ! ! L W f t |!(!)!(!! } }!!!! } | u u r v!,!6#'!r#'#'!s#'!s#'#'!r#(#'!s!o#(#(#'#%#(#(#%#$#'#%#(#%!o!o!o!o!o!o#'#*#*#*#(#'#'!r#'#*#(#(#'#'#(#$!r#'#(#'#'#'!p#'#$#'#(!r#'#(#(#)#*#)#)#)#*#)#+#*#*#)#'!u#@!= l ] [ [ N !    ",
"  #f#g#`#P#S#V!~!z!m#)#)#'!r#'!r#(#'!u#)#'#(!r#'#(#%#(#%!r!s!r#$#(!r!o#$!r!o!p#'!r#'!s#'#)#'#'#'!o#(#%#(#(!o#$#$#$!o!o#'#(#'#'#'#'#'!r!r!r#(#'#*#(#(#)#*#(#'#'#'#'#*#*#)#+#*#+#1#4!H#6#8#<!g!`!N ~ u x w v!8!5!H!H!V!R!T!Q!O!O!Z!Z!Z!c i ! C ) , 4 : 0 / 3 3 4 0 4 4 4 / 0 / 0 0 0 0 / / / 4 / 1 / 4 : > 6 ! ! ! $ M W f z }!(!(!! | { z t t h r s!-!?#B#'#(!s!o!s#(#(!s#'#'!r!r#'#(!r!r!r#(#$!o#(#'!o!s!p!o#'!o!s!s#'#)#*#*#)!s#(!s#(#(!s#(#*#(!r#$!o#'#*#(#'#'!p#(#'#(#(!r#'#)#'#'#(#)#)#*#*#+#)#'#'#*#)!r#B!? m ] [ [ N !    ",
"  #f#g#_#P#T#T#;#.#$#*#'#'!o#(!r!r#*#'#(#'!p#%#$#$!p#$#(!r#(#%#(#*!r!r#$!r#$#$#'#(!p!s#(#'#(#'#(#(#(#$#%#(!o#$#'#'!p!o#'!r#'#'#'#'#(#'#'#(!v#)#*#*#'#'#(#)!s#(#)#)#,#)!u#)!s!y#4!I!S!X#<#J#Y!d!N!(!%!! | | u x w!7!8!E!H!I!U!M!N!Z![!h c ! G / 1 : 4 / 0 / 0 0 / 0 0 0 / 0 0 / 0 / - , 3 4 4 0 , 4 / 3 0 0 4 @ > , ! ! ! E O X g z { { t h g g h r q!6#B#)#(!r#(#'#'#(#(#$!u!s#$#$!r!r!r#$#(#'#(#$#$!o!p#%#'#(!r#'!s!r#*#)#*#(!r!r#(#(#(#'#'#'#$#(!s#(#'#'#)#(#'!r#$#'!r#(#'!s#(#'#(#*#*!v#)#)#)#+#*#(#(#)!u#B!? n ] [ [ V !    ",
"  #f#g#^#O#T#T#;#,!o!r!s!o#'!o!r#'#(#(!s#(#'!p#$#%#$#$!r#'#(#'!o!r#'#'!o!s!o!s#'#(!r#'#(#(#(#'#'#'!r!o#'#(!s!o!o!o#(#(!n#(#'#'#'!r#*#'#'#*#'#)!v#'#)#*#)#(#'#*#)#)#*#*!v!u!r#1#7!S!U!d#I!f!j#V!d!N!# } }!$!$ } | u u x!9!8#6!Y!P![!b!c O ! > / / 0 / 1 0 / 0 0 / 0 0 0 / 0 0 0 - / / 2 4 4 , 0 / , , 4 3 , , 3 , 0 : C A + ! ! ! J O W X c c f g t o!1#+#'#(!s#$!o#$#'#(#(!r#(!r!o!r#$#'#'#'#(#(!p!p!o#$#$#'#(!o#'#%!p#(#(#'#(!r!s#'#*#(#'!p#$#%!r!r#*#(!s!s#*#(!u!r#'!r#*#)#)#(#)#*!r#(!u#)!u!v!v#)#*#)#(!u#B!A n ^ [ ] V !    ",
"  #f#g#^#O#T#S#:#,!o#'!r#(#'#'!r#'!r!r#'#(!o#'#(#%#%#%!r#*!s!s!r!r#'#%#(!r#(!r#(!s#'#A#'!p#(#'#(#'#(#(#)!r#'#(!p#'!o#'!r#'#'!r!r!s!s!v#*#*!u!v#*!v#)#)#*#(#'!r#*#*!u#*#*#)!u#3!W!T!Q!d#O f L c h {!$!(!)!# } } }!!!%!!!  ~!V#:!U!a!h!* A 0 , 4 0 / - / / 3 0 / 0 1 3 4 / 0 , / 0 , / / 0 2 ) / 4 , / / , , / 4 , - 0 , , / : C > ' ! ! ! K X f h t v!0!u#*!r#(#'#(!r#%!r#'#'#(#'#'#'#(#(#'#(!s!o!o!o!o#$#'!r#'#(#$#$#(#'!v!r!r!r#'!s#(#A#'!s#'!o#(#@#'#(#(#'#(#'#*#*#)#*#*#)#(#'!s#(!r!r#(!u#)!r!v#(#)!r#)!u#B!F o ^ [ ] V !    ",
"  #f#g#^#O#T#S#:#-!s#'!o!r#(!s#(#)!s!s#'!r#'!r#'#'#'#'#'#(#'!r#'!o!p!o#'#'!r!s#'!o#(#(#(#(#(#'#(#*#*#'#(#'!o#%#(!o#'#(#'#(#(#'#'!s#)#*#)#*#'#'#'!s#)#)#(!r#'#(!s!v!u#B#+#'#.#5!X!M!]!d!i P ! ! ! A O X g z }!)!(!# } }!%!*!b#H#G!f!j i ! G 4 4 / 4 / / / 0 - 0 4 / 0 0 0 4 4 , / - 2 : / - 4 $ / G C 3 / . / 3 / / 1 / , / / 2 , 4 > C ' L f h t t v!0!r!r!r#'!r!o!r#(!o#'#*!r!r#(!r!s#'#(#(!r!o#$#$#$!r!s#(#(#$#%#'#(#'#(#*#'#(#(#(#(#(#(#'!r!r#%!r#(!o#(#(#(#'#(#'#(#*#)#'#'#(#(#'#(!s#*#*#*#(!r#*#(#(#*#)#B!B o _ ] ^ V      ",
"  #f#g#^#O#T#S#:#,!s#(!o!o#'#'#*#'#*#*#(#(!r!r#'#'#$#(#'#'#'#$!r#'#(#(!r!o#'#'#(#$#'#(#(#'#(#(#(!r#(#'#'#(#'#'#'#(#'!r#(#'!r#'#(#'#)#*#*#*#*#'!s!u!v#'#)#)#'#'!s#*#)#+#+#(#0#7!S!M!]!f!* E C C C 4 ! ! ! G O X h {!&!)!)!)!]!i#K!g#Y X ! C 4 4 / 0 / / / 0 0 0 - / / 0 4 0 4 / 4 3 / / 3 4 , : ! ! ! ! > @ : 0 ) ) , , / / , 0 0 / ' : ! W t t z x!7!2#(!r#'#'!r#'#$!r!o#(#(#*#(#'#'#'!o!o!o!r!r#'#'#(#'#(#'#%!r#(#'#'!s#'!v#(!s#'#'#'!p!r#'#'#@#'#*#(#'#'#(#'#'!s#(#'#*!v#)#(!o#'#'!r#'#'#'#'#*#'#)!u#)#)!u#B!F o _ ] ^ V      ",
"  #f#g#^#O#T#S#:!w#$#'!p#'!r!s#'#*#(!r!s#'!r#'#'#'#(#'#*#(#(#(!s!o!s#'#'#(#'#'#(#(#'#'#'#'#(#'#'#(!s#(#(#'#(#'#'#*!r#'!r!r!s#)#'#'#)!v#)#'#(#'!s#)#(!r#)#'#'!r#'!u#*#(#+!r!|!W!T!O!_!i t ! G 4 , , : @ A + ! ! ! K P c t }!]#P#[#O!f M ' > 0 / 0 0 0 0 / / 0 0 0 0 / 3 4 4 - , 3 3 / / 4 > ! {!* g W K ! ! ! % B @ : / , , , , / 3 ' ( ! f { { | s!3!;#B!r#(#'#'#'!r!r#'#'#'#(#$#$#(#'!o#%!r!r#)#'#(!s#(#*#'#(#'#'#)#'#'#'#*#*#)#'#(#*#'#)#*#(#(#(#'#(#'#'#'#'#%#'!r#(#)#'#(!r!p!p!o#'#'!r#'!r#'#*#)#*#)!u!u#*!B o _ ] ^ V      ",
"  #f#g#^#O#T#S#:#+#%!r!p#'#(!r#'#'#'#(!r#'#(!r!r#'#'#'#(#(#(#'!s!r#'#'#(#'#(#(!o#%!o!o#(#@#'#(#(!o#%#'!r#(#(#(#'#*#*#'#(!r#'#(#(#(#(#*#'#(!s#(#)#'#'#'#'#'#'#'#(#*#*#*#'!w#D!V!L!P!a!j c ! @ , 0 / , / 4 4 > C 6 ! ! ! ! M W i![#[!) ! D : / 4 4 0 0 0 0 0 / / / 0 0 0 0 4 / 0 0 4 / / 0 $ L!h#Y#Y!j![ { c P G ! ! ! 4 C A 4 ' ' / : ! J {!! } ~ v!-!?#B#'!r!v#'#(!o!r#*!r#'#*#'!r!o#'!o!r!o!r!s#)#'!r#(#(#'#(#'#)#'#(#'#(#(#*#*#'#'#(#(!r!r#(#@#(#'#(#(!r#(#'#(#'!s#*#'#'#'#'#$!o#(#'#'#(!r!r#'#)#)#)#*#*#)#B!B o _ ] ^ V      ",
"  #f#g#^#O#T#S#:#+!o#(#'#(!s!r#(#'!s!r!o!r#'!r!o!o#(#'#'!r#'#'!r!r#'#(!s!s#'!r!o!p#(#'!o#'#(#'#(!o#%#%#$#$#'#'#'#(#'!s#'#'#'#'#(#*#*!s#(#(!s!r#)#)#)#*!s#)!r#'#*#)#)#)#(!x#6!S!M!O!b!^ M ! / ' , 3 / / / , 2 / / 4 @ C 0 ! ! ! A P O , > 3 3 / / 3 0 0 0 / / / / 0 0 0 / / / 4 0 / 3 3 @ ! X#[#L!g!f!e!i!j!h!Z t X O ! ! ! ! > C : @ ! W!N!(!& y!7!0!F#@!r#'!r#(#(!r#*#'#*!s!r#'#*!r#'#(#'!r!r!r#(#(#'#'!r!r#'#(#(#)#*#(#'#'#(#(#'#'#'#'#)#'#'#'#'#(!p#(#(#'!s!r#(!s#'#'!o#'#'!o!o!o#(#'#(!r!r#'#'#)#)#)#*#)#@!B o _ ] ^ V      ",
"  #f#g#^#O#T#S#:!w!o#(#'#'#'#(#'#(!r#'#'!s!r#'#(#'#'!r#'!r!o!r#'!r!r#(!s!r!o!o!r#'#'#'!r#'#'#$!r#%#%#'#$!o!p#'#'#(!r#'!r#'#(#'#'#'#'!r!s#(#'!s#)#)!s!u#(!u#*!s!s#)#)#)!m!z#7!R!K!N!c { , G @ 4 , / 4 0 / / / , 0 0 0 3 4 4 ? G 4 ! ! : 3 0 4 8 / / , 0 0 / / / 0 / 0 0 / 3 / / 0 0 1 , @ ! g!i#P#H!d!`!_!`!b!e!j!j!c!' g W L ! ! ! $ , i!f!N!) x!3!2#*#*#)#(#'#(!o!r#*#'!r#'#(#'#$#$!o!p#'#(#'!r#'!r#'!r!r#(#'#'#(#*#'#'#(#$#'#'#$#(#(#'#(#(#'#@#(!r#(#'#'#(!s!s#'#(!p#'#'#(#'#(!r!o!o!r#(!s#'#)#)#)#*#'#'!u#(!B o _ ] ^ V      ",
"  #f#g#^#O#T#T#;#+#%!r#'#'#(#'#'#(#'#'!r!r!r!o#'#(!p!r#'#$!r#%!o#'!r#'#'#(#$#(!o#$#'!o#'#$!o#%!r#(#$!r!o!p!r#$#%#'#(#(#(#)#'#(#'!r#(!s#'#'!s#)#(!v!r#)#(#*#)!v#)#*#(#)!o!z#7!R!)!*!c f ! ! ! : G C 3 / / , / / / 4 / 3 0 , / / 4 C > , 0 4 4 4 / 4 0 0 - 0 0 3 0 0 0 / 4 4 0 0 4 0 / , , / t!N!b!~!I!Q!P!P!]!]!_!a!d!h!j!h!c!' f W K !!Z#T!_!J w!-!=#B#)#*#(!r!r#'#'!u!r!s#(!s#*#(#'!s#'!r#'#)#(#'!r!r#(#(#(#$#'#B#'#%#(#(!o!o#%#'#*!r#'#*#(#'!r#'#'#'#(#(#'#(!r#(!o!s!p!r#'!s#'#'#(!s!r#'!s#'#)!u#)#)#(!s!u#@!B o _ ] ^ V      ",
"  #f#g#^#O#S#U#;!w!s#)#(#(#'!s!s!r!r#'#'#'#(#%!s!r!o!r!p#'!r!v!r#$!r#'#(#'#(!s!p#(#(#$#(!p!o!p#'#(!o#'#%#$#$#$#'#(#(#'#'#*#'#(!r#$#'#'#(#'#'!s!u!r#(#)#'#'#)#)#*#)#(#)#$#.#E!R!)!&!Z!' i X O ! ! ! ! : F B / / , / ( ' , 0 4 , / 0 , 1 0 / / 3 / 0 0 0 0 4 4 0 0 0 / / 4 4 0 4 / / / : ! M z { { y!8!H!S!T!Q!O!O!P!]!]!`!b!e!h!i!i!a |!g#W!d!J!7!0!A#(!r!r!o#'!r#'#*#'#*#)#)#*#'#'#(#'#(#(#*#'#'#'#(!r#$#'#'#'#*#'#'#'#(!r!s#$!o#(#'#(#(!r#(!s!s#'#'#'!s#(#(!s!s!o#$#'#(#'#(#(#(#$#(#'!u#(#'#'#(!r#*#)!v#'!r#@!A o _ ^ _ b      ",
"  #f#g#_#O#S#V!~#.!m#*#$!o#'!o#$!o#'#'!r#'#'#(#'!r#'#(!p!r#'!s!r#'#'#(!r#(#(#'!o#(#'#'!o#$#$#$#'#(#(#(!s#$!o!o!o#'!o#$#'#(#'!s!o#'!r#'#'#(#(!r#'!r!o!s!s!r!v#'#*#'#(!v#(!x#5!S!J!&!*!Z!e!h!c!* i X L ! ! ! ! @ F ; / , / , 4 4 , , 0 0 4 4 3 / 3 0 / 0 0 0 4 4 0 / / 3 / 3 0 4 4 / , > ! P i g g f e o!8!H#6!V!R!M!Q!O!P!P!]!_!`!b!g#K#H#H!X!9!8!6!t#*!r!r!r!r#*#(#'#*#'!r#'#'!r#'#(#'#)#*#(#B#(#(!r!o#$#(#*#)#'!p!s#'!r#(#$!r!r!r!r#(#@!s!r#*#)#'#'!o#'!r!r#'#'#'!r#'#'!r#'#(#$#'!o#'#(#'!r!r!s#$!r#(#'#'!r#@!? n _ ^ _ Q      ",
"  #f#g#`#P#S#V#<!z# #'!r!o#$#'#'#'!r!r#B#*!r!r#'!s!r!o#$#(!s#$#%!r#'#(!s!s#*#*#'!o#(!s#%!r!r#'#'#'#$#'!p#'#'!o#'#$!s#(#'!s#(#'!p#'#'!o#'#*#'!s!p#%#(#'!s#(!r#'#(#*#*#)#*!u#3!I!L!J!)!N!]!`!d!f!j!j!^!$ g W L ! ! ! $ F G : / / + , 4 ; / , / 0 4 4 3 0 0 / / / 0 0 0 3 / 0 0 0 / 3 , , ! W c c c f h t x w!9!8!E!H!I!S!U!M!P!O!P!Q!a!Y!~#9#5!E!2!?#@!r!s#'#'#'#*#'#'#(#)!s#(#'#)#(#(#?#'#(#'#'#'#'#(#(#(#'#*#(#'#'!s!s!s!s!o#'!o!r!r!r#'!s!v#*#'#(!r#$#'#'!r!r!o#'#'!r#'!r#'#'#'!o#(#'#'#'!v#(!o!r!r#'#'#(!r#@!> m _ ^ _ U      ",
"  #f#g#`#Q#S#W#<#/#!!r!r!o#'#'#(#(#'!o#(#(#(#@#'#'#'!r#%#(!p#$!r#(!o#(#'#'#*!u#(!o#(#(#'#'#(#(#'#(#'#'!r#(#$!o#%#'!s#'!s#'#'#'!r!r#$#$#'#(#'#(#(!r!r#(!r!r#'#'!r!s#*#)#*#%!z#5!W!R!J!J!K!P!]!_!`!b!e!h!j!h![ { f P G ! ! ! ' @ : : / 3 4 , / 0 0 0 0 0 4 0 0 0 0 / / , 4 : 0 0 / 4 4 ! E X X c f h z | } | ~ u x w!8!8!E!H!I!S!T!M!T!R!I#4#0!?!>!D!s!r#'!s#(#(#'#(#'!r!r#'#'#B#(#(#'#(#(#(#'#'!v!r#'#B#*#*#(#(!r#(!r#$!s#'#'#(#(#(#(#(!s#$#(#*#'#(#'#$#$!o#'#'!p#'!o#'#'#'#'!o!o#'!r#'#'!s!r!p!r!r#(#'#'#'!q#@!< m _ ^ _ U      ",
"  #f#g#`#Q#S#X#G#/!l!r!r#'#'!s#'#'#(#'#'#(#'#(#(#'#(!o!o#%!o#$!r#(#'#(#'#*#(#(#(#$!s!o!r#$#(#(#'#(!s!r#'#(#'#(#(#'!p#%#'#'#'!o#'#*#(#'#*#'!r#'#'!r!o#'#'!r!v!r#'#)#)#*!r!u#%#/#D#8!V!S!T!L!M!O!O!P!]!_!`!b!e!h!j!e!Z z X O # ! ! : / / 0 , 0 - / 0 0 / / / / 4 0 / / 0 4 0 0 / 0 / : / E P X f t { | | } }!!!! } | u u x v!8!8!H!H!H!H!H!{#,!C!C!p!o!r#'!r#'#'#(!r!r!o#(#(!s#(#(#(#'#'#(#(!s!s#'#)#)#(#'#'#*#'#'!o#'#'#(#*#'!r!r#'#(!s#'#(#*#'#)#'#'!r!o#'#'#'!o!r!o#$!s#'#(!r!r#$#'#(#'#'#'!o!o#(!o!r#'!r!r#@!6 l _ ^ _ U      ",
"  #f#g#b#S#R#X#G#2# #'#(#'#'!s#'#'!s!r#'#'#'!r!p!r#(!o#%#$#$#$#(#'#'#(#(#)#)#(#(!r#(#(!r#'#'#'#'#(#'#(#(#'#'#*#(#(!o#%!o#'#'#'#(#'#'#(#'#'!r!s!r!r#)#'#(!r#'#'#*#*#(#)!u!r#*#'!y#C#5#7!W!V!S!R!T!M!M!O!P!]!]!_!`!b!e!j!h!c!' g M / : / / 4 0 0 / 0 0 3 / / 0 0 0 / 0 / 0 0 4 / , , 4 > , ! A L W f z }!(!(!! } } }!!!! } | u x s v!3!1!<!A!D!r!s!s!r!r!r#'#'#$!o!o#(!r#(!r!p#(!r!p#(#@#(!r!r!r#)#*#*#'#(#'#(#'#(!o!r#'#'#(#(#(!u#'#'#'#(!s#)#'#(#(!p#(#(#'#'#'#'#(#$#$#(!r#$#'!r!r!s#'#$#'!r#'#'!s!s#'!r#(!D#@!2 l _ _ _ N      ",
"  #g#g#b#U#R#X#H!|!l!u#(#(#'#)#(#(!s!r#'!s#(!s#'!r#(#$!o!o!p#%#$#'!r!r#'#'#'!v!s!o#(#(#'#(#(!s#'#'!r#(!s#'#'#(#(#(!s#'#%!o!r#'#'#*#)!s#'!r!r!p!o!r#'#(#(#*#*#*#*#*!s!r#'!r#*#+#'!u!x#0!|#D#6#8!W!X!S!R!T!M!M!O!P!]!_![![![!c!c M ! > , 3 0 4 0 / / / 0 4 / / 0 / 0 0 / / 0 / 0 / 0 4 : 4 / ' ! ! ! J O X h {!&!)!(!! } } } | { z t r r!+!1!B#%#'#'#%!o#$#(!o!o!s!o#'!o#%#'!o#%#'!o#'!s#'#*#'#'#(#(#(#(#(#'#'#'#'#(!s#$#'!p#(#(#(#)#(#'#(#(#'#'#(#'#'#'#(#@#)!s#'!o#%!r!r#$#'#$!r#'#(#*#$!o!r#(#(#'#$#'!p#'!D#@!1 k _ _ ` N      ",
"  #g#g#d#X#Q#W#=#3# #*#(#(#(#(!r#'!s#'#'#'#'!s#$#$#%!o#$#(!o!s#(#?#'#(#'#'#'!s#'#%#)#'#*#'#'!o#(#'!s#(#'#(#(#(#$#%!s#(#(!o#%!o#(#(#*#*#'!r!r#'#'!s!o#(#A#*#*#*#*!r!v!r#*#)#)#*#,#,#*!o!o!w#.#1#3#5#E#9!W!X!S!R!T!M!O!N!Z!Z!c!' # : ) , / 0 / : 4 / 3 ) 0 / , 0 0 0 0 / 3 / / / : 4 / 0 4 0 ' 4 C C ' ! ! ! K P c i |!(!( } { z t i h h r!,!<#@!r!s!o#'#(!p!o!o#(!r#$#'!s#%!o#$#'!r#'!s#'#)#*#'#(#'#(!r#'#'!r#(#(#'!p#'#(#(#(#*#)#(#(#)!s#(#(#'#(#(#(!s!r#(#)#)#'!r#%#$!r#(#$!r#'!r#(#)!r!o!r#(!u#'#(#'#'!s!o#B!/ k _ _ _ I      ",
"  #g#g#f#Y#P#V#K#D!l#*#'#*#'!r!r#%!r#$#'#(#'#'!r#(#(#(#(!o#'#(#(!o#'#'#)#(#'!s#'#*#)#'#'#*!r!s#(#'!r#*#(#'#(#(#'#(!o#%#$#'#'#(#'!r#(#)#(!s#(#'#(!s!r#'#*#(!v#'#)#(#(#*#*!u!v!v#)#+#+#*!u!r#'#$!r!x!z#2#3#5#7#9!X!Y!T!N!Z![!h g ! G ' / 0 0 0 0 0 / / 3 4 0 0 / 0 0 0 4 4 3 0 3 : / / , , / / 4 4 : 0 5 @ > ! ! ! ! L W c i t i g f f g r p!1#*!r#$#(!p!o!o!s#%!o!r!r#$!o!r#'!r!r!r!o#'#*#(#*#*#'#(#'!o!p#$#(#(#)#'#'!s!u#'#(#(#(#'#*#'#'#@#'!s!s!r#'#(#'#'#'#B#)!s#$!o!r#(#)#(#'#(#(#'#(#(#(#'!u#(#'!r!o!r!r#@!. j _ _ _ F      ",
"  #g#g#g#Z#P#V#L#6#!#*!r!s#'!o!r#'#)#'#'!r#(!r#$#'#(#(#(#$!o!r!s#(#%#(#'#*#(!r!s#)#'!u#)#*#*#'#'#(#(#'#(#%#(#'#(#'#$!o#$#'#(#(!r!r!r#'#)#)#*#(!s#'!o#'!r#'#(!s#(#*#(#*!v!r!r#*#*#)#*#*#)#'#)#)#)#'!o#$!u!x#/!|#6#;!Y!M!]!b!h W ! C , 4 3 0 4 / : 0 0 0 / 0 0 0 0 / 3 4 4 / 0 , 4 0 / ' ' / : 4 0 - ) ' 0 4 4 > > 3 ! ! ! 4 M P W c d g h s!/!t#'!o#'!o#'#(!o!o#'#'#%!s#%!s#'!o!o#'#'#(!r#'#'#)#)#*#'#'#(#(#(#(#(!r!s#'#'!r#(!o#'#'#)#'#)!r#)#)#)!r#)#)#(#(#'#*#'#'#'#(#(#'#(#(#'#'#'#*#'!r#)#)!r#*#(#*!o!o#'#@!, j _ ` ^        ",
"  #g#f#g#[#O#U#N#8#!#(#'#'!r#$#'#'!r#(#'!r!o#'!o#'#'#'!s#(#'#'!o#'!r#'#(!p!r!r#(#(#)#(!p#(#'!s#(#'!s#$#'#(#'#(!s#%#$!o#'#'#(!r!r!o#'#'#(#(#(#(!r#'#(#'!r!r!r#(#(#*#'!s!s#'#*#,#)!r!u#*#*!u!r!r#)#*!u!u!v!s!p!o!|#9!S!M!_!e![ K ! : 4 4 4 0 / 3 0 0 / 0 0 / 0 / / 3 , 0 / 4 2 / / 0 > > 3 4 / : / , , , 0 0 2 , , 0 > C C , ! ! ! X f h t s!/!C#(!r#'#'#'!o!r!p#'!o#'#'!r#(!o!p!o#'!r!o!r!s#*#'#)!r#(#(#'#'#'#'#(#(#*#(#'!r!s#'!r#(#(#*#'#'#'!r!r#*!r#'#*!u#)#*#*#)#)#(#)#'#'#'#(#(#)#'#*#*#(#(#'#'!r!r#(#'!r!r!+ a _ ` ]        ",
"  #g#f#g#]#N#T#S#:#,#%#(#$!s#'#(!v#(#'!r!s!r!r#'#'!p!s#'!o!o!r#(#$#'#'!o!r#'#'#'!r#'#(!s#(#(#(#(!r#(#'!p#'!o#$!o!o#(#(#'!p#%!s#(#'#(#'#'#'#'!r#(#)#*#'!r!o!o#'#'!r#'!r!r#(#)#)#)!s!s#*#*#)!r!r#)#)#*#)#)!v#)!o#C#9!R!O!_!i z ! > 4 4 / 3 ) / - 0 0 0 0 0 / / / 3 0 : , 0 / : , ' / ! ! ! G G @ / ' , , / / , , / , 2 / , 4 > / L f h t t v!/!D#%#$!r!r#'#(!o!r#'#(#'!o!o!o!o!o#'!s!o#'#'#*#'#'!r#'#'#(#(!o!p#(#(!s#'#(#(#(#(#'#(#'#$#'#'#(#(#(#)#(#(#)#)#)#'#*#)#*#(#(#(#(#)#(!s!s#(#'#'#*!v#'#'#%#(#*!r!o#(!B q a _ ` ]        ",
"    #f#g#_#O#S#V!~!y#!#'!o!p!r#(!s#'#'!r#'!r#'#'#'#(#$#(#'#(!r#(#'!o#'#%#'#'#'#(#(#(#(#(#(!s!o#(#'#)#'#(#(#$#$#$#'#'!r#'#(!r#'#'#'#'#'#(!r#(#'#(#'#'!s#'#)#'#*#(!p#(!r#'#*!r#'#)!s#)#*#(#)!u#'#'!r#'!v!u#*!r!u#4!V!T!P!a!j c ! D 0 4 4 / 3 / / 0 0 0 / 0 0 3 / / / 0 0 0 / 0 4 4 ' P X J ! ! ! ' @ C : / / / , / / / , ' , A ! P t z { u!7!1#'!o!o#(!s#'#'!r#'#$!s#$!o#$#$!r#'!s!o#'#$#'#*!r#(#'#'#(#'#'#'#$#(!r#$!o#'!o#$#'#'#(#'!r!p#(#'!r#(!s#(#'#)#)#'#'#)#*#?#*#*#'#)#'#(#'#(#'#'#)#)#(!u!r!o#'#(!s!r#@!> o a ` a Z        ",
"    #f#g#`#P#R#X#G#0!l!r#'#'#'#'#(!s#'!r!r#'#'#(!p#(!s!s#(!s!r#(!s!r!o!o!o#'#'#'!r#(#'!s#'#%!r#(#(#(#*#'#'!r#'#(#(!r!o#(#'#(#$#$#'#(#(#'!r#(#(#*#(#(#(#*#(!r#(!r!r#*#'#)#'!r!r!r#'#*#'!r#'#'#'#'#'#(!r!r#)#$!y#6!X!M!]!d!e P ! > 4 / 4 3 / 4 / 4 0 / 0 0 0 4 0 / / , 0 0 3 0 / @ !!&#[!^ { c O ' ! ! ! : C @ / / / / , , / C ! f | { | x!3!;#@!o!o#'#(#'!r#'!r#'!r#'#'!s#(#(#'!s!r#$!r#(#(#'#(#'#'#'#$!r#'#'#(!o#'!r!o!o#(#'!r!r#(#(!r#(#(#(!s#(#(#*#(#(#*#)#*#(#)#*#*#'#(#(#(!r#(!r#(#(!v#(!r#'!r#'#'#(!r#@!< n ` ` a V        ",
"    #f#g#b#S#R#X#I!|# #*!r#'#(#@#(#(!s#(#$#'#'#(!r#(#(#(#(!r#(#'!r!o!o!o!o#(#'#(!s#'#'#'#(#'#(#(#(#'#)#'!r#(#'#'!s!s#'#'#(#'#'#(#(#'!o!s#'#'!s#(!r!s#(#'#'#'#'#'!u#*#)#(#'!r!r!r#'#)#)!r#'#*#'#'#*!r#)!u!u!o#0#8!S!M!]!f!* E / 4 , / , 4 / / 0 0 0 0 0 0 / 0 0 0 0 / / / 4 , 4 ! K!e#R#N!i!j!e!* i X M ! ! ! ! > C < 4 / / ' C z!(!$ ~ w!-!>#@!r#'#'!r#'!s#(#'#'#(#'#(#'#'#'#$!p!r#$#(!s#'#(#'#)#(#%#$#'#(!r#$#$!r#'#$#'#'!r!r#'!o#'#*#(#(#'#'#*#*#'#*#*#(#'#(#(#)#*#*#'#(#'#(#(!s#(#(#'!v!r#'#(#'#'#'#(!D#@!2 m ` ` a U        ",
"    #g#g#d#X#Q#W#J#4# #,#*#(#'#(#*!s#'#'#*#(!s#(!r#(#(#(!s!s#'!r!o#$!o#$#$#'#'#(!r!s!o#'#(#(#(#(#(!r#'#(#*#'#(#'#(!s#'#'#(#)#'!r#'#(!r#(#'#'#'#$!r#(#(#'#*#'!u#(#A#)#)#)#(!r!r!r#(#'#)#*#'#(!r!u#'#)!u#'#*!o!|!W!T!O!`!i i ! D 0 3 / , 0 0 / 0 4 / / / / / / 0 0 0 0 / / 4 2 C ! W#V#S#I!f!a!d!f!i!j!c!' h W L ! ! ! $ D I ' P!^!)!( y v!/!A#@#'!r!r!r!r#'#*#'!v#'#'#'#'#*#'#(#(!r#%#(#'!s#'!r#'#$#%!r#(#'#'#$#$#%!r#$!r#'#(#(#$!r!r#(#'#(!r!r!u#)#(#)#'!r#'#'#(#@#(#'#*#(#(#(#'!r!o#(#(#(#'#'!r!r#(#'!r!q#@!0 l ` a a M        ",
"    #g#g#g#Y#P#U#L#6# #*#)#(#'!r#'!s#)#'#'#'#(!o#(#(#'!r#'#(!s#'!r!o#$#$#%#$!o!r#'!r#(#$!s#(#(#(#(#(#(#(#(#)#'#'#'!s#'!s!r#)#'#)#*#(!r#(!r#'#'!o!r#(#(#'#'#(#*#)#)#'#)#(#'!r!r!r!s#'!r#*!u#'#)#'#'#'!u#)!r!w#D!V!L!P!a!j X ! D / / , / / / 0 / 3 / 0 , 0 0 0 0 / / 4 3 / / 4 G ! f!e!i#H!Y!`!]!_!_!a!d!h!j!h![ { f P G ! ! ! g#S!N!) x!3!1!r#%#(!r#'!r#'!r#(!v!r#)#*#'#'#'#*#'!s#$!r#%#(#'#'#'#(#$#'!r!o!p!o!o!s!r!o!p!r!r!r#(#'#(#'!o#'!r#(#'#'#'#'#'#(#'#)#'#(#'#(#'#*!r#(#(#(#'!r#(!r!s#'#(#*#(#(!r!r!r#@!- k ` a a          ",
"    #g#f#g#[#O#T#Q#9#(!r#'#'!s!r!r!s#'#'#'#'!r!r#$#(!s#'#'#'!s!r#(!r!r!o!o#%!s#(#$#'#'!s!s#(#(#(#'#$#(#'#(#(!r!r#)#(!s!p#(#'#'#(#'#(#'#'#'#'#'#'#%#'!r!r!o#(#'#'#'!r!u!r#(#'!r#*#)!r!s#)#)!u!u!u#)!r#*!v#$!z#E!S!M!]!d!c M ! ; 0 3 0 - 4 0 0 / 0 4 3 0 / 0 4 4 4 0 4 / , 4 0 : / z!O!b#G!I!T!M!O!O!P!]!_!`!b!e!h!j!h!Z z c O!*#Z!d!J w!-!<#@!o#$#'#'!r#'!r!r!s#'#'#*!r#)#'!r#(!s#$#'!r!r#'#'#(#$!o#$#(#$!o!o!o!s#'!p!o!r!p#'!o#(#(#*#'#'#'#'#'#(#*!r#'#(#(#*#(#'#(#(!r#'!s!s#'!r!s!r#(#'!s!r#*#)#(#'!r!r#(!D!+ j a j _          ",
"    #g#f#g#]#O#S#V!~!y!m#(!r!r#'#'!o#'#*#'#$!o#'#$!s!p#'!r#'#'!s!s#'!o!o!o#'#(!s#$!o#'!p#(#'#'#*!o#@#(#'!r#(#(#*#'#(!s!o#'!r!s!r#'!r#'#'#'#(#(#'!r#'!r!r!o#'#'#)#'#'!s!r#(#'!r#*#'#*#*!v#)#*!u!r!r!u#)#)!o#1#8!R!O!_!h!' ! @ / 3 / / 4 0 0 / 0 3 - / 1 0 0 / / 0 0 0 / / 4 > ! M!$!)!N!R#4#6!X!R!T!L!M!O!O!]!]!_!`!b!e!i#P!g!g#M!g!R!9!/!A#@!o#'#'#(#'!r#(#'!s!r#)#(#(#*#'!o#'#(!r!r!s!o#(#%#(!r!o#$#$#$#$!o!o#%#$#%#'#(!o!o!r#'#*#'#'#(#$#'#'#(#'#'#'#'#'#(#(#'#(#(!r#)#(!r#'#(#(#'!r#*#'#'#'#'#)!u!r!r#@!A p j a j ]          ",
"      #f#g#`#P#R#X#G!{# #(#(!r#%#(#$#'#'#$#'!r#'!o!o#$#'!r!o#'!o#(!s!o!p#$#(#(#$!s!s#'#(#'!p#(#'!p#'!p#(#'#'!s!s!r#(!r#'#'!r#%#'#(#'!s!s#'#'#(#(!o!o!o#'#(#(#@#'#'#(#(!s!r!r#'#*#(!r#'#*#'!u!u#)#)!r#)#)!u#3!W!T!P!`!j g ! G 4 / 0 0 / / / 4 4 / / 4 / 0 0 / 3 / 4 , 3 0 , B ! X!)!%!) y!8#.#5#8!W!X!S!R!T!M!M!O!P!]!]!`!a#I#G#<#:!H!8!2!C#%!o!r#'!s!r#'#$!r#$!s#(#)#)!r!o#$#'#'!r!r!o#'#'!r!o#(#(#(#'#'#$#$!o#'!r#'#(#%#%!o!s#'#(#'#'#'#'!o#'#'!p#%#'#(#*#'#(!s#(!r#'#'#'#'!r#(#(!r!r!r#'#'#'#'!r!r#'!u#B!< n a a j Y          ",
"      #g#g#b#T#Q#W#J#3!l!u!s!r!r!s#(!o!r!r!r#'!o!o!o!o#'#'#'#(!s!r#(#(!p#(!o#$#%!r#(#(#'!s!s#(!r#(#'!o#(#'#(#(!r!s!s!s#'#'#$!r!o#(#'#%#(!r#(#'#(#'#(#(#'!s#'#*#'#'#'#(#'!r#'#'!s!s!r!s!u#'!u!u!r#(#'#*!r!x#5!X!M!]!b!h W ! @ / 0 / / 4 0 , / 4 / 1 4 0 4 3 / / / / / 4 , / : ! g!)!!!  x!4!>#.!{#3#D#E#8!W!X!S!R!T!M!M!O!M!U!X#7#4!E!6!>#%#$#(!o#(#'#(#'!o!r#(!p#'#'#'!r#(!r!r!r#'#'#(#'#(!r!o#%#(#'#$#'#$#(#'#$#$!o#%!o!o#%#(#'#'#'!p!o#(#(#'#$#(#(#(#'#*#@#'#(#'#'#'!u!r#'#'!s#(#*!r!r#(#(!o#'#(#'!r!u#@!1 m a j j U          ",
"      #g#g#f#Y#P#V#L#6# !r#(#$#$#(!s!r#(#(#'#'#'#$!r#(#(#(#(!r#(#'#%#$!o#$#$!s#$!r#(#(#'#(#(#'!r#'#(#'#'!o#'!r#)#'#'#)!p!r#(#(#$#$!r#(#$#'!o!o#'#'#'#'!r!r#'#'#(#'!o#'!o#'#'!r!r#(!v#'#(!r#'!q#)!v#'!u!o#0#7!S!M!]!e!Z J # 4 / 0 4 , 0 0 0 / / 4 2 0 4 0 1 / 3 3 / 3 / / / ' J {!(!% ~ w!-!?#@!o!r!w!z#1#3#5#E#9!V!X!S!R!R!S!I!H#0!F!A!D#'!r#%#'!o#'#'!r#'#$!o!p#(#'#'#(#(!p!o#(!p#'#(!r!r!r#'#'#(#'!o#'#'!o#'#$#%#%#$!o!o#(#$#'#(#'#'#'#%#$#(#(#'#'#'#)#'#'#'#*#(!s#*#'!s!r#'#(#(#'#'#*#'!o#*#'#'#'#'!r#@!. l a j j            ",
"      #g#f#g#[#O#T#S#:#(#(!r#'#%#%#'#'#)#*#'#'!r#'#$#(#'!r!r#(!r#(!r!o#$#$!o#'#$!s#'!o#(#'#(#'#(#'#(!p!r!r#'#'#'#'!v#'!s#'!o#$#$#$#'!s!r#$#%#(#'#(!r!r#'#(#(#(!r#'!u#$!s#(#*!r!r#*#(#'!s!r!s!r!u!r!r!u!o#C!W!U!O!`!i z ! ? 0 4 4 3 / 0 / / 3 / 4 : 0 4 0 , 4 / / / / - / > ! P!&!!!% y v!/!F#*!u#)!r!o!o!r!x!z#2#4#5#E#8!I#6!H!|#.!u!r#'!r!s!r#$!o!o#$#$!o!o!o!o#(#$!o!p!o#%!o!o#%!o!r#'!o!r#'#(#'!r#(!r#'#'#'#(!o#%#(!p#$#$#'#'#(#'#'#'#(#'#$#'#(#(!r#(#'!r#(#*!r#'#'#(#'#(!u!s#)#(#)#*#'!s#(#'#'!s#'#(!D!+ k j k e            ",
"      #g#f#g#^#O#S#W#<!z!l#)#$#$#'#'#'#(#'#(#*#'!s#(!o!s!r!r#(!v#'!p#'!o!o#%#%#%#(#'#$#(#(#'!p!o#(!r!o!s!s#'#(#(#)#(#'#)#(!r!o!o#(#(#'#$!o!p#(#$!r#(#$#$#(!r#'#'#(!v!r#(!r#(!r!r!r!s!v#'#(#(#)!r!r!u#(!w#D!V!L!P!a!j c ! G 4 / 4 / , 4 4 0 0 0 3 4 0 / 4 / 0 3 / 3 0 , / @ ! c!) }!! x!7!1!u#*!v!r!r!v!u#)!r!o!m!r!x#/#1#1#1#0#.!w#'!r!r!o#'!r!o#%!o#$#$#(#$#%#$#$!o!o!p#%#$!o!p!o#'#%#(#'#(#'#$#(#'#'!r#'#'#(#%#'#(#(#$!o#$!s#(#(!r!p#$!r#%#'#'#'#'!r#(#(!r!s#(#'#(!s!s#'!s!u#*#)#'#'#'#'!v#(#'#'!r!r#@!? p j j k ^            ",
"        #f#g#a#Q#R#X#I!|# !u#$#'!s!s#'#(#*!u!r#'#(#'#'#)#(#'!r#'#'!o!r#$!o!p!o#$!o#%#(#'#(#'!s#'#*!s#'#'!r#'#'!s#(#'#(#'!r#'#$#(#$#$!o#$!o!o#$!o!r#(#'!o#'#(#'#(#'#(#(!r!r#'!r!s#'#'#*#)!s#'#(!v!r!u#%#.#6!S!M!]!d!e O ! > / / / 0 0 , 3 4 3 4 : 0 4 : 0 / 0 4 0 3 4 , / 0 ! i!)!! ~ w!3!=#B!r!r!v!r!r#(#*#)!u#*!r!o!o!m!o!r#'!o!o#(#(#'#'!o#'!o!o!p#$#$!s!o#(#%!o#(!p!o#$!o#(!r#(#(#(!o!o#'#$#$#(#(#%#'#(#'#(#'#(!s#$#$!s#$!r#$#'!r!o#'#'!o#'!s#(#'!p!p!r!s#$#'#'!r!s!s#*#(#)#)!r#*#)#'!r#'!r#*#(#'!r#@!6 n j j k V            ",
"        #g#g#d#X#R#V#K#5# #(!r#%!o#(#)#)#*#'#'!r#(!s#'#'!v!r#'!p#'#$#(!r!o!p#$#$#'#(#$#'!o#(#(#(#'#*!v!r#(#'#'!s!r#(!r!p!o#%#$!r#(#%!o!o!o!o#$#'#$#'#$!p#%#?#(!s#(!r!s#%!s!r#'!r!r!r#(!r#*!s#'!r#)#)!m!{#8!R!O!_!f!* 4 / / , 2 3 0 0 0 0 0 4 3 / / / 3 4 0 0 / 0 / / , 4 ! L {!#!% ~ v!.!A#B!r!r!r!r!r#'#'#*#(!u#(#*!r#(#)!v#'!r!r!r!r#'#(!r#(!r!s#'#$#$#$#%#(#$#%#(#(#(#(!p!o#'#'!s!r!p#(!o#'#$#%#'!o!r#(#(!o#(#$!o#'!r#(#%#(#$!p#'#(#'#$#'#%!r#(!p#'#'!o#'#$#(!o!s#%!r#(#'!r#*#)#(#'#)#)#'#)!r#(#'!r#@!/ l j k k              ",
"        #g#g#g#[#P#T#R#9#$!r!r!o!s#'#'#$#'#'#'#'#'!s!r!r#'#'#(#$!p!o!o#$!m!o!o#(#(#%#(#(#(#%#(!s#(#'!r#*#(#(!r!o!o#$#(!o!o#%#%#$!o!o!o!o!o!o#$!o#'#(#$!p!o!o#'#(#'#'#(#(!r!r!s!r#'!s#(#(#(!r#'!r!r!r!o#3!W!T!O!`!j i ! F 4 / 0 0 0 0 / 0 / / 3 3 / 0 / / 0 4 / ) / / 4 @ ! W!(!!!% y!7!0!C#(!r!q!r#'!r!u#'!r#'#'!s!r#(#)!r#*!r!r!r!s!r#'#'#'#$#$!s!o#$#(#%!p#%#%!s#$!s#$!s!s#'#'#'#$!o#'#'!r!p#'#$#'#'#%#$#'!p#%#$!o!p#(#'#%!p!r#$#$#(!o!o#%#%!s#(#$#(#'#%#(#$!r#(!s#'#'!r!r#*!s#)!r#'#'#*!r#)#'#'#(#(!q!, k j k j              ",
"        #g#f#g#^#O#S#W#<!z#!#'!o#'!o#$#$#'!o#'#'!r#'!s#'!s!u#(#'#(#%#(!o#$!o#$#$!o#'!p#'!o#(#$#'#*#(#(#(#'!o!s!o#(#$#$#$#$#$#$#%!n!o!o!p!o!o#(#$#%#'!s#'#(!r#'!s#'!r#'!r!o!r!r!s#)#*#'#(#(!s#'!r#*!p!w#5!X!L!P!b!h W ! F 2 / 4 0 / / / 4 0 3 3 / , 4 0 0 4 / 0 , / / 4 @ ! f!) }!  x!3!6#*!r!r#'!r#'!r#(#'#'!r#(#'#'!r#*!u!r!r#'#(!r!r!r#(!o#'!o#(#$#%#%#$#%#(#'#%#(#(#%#$#(#(#(#%#$!p#$!o#%#(#$#$#'#(#(#'!p#(#(#(#(#'#'#$!r!r#%#(!o!o#$#'#'#'!s#(#$!o#'!r#$#'!r!s#(!r#'#'#'#'#'#*#(#'#'!v!r!r#(#(#'#@!A q k j k e              ",
"          #f#g#a#Q#R#X#I!|# !u!r#$#$#(!r!o!o#(!r#'!s#(#(#(!r#'#(#$!o#%#$#$#$#%#$#$!o!o!r#$#$!r!r!v!r!s#(!r!o!s!o!s!o!o#'#'#$#'!o!o!o!m!o#$#$!o#$!s!r#(#(!r#'!r!r#%!p#(!r!o!s!p!o#(!r#)#'#*#'!r!v#*#$#/#E!S!M!]!e!c L ! > 4 / 0 / / / , 4 0 / / 0 / 4 4 , - 3 / / 3 / / / B z!(!% ~ w!-!<#@!r!v!r!r#'!r!s#'#)#)#)#)#(!r#'#*!r!r!r!r#'!p!o!r#'#(!o#'#%#(#'#%#$#(#(#%#%!p#%#'#%#$!o#%#$!o#$!o#$#$#$#'!o!o!p!o#'!r#(#(#(#'#'#$!o!o#(#'#$#$#'#$#'#'#(#(#(#%#%!r#'#(#'!r#'!r#*#)#'!r#(#)#'#'#'#(#'#'!v#(!q#@!6 n j k l b              ",
"          #g#g#d#X#Q#U#L#6!l#'#$!o!o!o!o!o!o#(#'#'#'!s#'#*#'!r#(!o#'!o#%!p#!#'#'#%#%#$!r#%!r!r#'#'!s!s!r#(!o#(#(#$#%!o!r!o#$!r!p!o!o!o#'!r#'!o#'!s!o#'!o!r#'#'!o!r#'!o#(#(#(#'!r#(!r#(#'#'!r#*#'#*#$#2#9!R!O!_!h!' $ 6 / / 0 0 3 4 4 0 4 0 / , 0 4 4 3 4 0 3 4 0 4 , : ! O!$!!!% y v!/!A#@!r#(!r#'#'!o!r!o#'#'#)#*#(!r!r!r!u#'#'!r!r!p#(!r#'#$#$!o!s!s!o#$#(!o!s#%#'!r#%!o#'#'#%!o#!!o#$#$#$#(#(#'#$!p!s!p#'#(#'#(!o!o!r!o#$!o!o!o#$#$#$!o!n!o#$#$#$#$#(!o!r#'#'!o!r!r#'#'!r!s#'#*#'#'!r#'#(#'#*#'!r#@!/ m k l l                ",
"          #g#f#g#[#O#S#U#;!w#%#'!o#'!o!r!s!r#(!r#'#'!v#'#'#'#'!o#$!o#'!r!p!p#$#(#$#%!o!o#(!o!r#'#'#(!r!r#'!r#(#%#(!r!r!o!o#$!o!o!o#$#$!r!o!o#'!s!o#$#'!s#'!r!r#'#'!r!o!o#$#'#%#(!r#'#$#$!r!r#*#)#*!u#4!W!T!P!`!j f ! G / , 4 0 4 4 4 0 3 0 4 0 0 4 4 3 4 , / 4 / 0 4 @ ! X!) }!% y!7!1!D#(!r#'#'#)#'#'#'!r!r#(#(#*!s!r!r!s!r!r#'!r!s!r#'#%#(!o!s!p!o!r#(#(#(!r#(#(#(#'!p!r#$#$#$!o#$#'#(#%#(#>#(#(#%#(#(#%#(#(#'#(!o#'#(#%#'!s#%!o#$#$#(#(!o!o#$#'#'#'!o#'#'!o#(#$#'#'#(#(#'#(#'#'#'#'!r!r#'#(#)!r#@!C!, l k l k                ",
"          #g#f#g#_#O#S#X#G#1!l#)#'!o!r#'#'#'!r!r#'#'#'!r!r!r!r#'!r!o!o!r#%!o#%!s#$#$#%!o!o!o!o#(!s#%#'!r#'!p!o#%#$!r#'#%!o!o!o!o#'!p#'#$#$!r#'#'!r#(#(!v!u#(!r#'#'#'#(!o!o#'#'#'#(!r#$#'!r#(#*#)!o!x#6!X!M!]!b!h P ! D 0 - / 0 0 0 4 0 4 0 0 0 0 - 4 0 4 , / / / / 4 > ! g!)!!!  x!3!;#@#'!r#'!r#'#'#(#(!r!r!r#'!r!r#'!r#%!o#'#'#'#'!o!o#$#'#(!s#$#%#(#(!r#'#'!o#(#(#'#$#$!o#$!o#$#$#$#$#'#'!o#%#'!o#'#'#'#'#(#$!r!s#(#%!o!r#%#%#(!r!r#'#'#(!p#'#$!o!o#(#(#'!r!s#'#(!s#'#'#'!s#*#'!r!r#(#'!r!s#'!r#@!< p l l m e                ",
"            #g#g#c#T#R#V#K#5# #)#'#'#(#'#'#(!o#(#*#(#'!r#'!r!o#(!o!r!o#(#$#$#$#'!s!r#%!o#$!o#(#'!s!o#$#$#'#'#(#'!o#'#%!p#'!o!p#'#'#'#(#(#$!s!p#(#)!r!s#'!r!u#'#(!r!r#$#'!o!r#'#'#(!s!r!s#'#(#*#)#%#0#7!S!M!]!e!Z I # 5 4 0 1 0 0 / 0 0 / 0 0 / - 0 , / 3 / / / / / 4 ' K {!#!% ~ w!-!?#@!r!o#$#'#(#'!r#(!v!v#'#'!r!o!r!r!r!r!o#'#(!r!r#'!o!o!p#$#(#(#'#'!o!o#(!r#(!p#'#%#$!o!o!o#'#(#%#$#(#(!o#$#$#(#'#(#(#(#'!r#$!s#(!o!o#(#'#'#(!s#(!r#'#(#(#$!o#'#'#(#'#'#'#'#(!r#'#(#)#'!r!r!r!r#(#$!r!r!o#(!r#>!1 n l m n                  ",
"            #g#g#g#Z#P#T#S#:!r#$!r#$#'!r#(!o!r#)#'#(#*#'!s#'!r!o#(#(!o#$#$!o#$#%!o!s#'#$!p!o#$#$!o#$!r#(#(!s#)#'!o!o!p#'#(#(!o#'#(#(#'!o!s!o#'#(!s!r!s#'#(#'#*!r!o!o#'!o#(!r!s#'#'#'#'#(#(#'#'#*#'!|!W!R!O!`!i z ! @ / 4 0 , , 0 8 / 3 : 4 / 0 4 / / / 4 4 3 3 / ( : ! P!(!!!% y v!/!F#@!o#'#$!s#'!r#(#'#'#'!r!r#(#$#%#(!o!o!o#'!r!r#'#(!o!D!o#%!r#(#'!o#(#(!r!s#$#'#(!s#'#$!s!o#(#'#'#'#(#(!p!o#$#(!s#(#(!s#(!o!o!r!s#(#(!r#%!p#(#?#(#(#(#'#'#'#'!r#'#'#(#(!p#(!r#(#(!s#'#'#'#'#'!s!r!r#(#'!o!o#(!C!, m l m m                  ",
"            #g#f#g#^#O#S#X#G!{!l#*!p#(#(#'!r#(#'#(!v#*#'#*#*#(!o#$!p#$!o!p!r#(!o#'#%#(#$#$#%!s#(!o#%!s!r#'!s!o#(#(!o!o!o#'#'#'#'#'!o!r#'#'#'#'#)#(#'#)#*!s#(#(#*!r#'!r!o!r!r!r!r!r!r!r#*!r#'#*#*#-#D!V!L!P!a!j c ! C 0 / 0 0 0 4 4 4 0 / , 4 , 0 3 / 0 / / 3 0 / , @ ! c!) }!  x!3!2!u!r!r!r#'#(#'#(!v#'#'#'!o#(!o!o#'!s#'!o!r!r#$#'!r!r!o!o!o#(#'#(#'!s!r#(#(#(#'!r!r#$#$!r#'#(#(#(#'#(!s!o#(!r!o#(#(!r!o#'!s#'!r#'#%#(!r#(!r#(#(#)#(#(!r#%#%#'#'#(#'#(!r#(#'#$#(!p#'#(!s#'#(!r#)#*!o#'!s#%#(!o#@!< p l l n e                  ",
"              #f#g#b#S#R#V#K#5# #*#'#'#(#'#(#'#*#(#'#'!o#(#(!o#$#(!o!r!r!s!o!o#(!o!o!o#(!r#(!s!o!s!o!r#(!r!p!p!o#(!r!o#(#&#'#'!r#'!o#'!r#'#'#*!v!r#(#)#'!r#(#'#*#)#*!r!r#(#@#@#(#@#(#)#'#)#*!r!p!y#6!S!M!]!d!c O ! @ , 4 1 0 0 0 0 0 0 / 0 0 1 / 0 / / 4 / 2 : / 4 / ' t!(!! ~ w!,!=#B!r#'#(!o#%!o!r#(#*!u!r!r!o!o!o#'!o!o!p#'#'#'#$#'#'#$!o#$#(!r#(#(#(#$!r!p!r#$#'!s#(!r!p#'#'#'#(!r!r#(!r#'#'#(#'#(!r!r!o#(#(#(#(!r#'#'#(!r#'#'#(#(#(#(#%#%!o#(#'#(#'#'#'#'#(#'!r#(#'!r#'#'!s!r#'#(!r!o!o#'!o#@!1 n l m n                    ",
"              #g#g#g#Z#P#T#S#:#,#$!r#(#(#'#'!r#*#'#'#(#*#(#'#'#$!r!r#(!r#%#$#$#(#(!r#'#%!r#$#(!r#(!p#'#(!p!o#(!o!o#%#'#(#'#'#'#'!r#$!r!o#(#'!r!r#*!s#*#'!r#'#(#'#A#(!D!B!A!>!>!?!A!F#)#B#B#(!u!m!{#8!R!O!_!h!' $ 4 4 - 3 , 0 0 4 0 0 0 3 0 4 / 4 0 0 3 2 / / / 4 > ! L |!#!& u v!.!A#*!u#(#'#(#(#(!r!s!r#'!r!r#'#'!r!o!o!o#%!r#'#%!o!o!o!o#'!s#(!o#'#'#(!r#$!o!s!o#%!r!s#(#'#'#'#'#'!r!s#(!o#*#'#'!s#'!r#$#%#(#'#'#*#*#(#'#$#'#(#%!p#'#(#(!p!r!s#(#'#(#'#$#$#(#$#'#*#(#(!s#'#'#(#'#(#'#'!r!r!o#(!C!, m l n m                    ",
"              #g#f#g#^#O#S#X#G#1# !s#(#(#'!r!r#*!r!u!r#(#'#(#'#(!r#(#$#(#(#$!s#$#(#(#'!o#$#(#'!r#(#$!r!p#%#'!s#%#(#(#(#(#'#'#'!o!o#'#(!r#'#'#'#'#*!r!s#'!s#(#(#)!s#+!w!B!?!5!0!/!/!0!2!=!A!t#B#)#3!W!T!P!`!j i ! C , 0 4 - 0 3 0 0 / / 3 0 4 / 1 4 4 , / 4 , / 2 C ! W!) }!% y!7!0!C#(!u!s#'!s!r#'!r!s!u!r!r!r!r#$#%!o!r#$!r!o#(!p!o!p!o#%!o!o#(#'!r#(!r!s!r#(!r!s#$!o!r!r#'!s#$!o!r!r!r#(#(#'#(#(#)!r!r#(#(!r#(#'#(#'#'#$#%#$!s#'!o!o#%#(#'#'#$#(#'#)#'!r!r#'#(#'#'#(#'!r!r#'#'#'#'#'#'#(!o!o#@!< q m m n e                    ",
"                #g#g#b#U#R#V#L#6# #)#'#'#(#'#'#'!v#*#)!s#'#(#'!r#'#'#'!s#'#(!s#'#(#(!o!s#%!s!p#(#(!r#(#%#'#(!o#(#(#'#'!r#(!r#(!r!r#'#(#'#'#(#*#'#(!s#(#'#)#'#'#(!y#0#0#2#3!H!9!9 v!7!3!,!.!1!;!F#4!X!M!]!b!j X ! C / , , , 0 3 / / 0 / 0 0 4 0 0 4 0 3 4 0 / / , : ! g!) }!  x!3!6#*#)#*!v#(#(#(!v#'#(#(!r!r!r#$#(!s!o#'#'!o!o!o!o#(#%!o!p!m#$#'#(#(!s!r#(!r!p#(!p!r#'#'!s#'!r#'!o!o#'#'#'#'#B#'#(#'#(#(!r#'!p!s#'#(#)#)!r!o#$!o#$#'!o#%!o#'#'#'#(!o!r!r#'!s!o!o#'!o!r#'!r#'#'#'#'#'#%#'!o!o!r#@!0 n m n o                      ",
"                #g#f#g#[#P#S#V!~#.#!#'!r#'#(#)#'#)#)#*#'#(#(#*!r#(#(#(#(!r!p#(!r!s!s#$!s#(!r#'!p!p!o#'!r!p!s#(#'!s!r#(#'#(#(#(#'#(!r#'#(#'#(#'#)#*#)#'#(#(!u!r!x#C!H!H#6#9#<!U!J ~ y x w v!7!4!<#3!S!Q!a!f!c L ! ; 0 , / 0 0 3 0 / 4 0 0 0 / 0 4 / , / 4 / 4 / / ! G z!(!% ~ w!-!?#B!r#'!s!r#'#'#(#'!r!r!r#'#'#'!o!o#$#'!r!o#$!m!m!o#$#$!p!m#$#'#(#(!o#'#(#'!r!o!r!r!r!r#(!p!r!r!o!o!o#$#(!r#(!r!r#(#(#(#(#'#(!p#$#(#*#'!s!s!r#(#(#(!s#(!r#$#'#'#(#(!r#'#)!s#'!r#(#'!r!r!r#'!s#'#(!o#%!r#(#'#(!A!, n m o n                      ",
"                #g#f#g#_#O#S#W#I#3!l!u#(!r#'#*#)#'!s#*#'#)!s#(#(#(#(#'#(!r#'#'#(#'#'#(#(#$!o#(!r!o#(#(!r#%!r#$#'#(!r#@#'!r!u!v#)#'#(#'#*#*#(#'#)#*#)!r!s!v#)#$#0#5!I!S#;#<#L!i!]!)!% } ~ u y x!H#D!X!d!d#R z ! > 0 / 4 / 0 3 / 0 4 4 4 / : / 4 0 / 0 4 / 4 , / ; ! O!%!!!% y v!/!F#B#'!r#'#'!r#*#'!r!r#(!r!r#'!r#'#%!r!o#(!o!o#$!m!o!m#$!o!o#$#(!o!r#(#?#'!r!o!r!r!r#(#'#'#%!o!o!o!s!o!o#'#'#(!r!s#(#'#(!r#'!s#(#)!r!r!r#(#(#'!s#$#$!s#'#(#$#'#'#'!r#'!r#(!r#'!s!s!r!r#'#(#(#'#(#'#'!r!s!r!r#@!; p m n o e                      ",
"                  #g#g#d#X#Q#T#P#9#'!p#(#(#'!r#(#*!u#(#)#(!r#'!o#(!s#'#'#(#(#(#(#(!r!s#'!s#(#(#(#(#'#(!s#(#$#'!r#(#'#(!r#'#)#(#)#)#)!r#)#)#*#)#)#*#)#(#(#*#'!w#3!I!R!U#H#H#Q#[!f!N!! } }!$!#!)!U!~#<#=!g#X W ! C , , , , / / 0 4 4 4 / / / / / 3 / / 0 / / / 0 C ! X!) }!! x!7!1!u#'!r!s!r#'#'#'!r#'#'#'#'!r!o!r#'!o!o#$#%!s!o#$!o!m!o!o#$#'!o!o!o#(#'!r#(!r#(!r!r!r#$!r!o#(!o!o#%#%#$!r#$#'#'#'#'#(#(#(#%#(#'!r!s#(#(#*#)#'!r#(#'#%#(#'#'#(!s#(#(#'!o#)!r!r!r#(!r!r!r!r!r!o#(!r!s!s#(#(!r#'!r!/ o n o p                        ",
"                  #g#f#g#]#O#S#X#G#1# #*#(!o#'#(#(#*!s#(#(!s#'#'#'!o#'#'!r#(#(#'#'#@#(!r#(!r#'#'#(#(#'#(!r#(#(#'#'!s#'#'#'#B#*#)#)#(#'#*#*!u#*#(#)#*#)#*!u!o!y#5!X!L!Q!f!g X g |!(!)!)!#!!!%!N!d#L#I!g#[!$ ' C 4 0 4 / 0 / 0 / 0 / 9 0 3 0 0 0 / 0 0 / / , ) , 4 ! i!)!! ~ w!3!<#B!r!s#'!r#'#'!s!r!r!r#*#'!s#'#'!r!r!r!o!o!o#$!o!o!o#!#%#(!s#%!p#(#'!v!r#(#(!r!r!r#(!o!o#'!o!o!o#%#'#%!o#$!o!o!o#'#(#'#(#)#@!s#*#(#'#'#'!r#'!r#'!o#$#(!r!o!r#'!o#(#(#'#(!r!r#$#'!r#'!r!p!o!o#$!r#(!r#'#'!r#@!>!+ n o p s                        ",
"                    #f#g#b#R#R#U#L#6# !r!s#(#'#'!v#*#*#'!r!s!s#(#$#%#(!r!r#'#*#'#(#'#)#(!r#'#(#'#'#'#'#(#'#'#(#'#'#)!r#*#'#)#*#*#)#'#*#)!v#*#)#)#*#*#,#)!u!o#0#8!S!M!]!f!N ! ! ! L W f t }!*!]!f#Y#W#Y!c O / @ 3 4 / 0 0 / 0 0 0 0 / / / 0 3 / 0 0 0 3 4 4 , / ! L {!!!% ~ v!.!?#(!r#'#*!r!r!r#(#'#'!r#)!r#(!r!r!r!s!s!p#$!o#%!o!o#%!o!o#(!o#'#(!o!s!r#(#(!r#'#'#'!r!r!o!p!o#%!o#$#$#(#%#$#'#%#(#(#'#(!s!r#'#'#*#(#'!u#'#'#'!s#(!o!o#'#'!r!r#(!r!r#(#'!s#'#'#'!o!p!r#'#$!o!o#$#$!r#'#%#'!r#@!1 o n o q                          ",
"                    #g#g#g#Z#P#S#V#F!z!m!u!r!r!s!r#(#(#(#(!p#'#$#$#(!p!r#(#'#*#*#@#(#'#'#(#*#*#'!r!r#'#'#(#(#'#'#'#'#'#'#)#)#)#)!v#)#)#*!s#(#)#)#)#)#*!u!r!o!|!W!T!O!_!i i ' J C * ! ! 6 M X i!N!i!h!& O ! > / , , 2 / / 0 0 4 0 0 0 0 0 0 0 4 0 4 4 / , 0 / > ! W!% | } y!7!0!F!o!r#'!r#*#(!v!r#*!r!r!r!r#'!r!o#'#(!r!r#(!p#!!p#(!p!p!o#%#'#$#(#'!o#%#(#(#'#(!r#'!r!r#'#(!o#%#$#$#(#$#$#$!o#(#(#(!r!r#'#(!r#'#'#(#'#'!r#'#'#'#(!o#$!r!r#'#'!o#'#'#$#%#$!r#'#'#'!s#$#'!o#$#(!p!s#(#'#$!o#@!A!, n n p o                          ",
"                    #g#f#g#`#P#S#V#K!}# #*#'#'#'#'!s!r#'#)!r!s#'!p#(!s#'#(#'#)#(#(#)!s!u#(#'#'#'#)!s#'#'!s#(#'#(#'#'#'#'#(!u#)#)#*!v#*#)!s#(#(#'#(#(#*#*#(#-#D!V!L!P!a!j X ! C 4 > C > ' ! ! ! K O L ! ! ? 4 4 4 3 / / 0 3 / 0 4 / / / 3 / / 0 4 3 0 / 0 , 4 > ! f } | | x!3!2#)#'#'#'#'#'!r#*#'#*!r!r!r#'#$!r#$#'!r#$#(#$!o#$!o!o!o#$#%#%!p#%!o#$#%#%#'#'#'#(#*#(#'#$#(!o#'#$#>#%#%#%!o!o!o#(#'#'!p!s!r#(#'#*#'#*#'#(!r#'#(#'!r!o!r#'!s!r#'#(#'!s#'#%!o!r#(#'!r!r!r#$!o#$!s#'#'!r#'#'!o#@!6 q n o q r                          ",
"                      #g#g#f#Y#Q#S#U#;!x#%#)#'#(#*#(#'#(#'!r!s#$!p!s#'#'!r#'#(#*#)#(#'#)#*#*#*#'#'#)#*#'#(#)#'#*#)#)!r#'#(!r!v#'#)#*#(#*#)#'#*#(#*!s#)#)#%#.#6!S!M!]!d!c M ! : 4 4 , , 3 > C E ' ! ! > > 4 3 0 4 , 0 0 3 , / / / / / / 3 / 0 0 / / / 1 / / / ' , h { { { s!,!<#B!r#'#'#'#*!r#(#)!r#'!r!r!r#'#'#%!o#'#%#'!o!m!o!o!o!o#'#%!r#(!o!o#'#$#(#$#%#(#%#'#'!r!r!o!o!o#$#'!o#$#%!o#%#%#(#$#(#'!r!s#(!o!v#'#*#'#(#(#(#(!s#'#$#'#$!r#(#'!r#(#(#%!o!s#'#'#(#(#'#'!o#$!o!o#'#$!o#'!r#(!C!. o o q!7                            ",
"                      #g#f#g#^#O#S#W#I#4#!#)#'!u#*#'#*#'#)#(#(#(#(#'#'#*#*#'#*!s#(#'#(#'#'#*#'#(!r#(#(#)#)!u#*#*#'#*#(#)#*!s!s#(#(#)!r#)#*#(!u#*#*!r#)#,!o#1#8!R!O!]!f!' $ 4 4 4 , ' / 0 4 : 4 4 > > : / , / 0 , , 0 0 , / 0 / 4 0 4 / 3 0 4 0 0 / 0 0 3 , 4 ! J h t z z s!+!?#B!D!r#'!r!v!r#'#*!u#*!r!r!r#'!s!o!o#$#$#$!o#!#%!o#'#$#$#'#$#%#$!o#$#$#(#(!o#%#$#(#'!o#$#$#(!o#$!r#$#(#$!o#%#$!r!o#'!o#'#%#'#'#(#(#'!s!s#(#(#'#(#'#'#'!o!r#'#'#'!p#(#$#'#(#'#'!s!o#'#$#'#'#'#'#$#%#$!s!o#@!<!+ o p q s                            ",
"                        #g#g#d#X#R#S#S#:#-#%#)!r!r#(#)#(#)#(#'#(#(#'#'#*#*#)#*#(#(#'#'#(#'!s#(#(#'#'#*#'#)#'#*#*#)#)!v#'#(#(#'#(#)#'#'#*#*#'#'!r#'#*#*#+!o!|!W!L!K![!h h ' G 4 / ' + , 4 4 2 4 / / / 4 / , 0 3 - , 0 0 4 , 0 0 4 0 4 0 4 0 0 0 0 3 / 4 - / : ' J g h i t r p!6#*#B#@#@!r#)!r#(#'#)#)#'#'#'!r!r!o#$#%#$!o#%!o#%!o!s#(!r#'#'#(#(#%#$#$#$#(!o#'#'#'#(!o#$#$#$!o#(!r#(#$!o#(#%!o#'#(!r!r!r!s#'#(#'#(!r#'!s!r#'#'#%!s!r#$#'#'!s!r#(!r!o#'#'#'#(!r!s!r#(#'#(#'!o#'!r!s#'!p#'!D!/ p p q!3                              ",
"                        #g#f#g#]#O#S#W#I#3!l#*#'!r#(!r#(#'!r!r!r#$#(#*#*#(#*#)#(#'!r#'#'#(#(#'#'#(#(#*#'#'#(#*#)#*#'#(#'#)#(#'#'#*#*!r!r#)#'#'#(#(#)!u#+#'#3!V!J!N!Z!c P ! I G : / ' + 4 4 , / - / / 4 / / / 0 / 0 0 / 0 , 4 0 / 1 4 0 0 , 4 0 0 0 0 / / 1 / $ I c g g g e m!,!2!=!A!t#*#@#@#(#)#'#)#)#'!r!r!r#$!o#%!o#$!o#$#$#%!s!r#'#$!r#(#'#'#'#(#(!s!r!s#'#'#(#$!o!r!o#$#$#$#$#(!o#$#'!p#$#$!o!o#(!o!r#(!o!o#'#'#'#'#(!s!r#'#(#%!p!p#'#(#'#(#%#'#'#*#(!r#'!s!r#'#'!r#'!r!r#(#(!o#@!<!+ p q!, v                              ",
"                          #g#g#c#W#R#S#R#:#*!o#(#%#(!r#'#*#'#@#'#*#*#)!s#'#(#'#'#'#(#(#'#(!o!r!o#$#'#(#(#*#'#'#)#'#(#'!r#)#(#)!r!s#)#)#(#'!v#*#)#)#(#*#*!r#3!V!J!)!*!* W J ! ! ! ! C F > / / ' / 0 / / 2 / 0 / / / / / 4 3 / 0 0 , 0 0 / - 3 / , / 4 3 / / / ! I c c c f g r o!7!-!.!0!2!<!A!t#*#@#)!r#*#*#'#'!r!o!o!o!o!o!r#(#$!o#(!o#'#(#(#'#*#'#'#'#'#(#'#(!o#'!r#(!o!r!o#(#$!p#'#$#%#'#'#'#'#$#$#'!o!r#'#(!s!r#$#'#'#(!r#'#*#'!o#(!s#(#$!r#(#'#'#%#(!r#'#*#'#'#(#'!r#'!r#'#(!s#?!D!/ p p!+!,                                ",
"                          #g#f#g#]#O#S#W#I#3# #)!s#(#'#(!s#'#'#*#*#'#(!s#'#'!r#'#*#'#(#'!o#'#'!o#(!s#%#%!r#(#(#(!r!r#'#'#'!r#(#*#'#'#'#'#*!s#*#)#'#(!v#,!r#3!W!J!(!*!Z![!Z z c P D ! ! ! / F C : / / / , 0 4 / 4 3 3 / 3 0 / 0 / / 4 , 0 4 0 0 0 4 4 / , / / , / W c c f h t u x w v!7!3!-!.!1!;!?!u#(!r#(!v#(#'#'!r#(#'!o#$!r!r#(!o!o#%!r#)#'#*#(#(!s#*#'#'#(!o#(#'#'#'#'!o#(#$#$#(#(#(#'!o!r#'#'!o!r!r#(!s!r!r#(#'!o!r!r!r#'#(#'#(!p#$#'!r#$#'!o!s#(#$#'#(#(#)#'!s#(#(#(#'#'#$!o#@!<!+ p q!, v                                ",
"                            #g#g#c#V#R#S#R#:#-!p!r#$#(#(!s#'#(#'#*#(#'#)#(!s!r#*#'#)#'#*#'#'#'#$#(#(#%#%#(#'#'#(#(#(#'!o#'#'#*#(#'#(!r#*!s#*#'#'#*#'!r!u!o#1#8!R!)!(!*![!b!h!j!e!Z z c P ' ! ! ! 4 G C 4 / 0 4 / / 0 / 0 4 - 0 4 / / / / 0 / / / / , ) - / / : ! M c c g t { |!  ~ ~ y x w v!7!3!.!2!B#@!r!s!s#(#%!r!r!o!o!o!p#'#(!p#'#'#*#(#'#'#*!s!r#(#)!u#(#'#'#%#'#(#(!p#'!p#'#%#(#(#@#'#'#(#(#(!s!r!r!r#(#(#'#(#(!o#(!s#(#'!s!r!r#'#$!o#'#$#$#$#$#$!r#'#(#*#'#'!r!u#'#(!r!r#%!D!/ q q!,!-                                  ",
"                            #g#f#g#^#O#S#W#I#4!l#*#'!o#'!s#'#'#(#)#*#B!v!v#'#*!r!v!v#'#)#'#(#(#'#(#'#'#(#'#'#'#'#(#(!s#'#'#'#'#'#(!s#'#'#'!r!s#(#'!r#)#)#'!y#D!V!L!J!N!N!]!_!`!d!f!i!j!e!* i X O ! ! ! ! > F @ : / / / 0 / / 4 / / 0 , / / 3 3 / / ) ) / / / 4 4 ! O f t z { | }!!!%!%!  | u u s s!+!1!C#)#)#'#'#(#'!r!r#'#'!o#(#(#(!r#'#(!r#'#(!r#(#'#'#*#'#'!r!r!o#%#'#%#%#'#$#%#(#'#'#'!s#(!s!s#'!s!s#'!r#*#(#(#'#(!s#(#'!r#*#'#'#'!s#'#'#'#'#'#%!o#$#'#)#*#'#)#'#(#'#'!s!r!r#@!<!, p!+!, v                                  ",
"                              #g#g#d#X#R#S#T#;#.#!#'#'!r#'#'!s#(!u#(#'#'#'#*#*!r#(#(!s#'#'#'!r#*#(#@#$#(#'#(#(#'#'#'!r!s#'#'#'#'!s#'#'#*#(#'#(#'#*#'!u#'#)#'!{#6!W!R!L!M!M!O!P!]!_!`!a!d!f!j!j!c!' h X L ! ! ! ! > F > 4 , / 4 / / / 0 / 0 3 : / / / / 3 0 0 , / 4 ! K W f z!%!)!)!# } | { z t t r s!3!;#B!r#'#'!s#'#(#'#'!s!r!r#(#'#'#'!r#(#$!r!r#$!p!r#'#'!s#'!s!o#'#$#$#%!p#$#%#(#'#'#(#(#*#)!r#'#'!r!r!r#(#(#(!r#(#'!r#'#(!v!r#'#'#(!o#(#(#'#'!p#(#'#'#'#'#*!r#'#(#'#'!u#'#@!B!/ q q!,!4                                    ",
"                              #g#f#g#^#O#S#V#K#5!l!r#(!r#'#(#'#*#*#'#*#'#(#*#*#(#)#)#'#(#'#'#'#*#(#(#%#(!o#'#(#'#'#'#(#(#'#'#(#)!r#'!r#(!r#'#'#(#'#(#'#)!u#)#*#0#D#7!W!X!S!R!T!M!M!O!P!]!_!`!a!d!h!j!h!^!' g W L ! ! ! $ C C @ / , / , / 4 4 / , / / 3 0 0 , , / 4 ; ! ! ! L P c i { | { z h g g h r o!0!t#(!q!v#*#(#(#(#*!s!r#'!r!s#)#)#'#(!o#'#$#'#(#(#'#(#(#'#'#'#$#%#'#'!o#(#$#(#'#(!o#'#*#'#)!u#(!r!r#%#(#)#(#'#(#(#'#(#'#'!s#*#'#'#'#'#(#$#(#'#(#'#*#)#(#'!r!r#'#'#'#(#'#@!;!, q!,!.!9                                    ",
"                                #g#g#e#Y#Q#S#V#<#0#!#)#'#'#'#(#'!r#(#'#*#*#*#'#(#'#'!r#(#(#'#'#(#'#'#'#(#'#'#'#'!s#(#*#*#)!s#'#'#(!s#'!r#'!o#(!s!r#'#(#)#)#)#)!o!x#0#3#5#7#9!V!X!S!T!L!M!M!O!P!]!_!`!b!e!h!j!h![ { f P G ! ! ! / C F > / / , + , , 4 3 0 0 / 0 / 4 3 4 @ > ! ! ! ! L P X c c c d g h s!-!B#@!r#'#'#(#(#'#(!s#(#'#'#(#)#*#*!r!o#$#%#$#'#(!o!s#'#'#'#(!r!r#(#$#'#%#(#$!p!o!s#(!u#'#(#'#(#(#%#'#'#'#(#'#(#(#(#(#$#'!s!r#'#'!r#'#'#$#(#(#'#'#(#'#(!s#(#(#'#(#(!r#@!A!.!+!+!.!8                                      ",
"                                #g#f#g#_#O#S#U#L#7!o#(!r!o!r#'#'!r#*#)#(#(#(#(#(#(#(#(#'#(#(#'#'#'!r#'#(#(#'#$!r#'#'!v#'#*#(#'#'#$#$!r!o#$#'#(#'#'#(#*#(!r#(#*!r!o!p#'!x#/#C#4#6#7!W!V!S!R!T!L!M!O!P!]!]!_!`!b!e!h!j!h!Z z c O ! ! ! ! 4 @ @ / 0 / , 0 / / 0 0 ' , , 4 0 / 4 ; @ 0 ! ! ! ! J W f g t s!-!A#(!r#*#'#(#'#(#'#'#'#'#(#@#(#)#'#(#(!r!s#$#'!o#(#'#'#'#?!r#(#%#'#'#(#'#%!o#%!r#'#'!s#'#)!r!r#'#(#'!r!r#(#(#'#(!s#'#(#(!r#'!r#(!r#'#'#'#(#(#'#(#'#(#'!r!r#(!r!r#(!r#(!2!,!+!-!/!9                                      ",
"                                  #g#f#g#Z#P#S#X#H!|# #)#%#$#'!r!r!r#*#'#(#'#'!s#(#'!o#(#)#'!s#(#'#(#(!p!p#(#%!r!s!s#'#(#'#'!r!r#$#$!r#'!r!r!r!r!r#'#'#*#)#(!s#'!r#)!s#$#%!p#)!x#0#C#4#6#8!W!V!S!R!T!M!M!O!O!]!]!_!`!b!e!i!j!e!* i X O ! ! ! ! A G @ 4 / / , , ' , 4 , 0 ) / ) , 4 = > @ ' ! X g i t s!-!A#*!q#*#(#)!r#'!s#'#)#*#*#(!s#*#(#(#B#*!s!r#(!r!r#*#'!r!r#(#'#(#'#(#(#(#$!o#%#'#'#$!v!r!r#'#'#'!r#'#'#'#(#*#'!r#'#'#'#(#$#'#*#'#'#'#$#%#'!r#*#(#)#'#'#'#'#'!s#(!r#@!?!-!+!,!/!8                                        ",
"                                  #g#f#g#b#R#S#S#R#;!y#!!r#(!o#(#(#(#'!r#(#'!r#(#'#(#'!o#(#'#(#(#'#'#(#(#(#(#'!r#(!s#'#'#'!o#'#'#'!r#$#'!r!r!r#'#'!r#*!s#*#)!s!r!r!r#(!o#*!s#'#%#$#$#)!y#0!|#D#6#8!W!X!S!R!T!M!M!O!P!]!]!_!a!d!f!j!j!c!' h W L ! ! ! ! @ C > 3 4 4 / 1 / ' , / / 4 4 , / ! L h t z u v!/!C#*!r!u!v#'#'!r#(#'#*#'#'!r#'!u#*#'#)#)#'!r#'!r#'#'!s!s#)#'#)#'#(#$#$#(#'#'#'!o!s#(#'!r#'!r#(#'#'#*!r#'!s#'#(#'!r#'#(#(#'#*#)#'!r#'!r#(#'#'#*!r#'#(#'#'#)#(!s!r#'!D!1!+!,!.!0 x                                        ",
"                                    #g#f#g#]#O#S#W#K#5!l!r!r!o!r#(#'!r!s!o!o!r#'#$#'#$!o!r#(#)#'#*#(#'#(#'#'#'#(#'!r#'#'!r!r#(#'#)#(!o#$!r!r!r#*!s!r#(#'#*!r#)#*!r!r!o!r!r!r#'#*#)#'#)#$!m#$!w#.!{#3#5#E#8!W!X!S!R!T!M!M!O!P!]!_!`!a!d!h!j!h![ { f P J ! ! ! , G C : / , ) ) , / / / / 3 ! W { { { u!7!1!u!s!u#)#(!r#'#(#'#(#*!r#'!r#'#'#*#(!r#*#*!r#(!r#'!r!s#*#)#'#'#(#'#'#'#(#'#'#'#)#(#(#(!s#(!s!s#'!r!s!o#)#(#'#*!r!r#$#'#'!r#(!r#*!r#)#(#)#(#'!s#'#'#'#'#*#'#$#(!r#@!<!-!+!4!0!8                                          ",
"                                    #g#g#g#d#X#R#R#W#G#2!l!r#(!s#*#'#'#(#$#'#$#'!r#(!o#(#'#*#'#)#(#'#'#(#'#'#'!s#(#'#(#'!r#(#(!r#'#(#'#'#'!r!r!r#)!r!r#'#*!r#'#*!r!r!n!r!r#'!o#(!o#'#'#'#)!r!o#$!m#'!w!z#1#3#5#7#9!V!X!S!T!L!M!O!O!P!]!_!`!b!e!h!j!h!Z z c O < ! ! ! 3 F C 4 / , ' ' 3 B ! f!% | | x!3!;#B#*#)#*#*!r!r#*!v!r!r!s#(#'!r#(#'#*#'#*#*#'#(#(#'!r!r#(#)#'#'!r!u#'!r#(#(#'#'#'#'#'!p#(#(#(#)!s#(!r!o#'#'#'#(#'#$#$!o#(#'#(#'#(#'#'#*#*!r!o#(#'#(#(#'#'#(#(!o#@!A!/!,!-!0!5                                            ",
"                                      #g#f#g#`#P#S#T#O#9#-!m#'!r#'#'#'#(#$!o#$#(#$#%!r#'#(!v#)#(#'#)#)#'!p#%!o!s#'!s#*!s!o!r#(!r#(#(#'#)#'!o#'!u#'!r#*#(#'#(!r!s!o!r!o!r!r#'!r#(#'#'#*!r#'!r!r!r!r!r#$!o#%!u#-#/#C#4#6#7!W!V!S!R!T!L!M!O!O!]!]!_!`!b!e!i!j!e!* i X O ! ! ! ! B F : ' / / K |!)!% ~ w!-!?#B#*!u#'#(#(#*!s#)!u!r!r!r#(#(#'!r#*#'!s#'#'#'!r#'#'#'#*!r#'#'!r#'#(!s#'!r!s#'#'#*#'!r#(#'#(#(!s#(#(#'#(!s!o#'#(#(!s!s#'!r#(#)#)#'#'#(#(!r#(#$#(#'#(#(#%#(#(!o#'!2!-!-!0!2!9                                            ",
"                                        #g#f#g#[#P#S#W#J#5# #(!o#$#(#'!r!r#(#'!r#%#B#'#'#(#(#'#(#'#)#'#(#'#(!o#'#(!s#'!r!o#'#%#'#'#'#*#'#'#(!r!r!r#'#'!r#'#*#(!r!r!r!r#'!r#'#'#)#(!o#$#'!r!r#(#'#'#'#'!r#)!u!s!o!o!u!y#0!|#4#6#8!W!V!S!R!T!M!M!O!O!]!]!_!a!d!f!i!j!c!' g W L ! ! ! ! D : W!d!N!) y v!/!F#B#'#*!s#(#(#*!r!s#)#'!r#'#'#'#(#'!v#(#)!s#$#'#(#'!r!r#'#'#(!r#'#*#'#'#(#'#'#'#'#(#*#(!s#(#'#B#(!s#'#'!r!r#)#(#'#(!s#(#(!s!r#(#'#'#'#'#'#(#'!p#'#'#'#'#$#(!r#@!>!/!-!/!2!6                                              ",
"                                        #g#g#g#c#V#R#R#V#G#2# !v#$#'!o#(#'!r#(#'#'#(#'!s#'#(#(#(#(#*#'#(#(#(!s#'#'!r!r#'#(!o#'#'#'#(#(#$!s!u!r!r!s#'#'!r!s#?#*#'!r!r#$#'#'#*#'#'#'!o!o#'#$!o!r!r!r!o!o!s#'!r#)#)#*#*#'#$!s#+!y#0!|#D#6#8!W!X!S!R!T!M!M!O!P!]!_!_!a!d!h!j!h![ { f W J ! ! h#Y!]!N x!7!1!u#(#'#'#(#'#'!r#*#'#*#'!r#(#)#)#*#)#*!r!r!r!r!o#'#'#'!r#'!r!r#'#'!v#'#(!s!r#'#'#'#(#(#'#(!s#'#*#*#(#'#(#(!s#(#(#'#'#*#'!o#(#'#(#'#(#(#'!r#(#'#(#*#(!o#(#'!o#%!A!0!-!/!2!:                                                ",
"                                          #g#f#g#_#O#S#T#P#:!y!m#'!s#(#'!r#(#(#*#(#(#'#*#'#(#'#(#(#$#'#*#'#'#'!r!o#'!r!r!r#(#$!s#(#'#'#'#'!n#'#(#)#*!r#(#'#'!r#'#'!r!r!r!r#*!r#(#(!s!r#'#'#(!s#'#'#'!r#'#(#(#'#)#)!s#)#*#)#*!r#$!o!w!z#1#3#5#E#9!V!X!S!R!L!M!M!O!P!]!_!`!b!e!h!j!h![ { c!N#Z!e!J!9!4!<#*!r#*!s#'#'#)#*#'!s!r!r#(#'!s#'#(!u#(#(#'#$!s!r!o#(!r#(!r#'!r!r!r!r#'!r!r!u#'#(!s#(#'#'#'#'#$#(#*#*#(#'!s#'#(#'#'#(#(#'#'!o!r#'#'#(#'!o#(#'#'#%#$#'#%#$#'#'!r!2!.!/!2!:!H                                                ",
"                                            #g#f#g#[#O#S#V#K#6!o#'!s#'#'!r!r#(#(#'#(!s#*#(!r!r#(!r!o#'#'!r!s!u#'#(!o!r#(#'#'#'#'#(#'#(!s#$#'#*!r#'#@#)#'!r!r#'#(!r#'!o!r#$!s#'#(!u#*#'!r#'!r#'#'!r!r#(#'!v!s#)#'#*#)!r!s!u!u#)!u!v#'#$!o!r#-!z#C#4#6#7!W!V!X!S!T!L!M!O!O!]!]!_!`!b!f#M#L#I#J#I!S!9!0!A#@!r!r#'#(#'#'#(#)#*#(#'#'#'!v#*#'#(!r#'#'#$!r#(!o#'#'!r#(!n#'#(!s#'#'!u!u#(!r#'#'#(!r!o#'#'#(#'#(#*#(#(!r#'#'#'#'#(#'#(#(#'#'#'#'#'#'#(#'#'#'#'#%!o#'#(!r#@!<!/!.!5!:!E                                                  ",
"                                            #g#g#g#c#X#R#R#W#H#3# #(#(#%#'!p!r#'!o!r#%#(#'#'#'!s#'#'#%!o!r#$#(#*#'!r#'!s#'!r!s#'#(#*#'!r#'!r#'!r#)#'!r#'#'!r!r#'#(#'#'!r#'!r#'!r!r#*#(#(!r!p#(#'#(!o!r!r#'#'#'#'#'#)#(!r#)!v!u#'!u#'#)!u!u#$!o!o!u!x#/#C#4#6#8!W!V!S!R!T!M!M!O!P!]!]!a!d#G#;#8!H!8!;!D#(!u!s!r!r#'#*#'#'#'!u#(!r#(#'#'#(#'#'!p!o#'!r#%!p!r!o#(#(!r#'!s#'#'#*#'#'!r#(#'#'!r#*#'#'#'#'#'#(!r#'#(#'!r!r#$!r!r#*#'!r#(!o!r!o#'#'#'#*#(#(!o#'#$!s!u#@!A!0!.!0!:!>                                                    ",
"                                              #g#f#g#`#P#S#S#T#F#0!l#*#'#'!s#'#(#$#'!s#(#'#'#'#$#(#(#%#$#'!r!r!r!r!r!r#'!r#*#*#'#'#(!s#(#'#(#'#'#'!r!r#)#)!r!r#'!r#'#'!r!s#(#'#)#*#)#)#*!r#$#$#'!s!r#'#*!r#'#)#*#(#'#'#'!u#)!r!r#)#'#'#'#'!r#)!v#'#'!p!o!w!y#0!|#D#6#8!W!X!S!R!T!M!M!M!U!X#6#3!E!;!A#(!r!r#*!r!r#'!u#(!r!r!v#'!r#'#'#'#'#(#'#'!o#'#'#%!r!o#'#(#'!r#(!o!r#*!r#'#*#(!r#'!s#(#'#)#(#'#(#'#'#(#(#'#'!r#'!o#'#(!r#(!r#'#(!r!r#(!r#'#'#'!r!r!s#'#'#B!C!1!.!0!;!>!H                                                    ",
"                                                #g#f#g#]#N#S#T#M#9!x#!#)#'!r!s!o!o#'#$#'#'#(#(!s!r#%!r#(#'#'!r!r!r!r#'#'#'#)#*!r!r#'!r#'#(#(#'!r#(!r#'#)!r#'!r!r!s#$!o#'!s#'#'#(#*#*#*#'#(#$!o!r#'!r#'#*#)!v#)#(#'#'!s!r!r!s#(#'#*#'!r#'!r!r!s#*#'#)!u#*#'!o!o!o!w!z#1#3#5#E#9!W!X!S!S!S!I!H#/!C!A!D#(#*#'#'#*!r#'#'!s!r!s#(#(#'#(!s#'#(#*#(#'#'!o#(#(!r#'#(!o#$#(#'!r!r#(#)#)#'#'!r!s!r#(#*#(#(#'#(#'!r#'#'#'#'#(!o#'#'#$#'#(#*#'#'!r#(!s!s!o#(!s!o!r#(#'#)#'!;!/!0!6!>!|                                                      ",
"                                                #g#g#f#f#Y#P#S#V#K#6#'#$#'#'!r#$!r!r!o#'!r#(#'!r#'#'!o#'!r#'!r!r!r!r#'!u#(#*!r#'#(#'#'!r!r!r#'!r!r#'#)#)!r#(#'!s#'##!n!r#'#'!r#(#'#)#)#'!o#$!r#$#$!r!r#'#*#'#'!r#'#'!r#(!s#'#'!r#'!r!s!r#(#'#(!r!r!v!s#*#*#'#)#'!r!o!o!u!x!z#2#3#5#6#6#5#4#2!z#+#'#'#'#'#'!r#'#)#'#'#'#'!s!r#(!r#'#(!r#(#)#(!s#'#'#'!r#'#'!r#(#(#(#(#'!r#*#)#)#(#)#'#)#'#(#(#(#)#)#'#'#'#'#(#'#'#'!o#'#'#'!u#)#'#(#(!r!r#'#'!r#'!o#(#'#'#'#@!?!0!0!;!@!z                                                        ",
"                                                  #g#g#g#b#V#R#R#W#H#4# !r#$!o#(#%!o!r!s!r!r#'!r#'#'#'#'!r#(!r#'!r!r#'#'!r!r#'!r#)#'#'!o#'#$#'!r!r#'!r#*#*!s!r#(#'#$#'!r#'#(!r#(#*#'#'#(#'#'#(#$!o#'#(#'#(#'#@!s#(#'#'#(#'#'#'!r#'!r!r!p#'!s!v!r#'#(!r!r#*!u!r!r#)#)#)!u#'!o#$!u#-!y#/#/#.#-#+#)!r#'!r!o#(!r#'#'!r!r#$!r!r!s!r!r#(!r#'#'!o!r!r#(#'#'!r!o!r#'#)#(#(!s#'#)#*#(#)#*#*!u!v#*#'#(#)#'#'!o#'#*!s#*#'#(!r!r#?#(!r#(#*#(#(#'#'#)#'#(#'#'!s!r!r!r#@!A!1!0!;!@#                                                           ",
"                                                    #g#f#g#`#P#S#R#V#G!|!l#'!p#$#$!o!r#(!r#(!r!s#'#(#(!r#'#'#'!r!r!o!r#(#'!r#'!r!r!r!s!r#'#(!r!s#(!r#(#)#(#)!s#(!p!o!r#(!o#'#'#'#'#(!r!s!r#(#(#'#'#(!r#(#'#(!r#(#'!r!r!r#'#*!r#(!o#$#(#(#'!r#(#(!r#'#'!u#'!u!r#)!r!u#*!v#*!u#+#)!r#(!r!r!r!r#'!r#*!r!o!r#$#(!o!o!r#'#%!s#(#(!o#(!r#'#*#'!s!r#(!r#'#(#(!o#'!r#*#'!r#'#(!r#'#(#(#)#'!r#'!s!s!r#'#'!r#'#(#'#(#)#'#*#(#(#(#(!o#'!r#'#(#*#'#*#'#'#)!r#'!o!r#>!@!2!0!6!A# #6                                                          ",
"                                                      #g#f#g#]#O#T#S#R!~#0!l!u#%!r!o!o!r!o#(!r!s#'#$#'!r#*!s#%!r!r#'!r#)#*!r!r#'#'!r!r#(!r!r#'!r#'!r#(!r#'!v!r#'#(#'!r!p#%#'#'#'#'#'!s#'!s#(!o#'!s!s#'#'#'#'!r#(#(!r!r!r#(#(#'#'#'#'#'#'!r#'#(#'#'!u!u#'#'#*#'#(#)!u#)#)!v#)!u#(!u#)!u!u!u!r#(#(!s!o#$!o!o!o#'!o!o!o!o#'!p!r#'!s!r!r!r!v#'!o#(!s!r#'#'#'#'#'#(#'!s!r#'!r#'!r!v#'#'#'#'!r!r#$!r#'#'#'#'!r#'#'!s#(#'#(#(!o#'#'!r!v#'#'#*!s#'#'!s#(!r!r#@!C!6!0!6!A# #3                                                            ",
"                                                      #g#g#f#g#[#P#S#U#M#9#.!l!u!r!o#(!r!r!r!r#$#'!r#*#'#'!v#'#*#'!r!r#'!r!v#)#'#'#(!o#'!o!r!r#'#'#'#'!v#*!s#(#$#%#(!r!r#(#'#(#(#'!s!r#%#'!r#'!r!r#'!s!r#*#)#'!r#)#'!r!r#(#'#'!s#'#'!o#'#(!s!r#'#'#'#'!r!r!u!u!r#'!u!u!u!u#)!u!u!u!u#'#)!u#(#*!r#'#'!o!o#$!o!o#%#$#$!o#$!o#(!o!r#$!s#'#(#*#'!o#'#(#'!v#'#*#'#)!s#'#*#*#(#'!s!r!o#'#'!r#'#'#'#'!r#'#'#)#(!r#'#(#'#(#(#(#'!o!r#(!r!r#(#'#(!r#'#$#(#'#(!o!;!1!2!A# #1                                                              ",
"                                                        #g#g#f#e#Y#Q#S#V#K#7!x!m#(#$#'!o#%!r!r#'!o#(!v!r#'#'#'#'#(!r#'!r#'#)!r#'#'#$#'!v!o#'!r#(!r!r!r!r#'!r#'#(!r#)#'!r!s#(#'!o#(!r!r#(#'!v!r!r#(#*!r#'#'#'#)#(#(#'#'#(#'!s!s#(#(!r!r!s#$!r#'#'#'!r#'!r#'#)!u#)#)#*#(#*!u!u#(!r#)#'!v!s!s!s!r#*#'#$!o!o!p#'#%!o!o!o#$!o!o!o!o#$#'#(#'!r#'!o!o!r!r#(#(#*#'#'#)!s#*#'#'!s#(#%!r#'!r#'!o#(!r!r#'#'#'#*!r#(#'!r#'#'#'#(#(#'!s#'!o#$#(#(#(#(#(#*#(!o#'!r!>!1!2!A#!#/                                                                ",
"                                                          #g#f#g#b#T#R#R#W#J#6#(#%#'!r#'#(#'#'!o!D#'!r#'!o#'#'!r#'#'#*!r!r#'!r#'#(!r#'#(!r!r!r!r#'!r!s!o#'#'!o!r#*!r#'#'#(#'#(#)!s#$#'!o#%!r!r#'!r#'#*#'#'#$#(!r#'!r#'#'#)#)!s#(#(#(!s!r#$#'#'!r!r!r!r#'#'#)!r#*!u!u!r!r!r!r#)!u!r#'#'!u#(!v#*!r#'!r!p#(!o!o!o!o!o!o!o!o!o!o!s#%#$#'#(#'#'!s#$!s!r#(#'!r#(#)!s#'#'!u#'#(#)#'!p#'#'#(!o#'!r#'!r#(#(!r#'!r!o!r#'#(!o!r#'#'#'#'!s!s#'#'!r!s#)#)#(!s#(!>!2!6!@#,!o                                                                  ",
"                                                            #g#f#g#`#Q#S#R#W#I#5#$#$!r!r!r!r!o#'#'#$!r!r#'#'#'#(#'#'!r#'#'#*#'#'!o#'#'!r!r#'#(!r!s!r!r#(#'!r#$#'#'#'#(!s!s!r#'!v#*!r!r#'!o!s!r!r!r!r#(!s!s!r#'#(#$!s#'!r!v#*#'!s#'#'#'!r!r!r!r!o!r!r#'!s!r#)!u#)!r#'#'#*!u#)#'!u!u!r#*!r!u!s!r#'!r!o!r!o!r!r#%!o!o#$!o!o!o!o#(#(!o!r#*!r!r!r#%!o!s#(#(!r!s#*#'#'#'#(#'#'!r#(!v#'#(#'#'!r#)!r!r#(#'#(!r#'#*#(!r#'!s#'#'!s!s!r#(#(#(#'#'#*#(#'#'#B!>!6!;!@#.!m#E                                                                  ",
"                                                              #g#f#g#_#P#S#R#W#H!}!o#$!r!r!s#'!r#(!s!s#%#'!r!o#(#'!r#(!r#'#'!o!r#(#(!o#$!r!r!s#$#$!r!r!r#'#$!o#'#'!s!p#'#(!r!r#'!r#'#'#'!r#(!r#'!o#'#'!o!s#%#(#$#'#$#(!r!r#)#'#'#'!o!r!r#'!r!r!o#(#(#(!v!r#(!r!r#'#'#(!r!r#'#)#)#(#'#(!s#(!r!r!r!o#'#(!r!r#'!p#'!r!o!o!o!o#(!p!r#'!r#(#'!s!o#'#$!r#(#'#'#'#'#)#(#(#)#'#)#'#(!v#*!s!r#'#$#'#'#)!r!o!r#$!s!r#'#'!s#(#'#(!r!r#'!o#'!r!r!v#'!r#'#(!A!6!;!B#/#+#E                                                                    ",
"                                                              #g#g#f#g#^#N#T#R#V#G!}#%#$#(#(#'!r!r#)!r#$#'!r#(#$#'!o#)#'#(#'#(!r#'#'!o!o!r!r#(#$#$#'!s!o!o#$#$!s#'#'!o#'#'!r!r#'#(!r!r!r!r!o!r!r!o#'#(!r!p#(#'!r!r!r!r!o#(!r#(#(!o!r!r#'!n!r!r#'#'#'#'!u#'#'!v!r!r!r!r!o!s!r!r!s#'#'!r#(#*!r!r#'!r#'!r#'#(!o!s!o#(#%!o#'!p#(#(!r#%#(#'#'#'!r#(#$!o!o#'#'!r#'#'!r#*#'!r#*#'#(#(#'#(!s!s#'!o#'#*#'#'!r!s#(!r#'!s#'!r!s#'#(#(#'#'#*!r#'!r#(#'#(!A!6!6!A#.!x#5                                                                      ",
"                                                                #g#g#f#g#]#N#T#R#V#G#4#$#(#'!o#'!o#'#'!r#(#'#(#%#'!r!v#'#'!s!r!s#'#'!r!o#'!s#'#'!r#'#'#$!o!o!r#'!o#'!r#'!o#'#'!r#*!v#'!r!r#(!r!r#'!r!s!s#'!r#'!o!o!r!o!o#'!o!r#'!s!r#'#'#'!r!r!r#'!r!r#'!r#)!r!r!r#*!r!r!r!r!s!s#'!r!r!r!r#'!o!r#(#'!r#'#'!r#'#$#(#(!o!o#(!o#'#$!o#'!r#$#$#%!r!r!o#(#'#(#$#(#'#(!r#*#'#*!r#'#'#'#'#(#'#(#'!s!r#(!r#(!r#(#*#(#(!u#'#%#'!s#(#'#'!s#%!r#'#'#*!A!;!;!A#.#-!}                                                                        ",
"                                                                  #g#g#f#g#[#N#T#R#V#G#4!o#$#(!o!r!r!s!v#'#(#(#'#(!s#'#'!r#'#'#'!s#(!p!p#(#(#'#'!r!r#'#$!o!o!r#(!o!s!r#'!o#'#(#(!r#*#'!u#'#(!r!r!s#(#'!r#(!r#'!o!o!r!p!o!o!o#'!q!o#'#'!r#)#'#'!r#'!r!r#'!r#(!r!r!s!r#'#)!r#(#*!s#)#*#'#*#'#'!p!r#(#%#'#'!r#(#'#$!o!o#%#%!o#$!r!o#'!r!r!r#'#'#'#(#%#(#'#'#'#(#'#(#'#(#(!s#'#(#'#(#'#'#'#*#(#(#'#'!r!r#'!s!r!r#(#*#'!r#%!r#'#'!r!s#'#'#(#(!@!<!;!A#/#.#3                                                                          ",
"                                                                    #g#g#f#g#[#N#T#S#V#G#4#%#$#'!s#'!r!r#(#'!o#*#'#(!r#'#'#'!r#'#(!r#'#$#'#(#'#(#'!r#'#'!r!o!o!o#(!r!r!o!o!r!o#'#$#'!r!v!v!s!r!s!r#'!r#'!r!n!s!o!o#'!r#$!o!n!o#'!r#'#%!r!u!r#*#'!r#(!s!r!r!r!v#*#*!r!r#'#'!r#(!r#)#)#'!u!r#(#(!r#'!o#'#'#'!o!o!o#'!o#%!o!o#%#%!r#'!r!r#(#'!r#'#'#'!r#(!o#$#(#$!s!r#'#*#'!r#'#(!r#'#(!r#(#(#(#'!r#'!r#(!r#(#*#(#'!r!r#(!r!o!r!o#(#(#(#(!@!<!<!F#0#0#D                                                                            ",
"                                                                      #g#g#g#f#[#O#T#R#V#G!}!o#(#)!s!r#'#'#'!r#(#'#'!s#'!r!o#'#'#$!o#'!r#'#)#*!s!r#(!r#'!o#'!o!r#%!o!s!r!o!r!o###(#(#(#'#$!r!r!r#'#(#'#'!r#)!r!r#$#'#'#$!o#'!o!o#'!r#(#'#*#*!r#'#(#'#(!s!r#'#'!r!r#'#)!r#'#*!r#(#(#)#*#*#)!s#(#'#(!r#%#'#'!o!o#'#(!r!o#$#%#(#'#(#'!r#'#(#(!r!p!o#'#'!p#$!o#'!r#(#$!r#(#(#)#'!s#(!s#(!r#(#'!s!r#(#'!r!r!r#'#'#'#'!p#(#'#'#'!p#'#$#'#(!@!<!>!G#0#0!}                                                                              ",
"                                                                        #g#g#g#f#[#O#T#S#V#H!}!o#%!v!r#'!s#'#'!p!r#$#$!r!r!r!r!r#'#(#'#(#(#)#)!s#)#'#(#$!o#'!s!s#'#'!r!r#$!n!r!s!r#(!r!r!n#(#(#$!r#'#)!r!u#(#'#'!r#'#$#(!r#%#'#'!o!o!s#'!r!r!s!s#$#'#'#$#'#'!r#'!r#'#'#'#$!v#'#)!r!s!r#'#'#'#(#(!r!o#(#$!r!o!o!o#$#'#$#%#$#(#(#(!r!r!s!r#'#(!r#%#'#'#'#'!s#%#'!o#'#(!r!r#'!s!s#'#'#(#'#'!r#'!s#*#'#'#(#'#'#)!r#'#(!o#'#(#'#%#'!o#(!@!>!A!x#2#2!}                                                                                ",
"                                                                          #g#g#g#f#[#N#T#R#W#H#5#+#!#*!r!r#(!p!r#'!r#(#'#'#(!o#(#'#'#(#(#)#*#*#A#)#'#*#'#(!s#(#'#'!r!r#'#$!o#$!r!o#'!r!o!r!o!r!r#'#'!r#(#*#'!s!s!r!r!o#$!s!o!s#%!r!o#'!r#(#(#'#'!r!r!s!r!s!r#(#'!v#*#)#'#(!r!o#*!r#(#'#*#'!r!r#(#(#'#(#'!r!o!o!o!o#$#'!r!o!o#'#'#'#'#(#'!r#'#(#'#'!s#'#'!s!o!o!r!r!r!s#'!r#'#*!r!s#'#*#'!r#(#'#'#'!o#'#*!s#'#'!s!r#'#'#(#'#@#(#%!@!>!@#.#C!|#6                                                                                  ",
"                                                                            #g#g#g#g#[#O#T#R#W#I#6#-#!!v!o#'!o#$#'!r!s#(#'#'!o!r#'#'#*#'!v#*#*#*#)#*#*#)#*#*#'#)!r#'#)#'!s!o!o!o#'#$#(!o!r!r#(#(#(#*#)!r!r#)!u!r#'#$#$#$#(!s!s!o!o!r#'#)#'!s!r!r!o!s!s!o!s#'#(!r#'!r!r#'!r!o#'#*!r#'#'!r!o!s#'!o#(#(#'#(!s!o!o!o!o#'#'!o!o#'!s#$#(#(#(#'!r#(#'#'!r!s!o!r!o!r#(#(!r!r#'!r!r!r#(#'!r#(#(#(#$#(!s#*#'#'#(#(!r#'!o#(#'#(#(#(#$#%#(!A!>!F#/#3!|#5                                                                                    ",
"                                                                              #g#g#g#g#[#N#T#R#W#J#8!z#!!u!s!o!o#(!r!s#(!r#%!o!r#'#)!r#)#'!u#)#)#*#)!u#*#'!r#)#'#'#'#'#'#'!r#$!r#$#%#%!o!o#'!o!s#'#'#'#'!r#(#'#'#'#'!r!s!s!s#(!o!o#(!r#'#'!r#(!r!o!o!r!o#'!r#'#(!r!o#'!r#'!s#*#'#'!r!r#%!r#'#$!r!s#'!r!r!o#'!r!r!r#'!o#'!o!o!o!o#'!r!r#'!r!r!s#@#(!o#'!r!r#'!p#(!r#*!r!r#'!r#(!r#'#$#'#(!r!s#'#'#'#(#(#(#(#$#(#%#'#%#(!r#(!r!A!A!G#0#3#3#6                                                                                      ",
"                                                                                #g#g#f#g#]#O#S#R#W#K#:!{!l#'!r#$!s!s!r#'!r!o!o!r#'!r#*#(#'#*#*#)#)#*#'!s!r!r#(!r!r#'#(#'#$!r#$!r!o!p!s!o!r#'!o!s!s#'#(#'!r!r#'#'!s!r!r!r#'!r#%!r!r!r!r#'#'!r#'!r#$!o!o!r!o!r#'#'#(#'!r#(!r!r!s#(#'!o!s#(!r#'!o#$!s#'!p#'#'#$!r!r#'#(!r#'#'#$!r!r#'#'#$#$!o#(#(#'#'#$#'!o!o#'!r!s#'#'#'#'#)#'!r!o#(#(#'!o!r#)#'#(#(#'#'#(!r!p!r#'!r!p!r#(!D!A!@!x#2#4#3#8                                                                                        ",
"                                                                                  #g#g#f#g#^#P#S#R#V#M!~!|#!#$#*!r#'!r!r!r#(!r#)#'!r#'#(#'#*#*#*#*#*#)!r!o#'#'!n!r!r#(#(!r!o#$!r!o#$!r#%!r#'!r#$!o#(!s!o#'#'!r#'!o!o!r!r!r!r!r!r!s!r!r!r#(#'!o#'!r!p#'!r#(#(#(#'#'#'#'!r!r#'!u#'!p!o#(!r#'!p#$!o#'#(#'#$#%!r!r#'#'!s!r#'#'#'!r#$!r!r!r#'!r#(#'#(#(#'!s!o!r#(#(!r!r#*!r#(#'#'!r#(#'#(#'#$#%#'#'#(#'#(#'!s#'#%#'#$!r!s#%!C!A!B#/#3!}#3#9                                                                                          ",
"                                                                                    #g#g#f#g#_#R#Q#S#U#R#G#D#+!l!u#(#$#$!r!r#'#'#'#'!o#'#'#'#*#)#)#(!r#(!r#'#'!s#(!s#'#'#$!o#$!o!r#'!r#'#$#(#'#'#%#$!r#$!r!r!r#'!r!r!r!r#'!r!r!o!r#$!r!r#(!s#'#(#'!p#'#'!r#$#'#$#'!s#(#(#(#*#)#*#(!r!o#'#'!r!r#'!r!o!r#'#$!o!o#'#'!o!r!o#$!r!r!r#'!o!r#'#(!r!r#'!r!r!s!r!r#'!r#'!r#'!u#(#'#(#%#'#(!r!r#'#'#)#'#(#(!r!r#'#'!o!o#$#(#'!B!@!G#0#4#5!}#;                                                                                            ",
"                                                                                      #g#g#f#g#a#X#P#S#S#V#H#E#.!l#'#(#$!r#*!r#'#(#'!r#'#'#(#'#'#(#(#%#%#(!o#(#(!r#%#&#$#$#(#'!o!o!r!r!r#'#'#'#'#$#'!s!o!o#$#(!r#(!o!r!r!r!r!o!o!r!o!r!r#(!r#'#(!o#$!s!o!r!r#$!o!p#'#'#(#'!s#'#'!r!r!r!r!o!r!r#(#'!r#'!o!o!o#$#'#(#$#'#'!r!s!s#(#(!s#(!r!s#'#(!s#'#'#'!r!s#(!r#'!s#'#(#'#'!s#$#'!r!r!r!r#'#(#'#'#'!o!o#'!o!r!r#%!r!B!C#.#C#D#5#5#G                                                                                              ",
"                                                                                        #g#g#f#g#c#Y#O#S#S#W#K#:#2!l!o!r!s#'#'#'!r#(#(#'!r!r#(#(!r#'#$#'#(#'!o!r!o#$!o#$#'#(!o#$!o!o#'#(!s!r#(!s!o#$!r#(#'#(!r#'!r!r!r!o!r!r!o!r!r!s#'!s#'#(#'!o!o#(!r!o#$#'!o!r#'#(#*#(!r#(#(#(#$#'#(!s!r#$!r!r#(#(#'!o!o#'!o!o#'#'#%!o#'!o#'#$!o#'#'!o#'#'#(#(#(!u!r#'#'#'!r#(!r!r!v#'!o!r!o!s!s#'#@!r#'#(#'!r#'#(!s!o#'!o#(!C!C!u#/#3#5#5#E#I                                                                                                ",
"                                                                                            #g#f#g#e#[#O#S#R#V#M#<#4!w!l!u#*#'!r#'#(!o#(#'#(#'#(#(#(!r#'!o!p#$#$#$!o!o!o!o#$#(!r#(!r#'#'!o#$!s!o!o#'!r#'!s#'#(!r#*#'!r!r!o!o!r!r#'#'!r!r#(!r!o#'#'!o!p#$!o!o!q#'#(!r#'#'#'!s!r!r#'#'!r#'!r!r#'#'#'#'!s#(#'!o#(!o!r!s!o!o!o!r#'#'!o#$#'#%#'!r#'#'#(#'!u#*#'#(!o!s#'#$#(#(#$!p#'#(#(#'#*#*#(!o#'#'#'#'#(!r#'!s!D!C!x#1#4#6#5#9                                                                                                    ",
"                                                                                              #g#f#g#g#^#R#Q#S#T#U#H#7#0# #(#)#'#(!u#'#(#'#(!r#'!r!r#'#%#'!r!r#$!o#'!o#$!o#$#'#(!r!r#'!o#'#(#'#$!o#$!r#'!s#'#(!r#'!r!r!r#%!o!r!r!r!r!o#$!r!r#'#'!p!o!r!o#$!o#$#(#'!r#'!u#(#'!r!o#'!s#(#*!r!r#(#(#'#'#(!s!r#(!o#$#$#'!o!o!o#'!r!r!r#'!r!o#(!r#'#'!r#(#'!r!r#'!r!r!o!r#$!r!o#$#(!r!r#(!r!r#'!p#'#$!r#(!r#'!v!o!u#/#3#5#6#6!~                                                                                                      ",
"                                                                                                #g#g#f#g#a#X#O#S#S#W#K#;#3#)!m#*#*#'#*#'#'#(#$!r!p#(#'#'!s#'!r!o!o!r#'!o#$#'!r#'!s!r!o#$#(!r#'#'#$!p!p#(!r#'#*#'!r!r!r!o!r!r!r!r#(!r#'!o!r!r!o!o!o!r#(#$#'#'#$#$!o!s#'#'#'!r#'!o#(!r!r#'#$#(!o#'!o#'#'!r!r!r!o#$!s!s!s#%!r!r!s#'!r#'#'!r#(#(#'#'#(!r#'!s#'#'!r!o!r!r!o!r!r#(#*#'!u!r#'#'#'!r#'#'!r#(!r!o!r!x#2#4#6#6#7#G                                                                                                        ",
"                                                                                                  #g#g#f#g#c#[#O#R#S#V#R#G#6!z!m#(#)#)#'#'#'#$#'!o#$!o!r#(#'#'!o!r!o#$#$#$#'#'!r#$#'!o!o#(!o#'#$!r#'#(#'#'#*#(#'!r!r!r!o!r!o#(!r!r!r!n!r#(!o!r!r!o#'#'!r#(#(!o!o#'#$!o!o#$#(#$#(#'#%!r!r!r!r!r!p!o!r!r#(#(#'!r#(!r!s!r!r#%!o!r#(!r#'!o#(!s!r!r#'#(#'!r#(#'#'!r!o!o#$#'!r!r#'#'#*#(#(#(!r!s#'!r!r!r#$!r#,#/#3#5#E#6#:#L                                                                                                          ",
"                                                                                                      #g#f#g#g#_#T#P#S#S#W#K#;#4#-#!#*!u#*#'!r!o!o!o#(!s!r#(#(#(!o!o!o#(#'#'!o!o#$!r!r!r!o!o#$!o!r#(#)#'#*#'#(#'#'!r!r!r!o#'!r!r#'!r!r#'!s!r#)#'!o!o!o#)#(#'#$#%#$#$!r#$#'#$#'!o!r!p!o!r#'#'!r#(!r#'#'#'#'!r!r#'!o#(!o!p#(!r!o!r!o#$!o#$#'!s#'#'#(#)!s!s#'!r!o!r!p!r#(!o#'#*#@!v!r#'#'!s#'#'!r#'#'!w#.#2!}#E#7#7#F                                                                                                              ",
"                                                                                                        #g#g#f#g#b#Y#O#S#S#V#R#H#7#1#%#!!v#*#'!o#$!o#(!r#'!r#(#'!o!s!p!s#(!r#%#'#(!r#'#$#$#$!r!r#%#'#(#@#'#(#(#'#'!r!r!r#(#'!r!o!o!o!r#(!r#'#'!o!r#(#'#'#(#'#(#%!p#'#$#$!r!o!r!r!o!o!o!r#(#(!r#(!r!o!r#'!o!o#'!o!s!r!p!p#%#%#'#'#(#(!r!r#'!p#*#'#'#'#(!o#'#'!r!s!r!r!p#$!r#(#(#'#'#'!r!r#(!o#%#)#.#1#4#6#8#7#:#J                                                                                                                ",
"                                                                                                          #g#g#f#g#f#]#R#P#S#S#W#L#F#5#.!l#%#)!o!o!p!o!r#'#'!s#(#(#'#(!r#'#(#%#'!r!r#'!o!s#$!r#'#$!r#'#(#)#)!s!r!o!s#'!o!r!r#'#'!r!r#'#'#'!r!s!r!o#%#(#'#'#(!o#'#(#$#'!r#$#'!p!o!s#(!r!r!r#(!r!r!r!r#(!r!r!r!n#$!r!r!s#'!r!o#(#'#'!u#'#(#'!o#'#'!o#(#(#'!o!o#'#%!o#'#$#'!r!s#(#(#(#'!r!r!r#(#-#0#3#5#8#9#8#<#[                                                                                                                  ",
"                                                                                                              #g#f#g#g#a#Y#O#R#S#U#U#I#:#3#-!l!p#*!r!o!o#'#'!o#(!o#'#'#'#(#'!s#(#'#(#(!r#'#'#$#'#'#'#'#'!r#'!r#'#'#(#(#(!n!o!s#'!r!r!s!r#'!r!r#'!r#'#'#'#$#$!o#'#$!o!r#'!o!r#'!r#'!u#'!r#'!v!r#'!r!o!r!r!r#(##!o!r#'#'!r!r#*#'!r#*#*!u!r#'#'#'#(!s#(!r#(#'!r!p#(!r#'#(!o#'!r#(!r!s!r#(#'#-#/!|#5#7#9#9#;#J                                                                                                                      ",
"                                                                                                                #g#g#f#g#g#^#U#O#S#S#W#P#H#8#C!u# !o#*!r!n#$!s#(!o!o#(!r!r#'#'!r#'#'!s!r!r#'#%!r!o#'#*#'#'!r!p!r#(!r#'!r!o!r!o#'!r#'#(#%!r!r!o!o#'!r#$#'!o#'#(!r!o!r#(#$!r#'#'#)!o!s!p#'#'!s!s#'!r!r!r#*!s!s!r!s!p#%#(!s!r#*#*!r#(#*#*#'#(#*!r!r#(#'#'#)#(!r!r#(!r#(!s!s!o#(#'#(!s#*!x#/!|#5#7#9#:#:#G#]                                                                                                                        ",
"                                                                                                                  #g#g#f#g#g#b#[#P#P#S#T#W#L#G#7#2!u!l#%#*!r!r#%#$#'#(#$#'#'#'#'#(#*!v#(#(!s!r#'#%!s!r#(!r#(#(!r!r#'!s#'!r#'#(#'#(!r!r!r!o!r#$#'!r!p#$#$#'#'#'!q!o#$#$!r!r#*#'!r!r#'!r!r#'#)!s!r!r!r#'!r!r!r!r!o!s#(#(!o!o#'!r!u#*#*#*#'#(!s!r!r#(!r!s#'!u!u!o!o#$!r#'#'!s!o#'#*!x#/!|#5#7#9#;#:#<#L                                                                                                                            ",
"                                                                                                                      #g#g#f#g#g#`#Y#O#R#S#U#W#L#G#E#2!v# !o!r#(#'#'#(!o#$!r!r#'!o!r#'#$!r!s!r#(!r#'!r#(#(#(!r!o!o#%#'#(#'#'#'#'#(!r#'!o!r!r#$#$!r!p!r#'!o!r#'!o!o#$!o!r!r#'#(!r#'#'#'#'#'#'#*!r#(#$!s!r!r#'!r#'#'!r!o!r#%#'!s#(#*#)#*!r#'#'!r#'#(!s#'!r!u#'#(#'!s!r#'#(!p!r!x#0#3#5#7#:#;#;#F#J                                                                                                                                ",
"                                                                                                                          #g#g#f#g#e#^#X#O#R#S#U#V#L#<#E#2#+# #!!u!r#'#(#$!o#(!o!r!r!r#'!r!r!s#'!s#(!r!p!p#(!p#'#(!r!o#'#(#'#*#(#'#(!r!r#'#'!o!o!o!o!r#'!o!o#'#$!o!o!o#%#(#(#(!r#'!r#'#(!s!r#(#(!r!r!r!r#(!s!r#'#%!r!n#$#(#'!s!r#)#*#*!v#'!r!s!r!r#(#'!r#'#(#(#(!r!p!s#,#.#0#3#5#8#:!~!~#F#I#]                                                                                                                                  ",
"                                                                                                                            #g#g#f#g#g#c#]#T#O#R#S#V#V#L#G#7!|#-#!#!#'!r#'#$!o#%!r!r!r!r!r!r!s!r!s!o#%#'#'!s!r#'#'!s#(!r!s!r#(#'#'#%!o#'###'!r!o!o!s#'#$!p#'#$!o!D!o#'#(#'!s!r#(!o!o#)#(#'#'#'!s#'!r#%#(!r#'#*!r!o!r#'!o!o!o#(!v!r#(#'#)!r!s#'#'#(!r#(!r!r#'#$#'!r#-!z#2#4#6#8#;!~#F#<#I#[                                                                                                                                      ",
"                                                                                                                                #g#g#f#g#g#b#]#S#O#R#S#V#V#L#G#9#4#/#%# !o#'!r!o!o!r#'#'#'!o#'#(!o#'#%#$#(!n#'#'!r#$#(#(#(#)#'#'#'#'#'#(!r#'!r!r!o!r#'!s!s!s!r!r!r!o#'!r!s!o#(!s#$#(#'#'#'#$!o!r!n!r!r!r#(!r!r#(!r!r#'#$!p#$!o#'#'#(#(!r#(#'#(#'#'!u!r#(#(!o#*#.#0!|!}#E#9#;#F#F#<#I#[                                                                                                                                          ",
"                                                                                                                                    #g#g#f#g#g#b#[#T#O#R#S#V#W#M#H#;#5#2#-!l!m#$!r!r!r#%#'#(#'!r#'#'!r#$#$!r#(#(!s#'#(#(!r#'#(#'!r#(#'#(#'#'#%!s!o!o!r#(#'#'!o!r!r#(#'#(#'!r!o!r#$#'#'!o#'!o#$!o!o!o!r!s#'#'#'!s#(#$#$!p#(#(!o!p#%#'!r#%!s#'#(!u!s#'#$!r#-#/#2#3#5#8#;#F#<#<#G#I#Y#g                                                                                                                                            ",
"                                                                                                                                        #g#g#f#g#g#b#]#U#O#Q#S#U#W#R#J#<#8#4#/!r# !m#%!r#*#'!p!s!r!r#%#$#(#(#'#'#'#(#'#(#'!r#$#)#(#$#'#(#(!o!o#$#(!o!o!o!r#(!p!r#'#*!s#(#(#(!r!o#$#'!r!o#(!o!o#'!r#$#$!s!r!o!r!r#%#%#%#(#'!r#%!s#%#$#$!s!r#*!s!o#$#,!y!{#3#5#7#9!~#<#G#G#G#K#]#g                                                                                                                                                ",
"                                                                                                                                            #g#g#f#g#g#b#]#X#O#P#R#T#W#V#L#H!~#E#3#/!r!l!m!m#*#*!r#'#'#(!o#(!s#'!r!r#$#$#(!r#'#'#(#(#'#'!r#%!o!o!o#$!o!o!o!o#'!r#(!r#'#'!o!s!r#'!r!r!r!o!o#$!o!r!r#$#'!r!r#'#(!r!p!o#'#'!o#$#$#'!r#'#(#$!o#'#-#.!{!|#D#6#9#;#<#G#G#G#I#M#^#g                                                                                                                                                    ",
"                                                                                                                                                #g#g#f#g#g#d#_#Y#R#O#Q#S#U#W#S#K#H#;#6#3#/!w#!!l#!!o!r#'!r#(!r#'#'!r!o#(#$#(#'#'#(#(#'#(#$#$#(#(#$!p#$!o!o!o#(!v!r!r#'#'!r#(#*#'!s!r!r#'#'#'!r!r!r#'!o!r#)#'!r!r!r!o!r#(#'#%!s#'!p#$#(!x!z#1#3#D#6#8#;#<#G#H#H#I#K#X#a#g                                                                                                                                                        ",
"                                                                                                                                                    #g#g#f#g#g#g#a#]#V#N#O#R#T#V#W#R#K#H!~#7#4#1#.!o!l# !o#(#)!u#*#$#$!o!o#%#'#'#'!r#$!o!o!o!o!o!o!o#$!o!o#(#(#'#(!r!r!s!v!r#(!s#'!r!o#'!r#'#'!r#'!r!r!s!s#'#$!r#'#(!r#%#!!m!o#,#.#/#2#3#5#7#9!~#<#G#H#I#I#J#N#]#d#g                                                                                                                                                            ",
"                                                                                                                                                        #g#g#f#g#g#g#c#_#Z#S#N#P#R#T#V#W#S#L#I#<#9#6#3!{#.#*#!!l#!#!!o!r#'#*#)#'#(#(#'!s!o#$!o!o#$!o!o!n!o#'#'#*#'!r#(!r#*#)#'#(!o!r!o!r!r!r!r#'#(#'!r#'!r!r#'#%#!!m!s!w#.#/#2#3#5#6#8#:#F#G#H#I#J#J#J#M#[#a#g#g                                                                                                                                                                ",
"                                                                                                                                                            #g#g#f#f#g#g#g#b#^#Y#R#N#O#R#T#V#W#U#M#K#H#F#9#6#4#C#0!x#*#!# #!#!#!#(!r!r!r#'!r!r#'!r!r!o!r!r#'#(#'#'#*!v#*#)#)#*#'!u!r#'!r#)!u!r#'!o!p!o#$#$#'!w!x!z#1!|#4#5#E#8#;#F#G#H#I#J#K#K#L#O#Z#`#g#g#g                                                                                                                                                                    ",
"                                                                                                                                                                  #g#g#f#g#g#g#g#a#]#Z#S#N#O#Q#S#U#W#W#T#M#K#H#<#;#8#6#4!|#1#/#.!w#'!m!l!l#!#!#!!l#!!p!p#$#'#(#(!r#'!r#'#*!s#$!m!o#!#!!m!m#$#%!u!w#.!z#0#1!|#4#5#6#7#9#;#<#G#H#J#K#L#L#L#M#X#[#`#e#g#g#g                                                                                                                                                                        ",
"                                                                                                                                                                      #g#g#g#f#g#g#g#g#b#^#[#X#Q#N#O#Q#S#U#W#W#V#Q#L#J#H#G!~#:#8#E#5#4#3!|#1#0#/!y!y!x#+!u#,#+#+#,!u#,#,#+#-!y!y!y!z!z#0#1#C#3#4#D#5#E#8#9#;!~#<#G#H#=#K#L#M#N#N#P#W#Z#^#a#f#g#g#g#f                                                                                                                                                                            ",
"                                                                                                                                                                            #g#g#f#f#g#g#g#g#d#`#]#Z#W#P#N#N#P#R#T#V#W#W#V#S#M#L#K#I#H#G#<!~#;#:#8#8#7#6#6#5#5#5#5#5#5#5#5#6#6#E#E#7#8#8#:#;!~#<#<#G#H#I#J#K#L#N#P#R#Q#P#Q#V#Y#]#`#c#g#g#g#g#f                                                                                                                                                                                  ",
"                                                                                                                                                                                  #g#g#g#f#f#g#g#g#g#c#a#^#[#Y#T#O#N#N#O#Q#S#U#V#W#W#W#V#T#Q#N#M#L#K#K#J#I#I#H#H#H#H#H#H#H#H#I#I#J#J#J#K#L#L#M#P#R#T#U#T#S#Q#P#P#S#X#Z#]#`#b#g#g#g#g#g#f                                                                                                                                                                                        ",
"                                                                                                                                                                                          #g#g#f#f#g#g#g#g#g#f#b#`#^#[#Y#X#S#P#N#N#N#O#P#Q#S#T#U#V#V#W#W#W#W#W#W#W#W#W#W#V#V#V#V#V#V#U#T#S#R#P#O#O#O#Q#V#Y#[#]#_#a#d#g#g#g#g#g#f#f                                                                                                                                                                                              ",
"                                                                                                                                                                                                  #g#g#f#f#f#g#g#g#g#g#g#d#b#`#_#]#[#Z#Y#X#U#S#Q#P#P#O#N#N#N#N#N#N#N#N#N#N#O#P#P#P#R#S#W#X#Y#[#]#]#_#a#c#g#g#g#g#g#g#g#f#f                                                                                                                                                                                                      ",
"                                                                                                                                                                                                          #g#g#g#f#f#f#g#g#g#g#g#g#g#g#g#d#c#b#a#`#`#_#_#_#_#_#_#_#_#_#_#_#_#`#`#a#b#b#d#f#g#g#g#g#g#g#g#g#f#f#f#f                                                                                                                                                                                                              ",
"                                                                                                                                                                                                                    #g#g#g#f#f#f#f#f#g#g#g#g#g#g#g#g#g#g#g#g#g#g#g#g#g#g#g#g#g#g#g#g#g#g#g#g#f#f#f#f#f#g                                                                                                                                                                                                                        ",
"                                                                                                                                                                                                                                    #g#g#g#g#g#f#f#f#f#f#f#f#f#f#f#f#f#f#f#f#f#f#f#g#g#g                                                                                                                                                                                                                                        ",
"                                                                                                                                                                                                                                                                                                                                                                                                                                                                                                                                "};
