/* XPM */
static char * ixcoin64_xpm[] = {
"64 64 256 2",
"  	c None",
" !	c #FFFFFF",
" #	c #FFFEFE",
" $	c #FEFEFE",
" %	c #FEFDFD",
" &	c #FDFDFD",
" '	c #FDFDFC",
" (	c #FDFCFD",
" )	c #FDFCFC",
" *	c #FDF9F9",
" +	c #FBFFFF",
" ,	c #FCFCFC",
" -	c #FCFCFB",
" .	c #FCFBFB",
" /	c #FBFBFB",
" 0	c #FCFAFA",
" 1	c #FBFAFA",
" 2	c #FBFAF9",
" 3	c #FAFAFA",
" 4	c #FBF9F9",
" 5	c #FAF9F9",
" 6	c #FBF8F8",
" 7	c #FBF3F3",
" 8	c #FBECEC",
" 9	c #FADFDF",
" :	c #F8F8F8",
" ;	c #F4F4F4",
" <	c #F3F0F0",
" =	c #F6E8E8",
" >	c #EAE8E8",
" ?	c #F3DFDF",
" @	c #E8E7E7",
" A	c #E6E4E4",
" B	c #E4E0E0",
" C	c #DCDDDD",
" D	c #8BEAEA",
" E	c #F8D2D2",
" F	c #FACFCF",
" G	c #D6D2D2",
" H	c #F9C8C8",
" I	c #DEC7C7",
" J	c #FBB9B9",
" K	c #CFC9C8",
" L	c #CAC6C6",
" M	c #C8C5C5",
" N	c #C7C1C1",
" O	c #C3BDBD",
" P	c #BEB6B6",
" Q	c #FBACAC",
" R	c #F8A2A2",
" S	c #DFA9A8",
" T	c #F49898",
" U	c #F98C8B",
" V	c #AD9F9F",
" W	c #AB9A9A",
" X	c #A79898",
" Y	c #A19191",
" Z	c #9B8D8D",
" [	c #F98080",
" ]	c #F57D7D",
" ^	c #FC7373",
" _	c #D97B7B",
" `	c #997A7A",
" a	c #F96464",
" b	c #F75655",
" c	c #DA5B5A",
" d	c #A85B5B",
" e	c #8E7B7B",
" f	c #8E7474",
" g	c #8D7070",
" h	c #8D6A6A",
" i	c #895655",
" j	c #895251",
" k	c #836E6E",
" l	c #7E6161",
" m	c #765A5A",
" n	c #445858",
" o	c #FC4343",
" p	c #F73F3E",
" q	c #DB4544",
" r	c #F73433",
" s	c #E43737",
" t	c #FC2C2B",
" u	c #FD2626",
" v	c #EE2625",
" w	c #D12726",
" x	c #D42221",
" y	c #F81A1A",
" z	c #F31515",
" {	c #F51312",
" |	c #FA0E0D",
" }	c #F40F0E",
" ~	c #EB1B1A",
"! 	c #E81817",
"!!	c #EF1110",
"!#	c #E11212",
"!$	c #9A4040",
"!%	c #9A3B3B",
"!&	c #B32F2F",
"!'	c #7E4646",
"!(	c #883A3A",
"!)	c #AA2525",
"!*	c #A61313",
"!+	c #752020",
"!,	c #801110",
"!-	c #684C4C",
"!.	c #674646",
"!/	c #663939",
"!0	c #5F3838",
"!1	c #452F2F",
"!2	c #601A1A",
"!3	c #641515",
"!4	c #641110",
"!5	c #5C2424",
"!6	c #00111A",
"!7	c #FD0B0A",
"!8	c #F80B0A",
"!9	c #F90605",
"!:	c #F30A09",
"!;	c #F30706",
"!<	c #F10505",
"!=	c #FA0404",
"!>	c #F30403",
"!?	c #F00403",
"!@	c #F60302",
"!A	c #F20302",
"!B	c #F00303",
"!C	c #F00302",
"!D	c #FC0201",
"!E	c #FB0201",
"!F	c #FA0201",
"!G	c #F80201",
"!H	c #F70201",
"!I	c #F60201",
"!J	c #F50201",
"!K	c #F40201",
"!L	c #F30202",
"!M	c #F30201",
"!N	c #F20201",
"!O	c #F10202",
"!P	c #F10201",
"!Q	c #F00202",
"!R	c #F00201",
"!S	c #F00200",
"!T	c #EF0606",
"!U	c #EF0403",
"!V	c #EF0302",
"!W	c #EE0303",
"!X	c #EF0202",
"!Y	c #EF0201",
"!Z	c #EE0202",
"![	c #EE0201",
"!]	c #E50807",
"!^	c #E50403",
"!_	c #E80302",
"!`	c #EC0201",
"!a	c #E50201",
"!b	c #DD0403",
"!c	c #D20504",
"!d	c #C70504",
"!e	c #C30404",
"!f	c #BB0707",
"!g	c #AE0707",
"!h	c #A30706",
"!i	c #990706",
"!j	c #8B0605",
"!k	c #770A0A",
"!l	c #530908",
"!m	c #000606",
"!n	c #FB0101",
"!o	c #FA0100",
"!p	c #F90100",
"!q	c #F80101",
"!r	c #F80100",
"!s	c #F70101",
"!t	c #F70100",
"!u	c #F60101",
"!v	c #F60100",
"!w	c #F50101",
"!x	c #F40101",
"!y	c #F40100",
"!z	c #F30101",
"!{	c #F20101",
"!|	c #F20100",
"!}	c #F10101",
"!~	c #F10100",
"# 	c #F00101",
"#!	c #F00100",
"##	c #EF0101",
"#$	c #EF0100",
"#%	c #EE0101",
"#&	c #EE0100",
"#'	c #ED0101",
"#(	c #ED0100",
"#)	c #E90101",
"#*	c #E20101",
"#+	c #E00101",
"#,	c #DE0100",
"#-	c #D90100",
"#.	c #D40100",
"#/	c #CF0101",
"#0	c #C90100",
"#1	c #BE0100",
"#2	c #B20100",
"#3	c #A60100",
"#4	c #9F0100",
"#5	c #980100",
"#6	c #8F0100",
"#7	c #880100",
"#8	c #1A0101",
"#9	c #FF0000",
"#:	c #FB0000",
"#;	c #F80000",
"#<	c #F70000",
"#=	c #F60000",
"#>	c #F40000",
"#?	c #F20000",
"#@	c #F10000",
"#A	c #F00000",
"#B	c #EF0000",
"#C	c #EE0000",
"#D	c #EC0000",
"#E	c #B90000",
"#F	c #7E0000",
"#G	c #740000",
"#H	c #6C0000",
"#I	c #650000",
"#J	c #620000",
"#K	c #5E0000",
"#L	c #550000",
"#M	c #510000",
"#N	c #4E0000",
"#O	c #490000",
"#P	c #420000",
"#Q	c #3D0000",
"#R	c #3A0000",
"#S	c #340000",
"#T	c #2B0000",
"#U	c #270000",
"#V	c #230000",
"#W	c #1F0000",
"#X	c #1C0000",
"#Y	c #190000",
"#Z	c #180000",
"#[	c #160000",
"#]	c #150000",
"#^	c #120000",
"#_	c #100000",
"#`	c #0C0000",
"#a	c #080000",
"#b	c #060000",
"#c	c #040000",
"#d	c #030000",
"#e	c #020000",
"#f	c #010000",
"#g	c #000000",
"                                                                                                                                ",
"                                                  !b!]!! z y u u t r r p b a ] T                                                ",
"                                          #4!d!]!7!7!7!8!;!?!Y#$#B#$!R!< } y t o a [ R E                                        ",
"                                      #5#/!@!=!>!P#B#C#B#B#$!R!Y!Y!R#$#$#B#B#B#C!U y o ^ R F                                    ",
"                                  #7#/!K!M# #$#$!Y!Y!R!R!R!R!R!R!Y!Y!R!R!R!C!C!C#!#C#D!T r ^ R E                                ",
"                              #L#2![!x###%##!R!R!Y!Y!Y!R!R!R!R!R!R!Y!R!R# ###$!R!R!V!B#!#C#C r [ J 8                            ",
"                          #Y#G#-!J!}#%##!R# # ##!R!R!Y!Y!R!R!R!R!R!R!R!R!R!R# !R!R!R# !R!?!Y#D!T b R 9                          ",
"                        #U#6!_!J#%#%### !R!R# !R# !R!R!R!R!R!R# !R!R!R# !R!R#!# !R!R!R!R!Y!Y!?#!#C v U E                        ",
"                      #U#4!N!}#&######!R!R!R# # !R!R!R!R!R# # ##!R!R!Y!R!R# # #!# !R!R!R######!Y!?#D!! [ F                      ",
"                    #V#3!w###%### # ##!R!Y!Y!R!R!R!R!R!R!R!R# # # ##### # # !R!R!R!R!R# # ####!R##!?#A!W ^ F /                  ",
"                  #W#4!G###%#$####!R# ##### # !R# !R!R# !R!R# # # #$#$# # # # # # !R!R!Y###$#$#####$!C###B a E                  ",
"                #]#6!v##!Y#$#$#####$# # # # ### # # !R!R!Y!Y!X!R# !R### # # !R# #$#!#!# #$#!# # #####!!V!Q#B ^ 9                ",
"              #`#G!}#!#%!R######### # # ##!R# # # !R!R!Y!P!v#@#B#%![!Q!Y##!R!R# #!#!# # # # # # # ##!R##!V!Y!T U =              ",
"            #d#N#+!x#%!R!R# # # #!# !R!R# # # #!# !R!R!}#)!# ~ |!=#=#?#B#%!X!Q!R# # # #!# # # # #!##### #$!V#B z Q 7            ",
"            #T#1!r#'# # # !Y# # # ### !R# # # # # !Y!y!b!,!' j!%!& x!  |!=#=#?#B#%!Y!Q!R# #!# # # # # # #$# !U#C p H .          ",
"          #_#7!q#(#$# # # #$# # ### # # # # # # # ![!p!g!- / A N X g j!%!& x!  |!=#=#?#B!Y# # # #!# #!###$!R!R!U#D ^ 9          ",
"        #f#O#,!z#&# # # # # # !R# # !}# # # # # # !Y!t!, e 1 ! ! ! # @ N X g j!%!& w! !:#?##!S# # # # ####!R# !V## z J 6        ",
"        #Z#4!o#(# # #!#!#!# #!# # #!!}# # # !R!R# !Y#>!f!/!. k M , . ! ! ! $ @ N X f i d s#?!Y# # # # !R# #!#$##!?#C b 9        ",
"      #d#N!a!|#$# # # # #!# !R# # #!# !R!P# # !P# #!# #A#.!g!k!- : $ . 1 1 ' ! ! ! ! > M d!H#%!R# #!!R!R# #$#$# !Y## } Q 6      ",
"      #[#4!n#(# #!# # #!# #!!R!}# # # # !P!R# # #!#!# !R!M#9!g!- 5 $ ) & & , ! G K ; ! Y!&!G![!R# !R!R!R# # #$# ##!U#B a 9      ",
"    #g#Q#-!x#%# # # # #!# # # !}!}!}# # # #!#!#!# # # !Y![!L!j f ! 4 ' ' . $ G!l!3!. k!+! #>!Y!R!R# # # # #!######!V#B z J .    ",
"    #`#G!G![# # # !}# # # # # #!# !}# # # #!# !}# #!!R!Y!M!^!4 P ! 5 ' ' 4 ! X!*!]!g#6#/!@#$# # # # # # !R!R# # !R##!V#B [ 8    ",
"    #W#2!F#'# # # # # # !}# #!# # #!# # # # # #!#!!R!R!Y!t!d!5 A ! . ' ) ) $ f w#:!H!G!M#!# # # # #!# # !R!R# # # #$!U#C p E    ",
"  #g#P#,!x##!R!P# !}!P# # # # !}!}# # !R!R#$#$#$![!V!V![!r!i m # ) ) ' . ! @ j! #A!W![### !R!R!R# # # # # # # # #!# !X#B!! Q .  ",
"  #b#H!w### !R# !}!P!P# # # # # # # #!# !R# #$!{!=#<#A#B!V!k Y ! 5 ' ' 1 ! O!%!8#C!R!R# # !P!P!R!R# #!#$# # # #!!S# !Y!Y#B U 8  ",
"  #_#6!D#(#!# # # !R!R# # #!#!# # # # # #!# !}!a!f x ~!7!]!2 K ! 1 & ' 1 ! Y!&!G#%!R!P!P!P!P# # !R# #!##### !R# #$!R##!?#C a 9  ",
"  #W#2!o#'# # # !}!P!}# # # #!# !}!P# # ##!{!_!,!' g j!$!i!5 ; # , ' ) $ : h x#>!X!R# # !P# !}!P# # !}# #$# # # # #!##!?#C p H  ",
"  #T#/!t#%#!# #!!P!P!}# # # !}# !}!R# # ##!v!d!5 ; ! B O h h ! 0 ' ' . ! G!$!!#C!V!R!R# # !R!}!P#!!}!}#!#!#!#!# # # # !C#C v J  ",
"#g#Q#,!x### # # # # !}# # !}# !R!R# # # ![#<!f!- M < ! ! ! ! ) ' ' ' 1 ! P d y!=#=#@!Y#!# !R!R!R# #!!}# #!#!#!#!# !P# !X#C z R  ",
"#f#O#)!{### # # # # # #!# !}# # # # #!#!#%!z#*!)!+!/ l W G 1 ) ) & ' - % K `!$!& w! !{### # # # # !P# # # #!# !}!}# # !Y#C!: T 7",
"#d#M!`!P### !}# # !}# #!#!!~# # # # #$##!~!^!h!+!%!)!,!4!- 3 & ) ' ' ' ! ! > M X ` Y v#?!C# # # !}!P# #$#!# # # # # ##!Y#B!< U 8",
"#c#L!Y!P### # # # # #!#!#!#!# # #$#!# ![!t!e!0 G L W `!4 h ! 5 ' ' - % @ A ! ! ! ! W w#>!V# # !R# # #!#!# # #!# #$# # !R#$!R [ =",
"#c#L##!~# !R# # # # !}# !}# # # # # #$![#;!i k ! ! ! ! G B & - & ' 5 ! g!2 l Z K G!' ~#@!Q# # # # # #!#!# #!# #!#!# !R!R#$!Q ] =",
"#c#M!`!N### !R!R# #!# # # !}# # # # !R![#=!g!. m Y K ; ! ! ' ' ' ) ) ) V!$!,!,!+!3!g!8#C!R#!#!# # #!#!# # #!# # # !R# !R#A!< ] =",
"#f#O!a!{### !}!}# #!#!# # #!#!# # !R# #$# #D!e!i!k!2!0 Z & . & & ' ' . A V ` i!$ q!:#A!R# # # #!#!# # #!#!#!# # # # # !R#A!: [  ",
"#g#R#-!J### #!# # # # # # #!!}# # #!# # #!# #=!s!C!c!4 e ! 5 ' & ' ) ! ! ! ! > G W ~#?!C# !P# # # #!#!# # #!#!### #!# !R#B { U  ",
"  #T#0!q#%# #!#!!P!R#!#!# # # # # # # # # !R#%!Z!J!^!2 L ! 1 ' & . ! g g O A ! > j z#A!Q# # # # # # # # # # #$###$#!#!!C#C y U  ",
"  #X#2!E#'# !R# !P!}# #!# # #!# # # !R# # !R# ![!t!f!0 < ! , ' , # ;!/#F!3!5 l!-!*!7#C!R# # # # !}!P!R# # # # #!# # #!!C#C r T  ",
"  #^#7!D#%# # # !R!}#!# # # #!# # # # # # !R!Y![!H!j l ! 0 ) ' 0 ! K!$ {#+!e!i#3!U!P# !}# !P# # # # !}!}# #!#!#!# !R# !C#B o Q  ",
"  #a#J!P# # # # !}!}# #!#!# !}!}!P!P# # #!!R##!P!`!4 V ! 5 ( ' 2 ! V!&!9!}!t!r!@#!# !}!~!~#!!}!}# #!!P!}!}# #!!}# # # #### b J  ",
"  #f#R#-!I### # !P!}!}!R!R# !}!P!P!P#!!R!R#%!Z!J!c!5 G ! / ' ) ) % f w#<!Z![![!Y!R!}# #!# !}!}!}!}#!!R!P!}!}!}# # # !R#B } a    ",
"    #X#3!n#'# !R!P!}!}!}!R#!# # # # # # !M!=#>#;!g!. 1 % , ' . ! @ j ~#?!Y!R!R# !R!P#!# # # # # # # !R# #!# # # # # !C#A t ]    ",
"    #`#H!u#%###!# # !~#!!R!~# # # # !R# #*!f w {!j e ! 5 ' ' 1 ! O!%!8#C!R!R!}!P!P!}#!!R!R# !R# # # # # # # # # # # !R#$ o T    ",
"    #d#S#/!H#&# #!# #!#!#!# # ###$#%!|!^!, m f!(#M L # 1 ' ' 1 ! Z!&!=![!R# # !P!P!}# !R!R!P!}# #!# # # # # # !R!R!O#B { b      ",
"      #[#7!n#'#!# #!#!# # # # #####%!t!e!0 : ! G K ! ) ' ' ) $ 6 f v#<#&!X!R# !P!}!}# #!!R!}!}!}!R# # # !R# # !R!R!O#B t ^      ",
"      #b#P#-!w###!# # # # #$# #!# ![#;!g m C 0 ! ! ! ' 4 2 . $ : W q! !:#?# !P!P!R# # # # !}# # # # #!#!!S# # # !R#A!: p        ",
"        #Z#6!n#'#!#!# # #!# #!# # !Y!z!c!+!5!. f P B $ ! ! ! . . G ` i d s#?!Y!R# # # # # !~#!# # #!#!# # # # # !R#C u b        ",
"        #b#R#/!G#%# # # # #!# # # !R###?#)!c!g!j!4!5!- e P > ! ! ! ! < M d!H![!R# # # # # #!!}# # # # # # # # !R#B } r          ",
"          #^#H!M# # # # # # # # # !R# !Y!A!v!p!I!_!d!h!k!3!0 m Y L < ! Z!&!q![!R# # # # # # # #!#!# # # # # # # !Y u s          ",
"          #f#V#4!D#'#!#!# # !R# # !R# # !Y##![!R!M!v!r!L!^!e!i!k!2!0 l!+! #?!Y# #!# # # # # # # #!# # # # # !R#C y ~            ",
"            #a#S#0!E#'# !R!R!R# # # # # # # # # ###%![!R!z!t!r!A!b!f#5#.!L##!R# # # # # # ### # # # # #!# !R#C!8 z              ",
"              #`#N#,!G!`# # !R# # !R# #!!R#!# # # # # # ##![!Z!R!x!t!G!M!R!P!P!R# # # # #!# # # # # # # !R#B!; |                ",
"                #]#K!_!u!`# # # # !R!R# # # !R!R# # # #!!R!R!R!Y!Y![![!Y!R!R!P!P# # # #!# # # # # # # !R#B!<!7#0                ",
"                  #Z#I#)!s#'# !R# #!# !P!R!R!R!R!R!R!P!P# # !R!R!R# ##!R# !P!}# !R# # # # #!#!# # # !R#$!>!7#0                  ",
"                    #Z#J#*!F#'!R# #$#$# # !P!P!R# !R# !P!R# !R# # !R# # # !P!P# # # # !R!R!R# # # # #&!@!9#2                    ",
"                      #[#M#0!D###%#!# !R# # !R# # # !R!R!R!R!P# # # !R!R# # # # # #!# !R# # # # ##!R!I!^#5                      ",
"                        #^#R#3!w!u#'##!P!P!P# # !R# !R!R!R!R!}!}# # !R!R# !}!P!R!R# # !R!R# ####!K!K#0#G                        ",
"                          #`#V#G#.!n!K#'### # !P# # !R!R!R!R# # !P# !R!R!R!R!R# !R# # !R!Y##!z!K#+#4                            ",
"                            #d#^#Q#6#+!D!u#%#'!Y#!#!# # !R!R# # !P# # # !R!R!R# #$###%# !w!x#*#3#J                              ",
"                                #a#Y#O#5#-!H!E!K#!#%#%#%##!R!R!R!R#!# # !Y![!Y### !x!q# #.#4#K                                  ",
"                                    #a#Z#R#G#2#,!x!n!o!s!x!{!P!Y##!R!R!N!K!s!F!p#$#-#2#G#P#]                                    ",
"                                        #d#`#W#P#H#5#E#.#*!`!N!x!x!z!P#)#+#/#2#6#J#Q#W                                          ",
"                                              #f#a#^#W#S#P#M#K#I#I#J#K#N#Q#T#Y#b                                                ",
"                                                        #g#g#g#g#g#g#g#g                                                        "};
