/* XPM */
static char * ixcoin128_xpm[] = {
"128 128 256 2",
"  	c None",
" !	c #FFFFFF",
" #	c #FFFFFE",
" $	c #FFFEFE",
" %	c #FDFFFF",
" &	c #FEFEFE",
" '	c #FEFDFD",
" (	c #FDFDFD",
" )	c #FDFDFC",
" *	c #FFFCFC",
" +	c #FDFCFD",
" ,	c #FDFCFC",
" -	c #FDFCFB",
" .	c #FFFBFB",
" /	c #FFF9F9",
" 0	c #FFF6F6",
" 1	c #FFEEEE",
" 2	c #FFE0E0",
" 3	c #FBFFFF",
" 4	c #FCFCFC",
" 5	c #FBFCFB",
" 6	c #FCFBFB",
" 7	c #FCFBFA",
" 8	c #FBFBFB",
" 9	c #FCFAFA",
" :	c #FBFAFA",
" ;	c #FBFAF9",
" <	c #FAFAFA",
" =	c #FBF9F9",
" >	c #FAF9F9",
" ?	c #FAF7F7",
" @	c #FAEDEE",
" A	c #F9FAFA",
" B	c #F8F6F6",
" C	c #F6EEED",
" D	c #F6DEDE",
" E	c #EFEDED",
" F	c #EDE5E6",
" G	c #E6E2E2",
" H	c #BAE4E4",
" I	c #F7D1D1",
" J	c #F7C8C9",
" K	c #FFC1C1",
" L	c #F8C1C1",
" M	c #DDD4D4",
" N	c #D8CDCD",
" O	c #D4C7C7",
" P	c #CBC2C2",
" Q	c #FDBCBC",
" R	c #FAB7B7",
" S	c #FCAFAF",
" T	c #E9B6B6",
" U	c #C6B8B8",
" V	c #BEAEAE",
" W	c #FDA0A0",
" X	c #FB9696",
" Y	c #F69C9B",
" Z	c #CEA2A1",
" [	c #F88D8C",
" ]	c #F88686",
" ^	c #F97D7C",
" _	c #F07E7E",
" `	c #B3A1A1",
" a	c #B29C9C",
" b	c #A99595",
" c	c #A28989",
" d	c #A57F7F",
" e	c #907E7D",
" f	c #F97373",
" g	c #F76A69",
" h	c #F96160",
" i	c #F75453",
" j	c #EB6A69",
" k	c #E65656",
" l	c #A56161",
" m	c #F64A4A",
" n	c #F84242",
" o	c #D94847",
" p	c #D64241",
" q	c #BA4B4B",
" r	c #C64545",
" s	c #A54C4B",
" t	c #8F7474",
" u	c #8A6D6D",
" v	c #816464",
" w	c #7E5E5E",
" x	c #865151",
" y	c #795656",
" z	c #715151",
" {	c #834949",
" |	c #754A4A",
" }	c #6D4747",
" ~	c #6E4343",
"! 	c #664746",
"!!	c #674141",
"!#	c #F63B3A",
"!$	c #F43433",
"!%	c #F42A29",
"!&	c #F42726",
"!'	c #F22423",
"!(	c #F51F1E",
"!)	c #F71A19",
"!*	c #F21A19",
"!+	c #E73736",
"!,	c #EC3231",
"!-	c #D43A39",
"!.	c #EF2524",
"!/	c #CE2424",
"!0	c #F81414",
"!1	c #F11211",
"!2	c #F60E0D",
"!3	c #F20E0D",
"!4	c #F40908",
"!5	c #F10A09",
"!6	c #F30404",
"!7	c #F10504",
"!8	c #F01110",
"!9	c #F00908",
"!:	c #F00505",
"!;	c #E00908",
"!<	c #BA0807",
"!=	c #803030",
"!>	c #6E2B2B",
"!?	c #673434",
"!@	c #652929",
"!A	c #872121",
"!B	c #7D2222",
"!C	c #742625",
"!D	c #9E0E0E",
"!E	c #921312",
"!F	c #AB0807",
"!G	c #A20909",
"!H	c #801C1B",
"!I	c #851010",
"!J	c #5F3939",
"!K	c #5A2F2F",
"!L	c #5E2726",
"!M	c #5A2323",
"!N	c #522A2A",
"!O	c #531F1F",
"!P	c #4C2222",
"!Q	c #312222",
"!R	c #4C1B1B",
"!S	c #491818",
"!T	c #4B1717",
"!U	c #520D0D",
"!V	c #441515",
"!W	c #1B0D0D",
"!X	c #FA0201",
"!Y	c #F70201",
"!Z	c #F50201",
"![	c #F40302",
"!]	c #F40201",
"!^	c #F30302",
"!_	c #F30201",
"!`	c #F20202",
"!a	c #F20201",
"!b	c #F20200",
"!c	c #F10302",
"!d	c #F10202",
"!e	c #F10201",
"!f	c #F10200",
"!g	c #F00303",
"!h	c #F00302",
"!i	c #F00301",
"!j	c #F00202",
"!k	c #F00201",
"!l	c #F00200",
"!m	c #EF0302",
"!n	c #EF0202",
"!o	c #EF0201",
"!p	c #EF0200",
"!q	c #EE0201",
"!r	c #EA0201",
"!s	c #D80201",
"!t	c #A20302",
"!u	c #FA0101",
"!v	c #F80101",
"!w	c #F50101",
"!x	c #F40101",
"!y	c #F30101",
"!z	c #F30100",
"!{	c #F20101",
"!|	c #F10101",
"!}	c #F10100",
"!~	c #F00101",
"# 	c #F00100",
"#!	c #EF0101",
"##	c #EF0100",
"#$	c #EE0101",
"#%	c #EE0100",
"#&	c #EC0101",
"#'	c #E70101",
"#(	c #E30100",
"#)	c #DF0100",
"#*	c #D60101",
"#+	c #CB0100",
"#,	c #C30101",
"#-	c #BE0101",
"#.	c #B70101",
"#/	c #AE0100",
"#0	c #A40100",
"#1	c #9B0100",
"#2	c #910100",
"#3	c #8C0100",
"#4	c #800100",
"#5	c #4D0100",
"#6	c #F20000",
"#7	c #F00000",
"#8	c #EF0000",
"#9	c #EE0000",
"#:	c #EC0000",
"#;	c #E70000",
"#<	c #E20000",
"#=	c #DA0000",
"#>	c #D20000",
"#?	c #C70000",
"#@	c #910000",
"#A	c #760000",
"#B	c #690000",
"#C	c #610000",
"#D	c #5B0000",
"#E	c #560000",
"#F	c #500000",
"#G	c #490000",
"#H	c #440000",
"#I	c #400000",
"#J	c #3E0000",
"#K	c #3C0000",
"#L	c #3B0000",
"#M	c #390000",
"#N	c #380000",
"#O	c #370000",
"#P	c #360000",
"#Q	c #350000",
"#R	c #330000",
"#S	c #310000",
"#T	c #2F0000",
"#U	c #2D0000",
"#V	c #290000",
"#W	c #270000",
"#X	c #230000",
"#Y	c #1C0000",
"#Z	c #170000",
"#[	c #130000",
"#]	c #110000",
"#^	c #0F0000",
"#_	c #0C0000",
"#`	c #090000",
"#a	c #070000",
"#b	c #060000",
"#c	c #040000",
"#d	c #030000",
"#e	c #020000",
"#f	c #010000",
"#g	c #000000",
"                                                                                                                                                                                                                                                                ",
"                                                                                                                        !.!.!,!+!,!+!+ m k j                                                                                                                    ",
"                                                                                                        #+#)#;!r!9!0!)!&!%!%!$!#!#!# n n n m m m m i h j ]                                                                                                      ",
"                                                                                              #1#-#>#(!6!2!0!)!(!'!'!'!'!'!'!'!'!'!'!&!%!$!# n m i i h h h h h f ] T                                                                                            ",
"                                                                                        #1#.#>!r!4!2!1!1!1!1!8!5!:!h!~#7#7#7#8#7#7#8#8#7#7#8!o!:!3!*!'!$ n i h g f f f [ R                                                                                      ",
"                                                                                  #4#0#?#)!r!9!3!3!5!:!h# #8#8#8# # #!!k!k!j!j!k!k!k!k!k!k!k# #7#7#7#7#7#7!9!*!% n h f ^ ^ _ Y I                                                                                ",
"                                                                              #4#0#+#)!r!:!7!:!k#7#7# # !k!k!k!k!k!~##!~!k#!!k!k!k!~!k!k!o#!!k!k!k!j!h!k!k#8#8#8#7!9!' n h ^ ] ] [ L                                                                            ",
"                                                                        #G#4#/#+#=!r!:!g!o#8#8# !k!k!k!k!k!~!k!k!l# # !~!k!~!o!~#!!o!~!o!o!k!k#!!k!k!k!k!k!j!n!m!k#8#8#8!9!' m f [ [ [ R ?                                                                      ",
"                                                                    #K#4#0#,#=!q!c!k######!k!~!~!k!k!o!k!k!k!l!~!p!~!~!k!~!k!~!o!o!o#!!~!~!k!~!~!k!k!~!k!k!k#!!k!k!k!m!j#7#8#7!1!# f [ X X L 3                                                                  ",
"                                                                #X#B#1#-#*#&!a!k#!##### !k!~!k!k!k!o#!!k!o!k!k!k#!!k!k!~# !k!k!k!o!o!o!~!k!~!~!k!k!~!~!k!k!~# !k!k!o#!!o!o!m!h#7#7!5!$ g X X Y I %                                                              ",
"                                                              #5#4#/#+!r!{#!#$###!#!##!~!~!k!k!k##!o!o!o!o!o#!!k!k!k!k!k!k!l!k!k!k!o!o!k!~!~!k!k!~!o!k!k#!!~!k!k!l!k#!#!!o!k!k!h!h#7#8!9!# f X W S C                                                            ",
"                                                          #X#C#@#.#(!e!|#!!o#!##!k!o#!!o!~!~!o#!!o#!!o!o!o!o#!!k!k!k!o!k!k###!!k!k!k!o!k# !k!k!~!~!k!o#!####!o!k!k!k# !k!k!k!k!k!o!k!m#8#8!3 m ] W W J 3                                                        ",
"                                                      #f#J#A#1#>!q!{#!#!!~#!#!#!!~!~#!#!!~!~!o##!o!k!k!o!o!o!o!k!k!k!k!k!k#!# !k!~!k!p!k!k!k!k!o!o!k!o#!!~!k#!!k!k!k!k!k#!!~#!!k!k!o#!!o!m#8#8!* g W W S C !                                                    ",
"                                                    #^#5#4#/#)!a!k!o#!#!!p#!#!#!!k!k!~!~!~!~!~!p#!!k!k!k!k!o!o!o!k!k!k!~!k!k!~!k!k!k!k!~!k!k!k!~!~!k!k!~!k!~!k!k!k!k!k!~!k!~!k!k!~!o###!##!o!m#8!g!# [ S S D !                                                  ",
"                                                  #Y#E#4#-!r!b!l!l!~#!#!#!##!~!k!k!k!~!k!~!k!l!p!~!~!k!k!k!k!k!o!k!k!k!k!k!k!~!~!k!k!k!k!~!k!k!~!k!k!k!k!k# !k!k!k!k!k!k!~!k!~!k!~!p!o!~#!!~!k!m#!#8!* f S S J %                                                ",
"                                              #g#W#D#3#+!k# ### !~#!#!#!#!!~!~!k!k!k!k!k!k!k!k!~!~!~!k# !k!k!k!k!k!k!k!k!l!k!k!l!k!k!k!k!~!k!~!~!k!k!k!~!~# # !~!k!e!k!k!k!~!k!k!k###!#!##!k!k!o!o!h#8!9 i W S L 3                                              ",
"                                            #g#V#C#1#=!e!k!o#!# #!#!!l#!!~!k#!!k!k!e!e!k# # !~!k!k# !k!l!l!~!k!k!~# !~!k# !k!k!k!k!k!k!k!~!k##!k!k!k!~!~!~!l!~# !~!~# !k!k!k!~!k#!#####!!k# # !o#!!o!m#8#8!# X S R ? !                                          ",
"                                          #f#V#D!t#(!{#!!l#!#!#!!~!k!~#!!k#!!k!k!k!k!k!~!~# !k!k!k!k!k!k!~!~!k!k!k# !k!~!~!k####!k!~!k#!##!~!k!~!~!~!k!e!k!k# ##!k!~!~!k!k!k!k!~!l!~!~#!#!!o####!k#!##!o!n#8!& [ R R @ !                                        ",
"                                        #f#V#D#0#'!f#$#!!k#!#!#!!~!k#!#!!~#!!k!k!k!k#!!p!k!k!~!k!k!k!k!k!~!k!k!k!k!k!l!~!~# !~!~!~!k!l#####!!~!~!~!~!~!~!k!k!k!k!~!~!~!k!k!~!~!~# !~!k#!#!#!!~!o!k####!~!k!h#8!* _ R R @ !                                      ",
"                                      #e#V#E#0!r!|#!###!!~#!#!!k!~#!!~!~!~!k!k!~!o!o##!k!k!p!k!k!k!k!k!k!k!k!~!k!k!~!k!k!~!~!~!l!~!~!~!~####!l!~!~!~!~# !k!k!k!k!k!k!~!k!k!k!k!~#####!#!###!!k!o#####!!l!l!k!h#8!1 f R R C !                                    ",
"                                    #f#V#F#0!r!e#$!~###!!p!k!k!k!~##!~!k!k!~###!###!#!!~!k!l!k!k!~!o!k!e!k#!!~!~!k!k!k!k!~!l#!!~!~!~###!##!~!~!~!~!~!~!~#!!~!~!~!k!~!~!k!k#####!#!###!####!o!~#!#!#!!~##!k# # !h#8!3 f R R C !                                  ",
"                                  #g#W#G#1!r!{#####!#!#!#!!~#!#!####!k!k!k!k###!###!!~!~##!~!k!o!k!~!k!k!k!k!k!~!k!k!k!k!~##!k!~!~##!~!k#####!!~!~!~!k!~!~!k!k!~!~# # # #!!k!k!k###!#########!#!#!!o#!#!# !k!~##!h#7!3 f Q L ? !                                ",
"                                #g#X#H#2#'!b#!# !p!p###!!~###!#!#!#!###!#!!~!~#!##!~# ###!!~##!k!~!l!~!~!k!~!k!k!k!~!~!k!~!k!~!~!~##!~!k# #!##!k!~##!~!~# # !~# ######!~# # !~#!!o#!!~!~# ###!!~#!!o!~###!!k!~### !h#7!8 ] Q L 4                                ",
"                              #g#Y#J#4#)!b##!~# !k#####!#!####!~###!#####!!~!~!k##!~!k!o####!~!k# !~!k!~!l!k!k!k!k!l!~#!!k!k!k!k!~!k!~!~!k!o#!#!!k!l!k!k!l!~!~###!# # ##### # !l####!l!~!~# !~#!#!#!!~!~#!#!!k#!#!!~!g#7!* [ Q J !                              ",
"                            #g#[#N#B#*!y#%#!# !~!~##!o#!##!~!~#!###!!~!~##!~!~# #!!k!k!~!~!~!~!l# !~!~!~!k!k!k!k!~!k!k!k#!!~!l!k!~!k#!# !~# !~###!# !l!k!~!k!k###!# # # !~!~!~# !~#!!l!~!~!k!k# # !~#!#!!k!k!k!o#!#!!o!g#7!' Y K I !                            ",
"                          #g#`#R#E#,!y#!### #!#!!l#####!#!# # #!#!!~!~!~# # # #!!~##!k!~!~!~# !k!~!~!k!~!k!k!k!~#####9#9##!k!k!k#!#!#!!~!k# !~!~####!k!k!k!k# !~!~!~!~!~!~# #!# !k!k!~!k!~!~# !k!~!~#!!p!~!k!o!o######!o!g#7!$ S Q D !                          ",
"                          #f#U#G#/!{#!#!# !~!~# !~!k# #!!~!k!~# !~!~# !~!k# # !~!l##!~# !~# # # !~!~!~!k!k!k!k!~!l!6!4!4!6#7#8#9##!o!o!k#!!k!k# # !~!k# !k!~!l# !~!~# !k!~##!~# # !k!~!~!k!~# !~!l####!o#!#!#!# ######!o!k!h#8 i Q L B !                        ",
"                        #g#X#K#3#&# !o!~# !~!k!k!~!k!k!~!~!~!~!~#!!~!~!k!~!k!k!k!k!~!~!~!~!~# # !~# !k!~!o!k!k#$#'#)!/!-!+!&!)!2!6#7#8#9##!k!j!j!k!k!~!~!k!k!~!k!~!~!k!k!~!~# # # # #!!~!~!l# !l!~!~#!#!!~# # ###!#!#!###!!k!~!: f K J %                        ",
"                      #g#]#N#B#=!z!q#!# !~# !~!k!~!o!k#!# !~# ##!~# !~# ##!~!k!k!k!~!~# ##!~!~# # !~!l!k!k!o!{!s!G#2#G!L { s q p!+!&!)!2!6#7#8#8##!k!j!k!k!k!k!~!~!~!k!~# !~# # !~!~#!!~# !~!k!~!~!k!k!k!~!~!~###!#!!k#!#!!~!h#7!* Y K I !                      ",
"                      #e#S#G#-!x#%###!!~# # !~!~!k!o#!# !~!~!~# # #!###!!~!~!k# !~!k!~!~# !~!~# # !~# !k!~!k#6!F!C!U v y z!!!! ~ { s q p!+!&!)!2!6#7#8#8##!k!j!k!k!~# !~!e!|# !~!p!~!k!~!~!~!k!~!~!l!~# # !~!k#!####!~!k#!#!##!g#7!# R L @ !                    ",
"                    #g#X#K#3!~# ###!#!##!~!~!~# # !~####!~!~!~!~# ###!!~!~!~!~# !k!~!k!k!k!~!~# !~!~!k!k!k!a#;!E!M!J ! ! E O a t y!!!! ~ { s q p!+!&!)!2!7#7#9#9#9#!!o!k!e!|!~!k####!k!~#!!k# !~!l!~# !~!~# # !~#!##!k!k!p#!# !k!j!j g K J %                    ",
"                  #g#^#P#C#=!z#%##### !~!k!~!~!~!~# ### !~!~!~!~#!#!#!# !~#!!~!k!~!~!~!~!|!~# !~!~#!!~!k!o!Z#>!B!R t 4 > ! ! ! ! E O a t y!!!! ~ { s q p!+!&!)!2!6#8#9#9#9#!!k!k!~!~##!~# # # # !~# !k!~!~!~!~#!#!##!o!k!~!k# ##!m#8!* Y K D !                  ",
"                  #g#U#I#/!w#%#!### !~!~!~!~!~!~#!# ##!~!~!~!k!k!~##!~!~!k!~# !~!~!~!~!k!~!~!~!~!~!~# !~!o!w#-!>!P P ! B > > : 4 ! ! ! ! E O a t y!!!! ~ { s q p!+!%!)!2!7#7#8#8# !~!~# !p# #!!~!~# !k!~!~#!#!#!###!!p!k# !o#!####!m#8 m Q L 9                  ",
"                #g#Z#N#A!r!|### !~!~!~# # !l!~# # !~#!# !~!~!k!k!~# !~!}!e!|!~# !~!k!~# !k!~!~!~!~!~# !~!o!w#.!?!  P B ! ! ! & 6 , 8 : - ! ! ! ! E O a t y!!!! ~ { s q p!+!%!)!2!e#8!~##!k!k!~##!e!~!|!~!~!k#!#!!p!~!k!k!~###!# #!!k!~!9 ] K I !                ",
"                #f#T#G#-!w#%!~!~# !~!~!~# !~!~# # !~# !~!~!l# !l!k# # # !|!e# !~!~!l!k!~!k!e!k!~# !~# !~!o!]#?!=! !N!J v a N 6 ! ( ) + ( 6 : : , ! ! ! ! E O ` t y! !! ~ { s q o!,!5# !k##!~# !~# !~!~!~!~!k!k!k# !~!~#!#!#####!!~!~!h#8!$ S L B                ",
"              #g#Y#M#4#!# #!# # !l!l!~# !k!~# !~# !k!~# # !~!~!~# # !~# # !|!e!k!k!~!~!k!k!~!~!e!~!~!~!~#!!e#'!F!B!>!L!R!V!P!  M ' 6 ( ) ( , , , 4 8 : , ! ! ! ! E N ` t y z v e d!,#6!k!~!~# !k!~!~!~# # !~!k!~!~!~!~#!##!o!~#!#!!p!k!k!g ^ K I !              ",
"              #e#S#G#,!w#%!~# # # !~# !|# # # ### # !k!~!~# !k!~!~!~!~!|!~!k!~!e!|!|!e# !~!|!k!|!e!k!~!~!k#!!}#:#+!F!E!H!C!?!P v ! 8 , ) ) ) ( ( ( ) ) ) 4 6 : 4 ! ! ! ! C M O V c o!6##!k!~!~!~# # !~!l# !~!k!k!~!~####!p##!~!~#!#!#!!h#8!$ S L 0              ",
"            #g#Y#N#4!p# ##!~!~!~# !~!~!~!k!k!~!k!~!~# !k!k!~!~!~!|!~!~!k!e# # !e!|!e!|!~!k!f!e!~!|# !l# # !l!l!~!_!}#;#=#/!H!J!  ? # , ) ) ) + ( ) ( + ) ( ( 6 > > > ? 4 ! ! ! a t p!6##!k!~!~!k!~!~# !k!~!|!e!k!~!~#!###!#!!~!k###$!o!o!k!: ^ K I !            ",
"            #f#T#H#-!w#%##!l# # # !~!~!~!~# !~!~!~!~# !~!k!k!k!e!|!~!~!~!~# !~!~!e!e!~!|!~!k!~!~!~# !~!~##!k!k#!!o!q!n!Z#<!I!K!  4 ( , ) ( ) ) ( ( ) ) ( ( 4 ! ! ! ! ! 6 ? 6 M w s!,# #!!k!l# !~!~!k!k# !~!k!k# # !~!~!p#!##!~!~#####!##!h#8!$ R L =            ",
"          #g#Z#O#B#&!|#!!~#!!~# !k# # !~!k# # # !~!k# !~!e!|!|!|!~!|!|!~!|!k!k# !k!k!~!~!k!~!~!~!~!~# !l#!#!!k!k!k#!#&!a#>!H!O v ! : , ) ) ) ( ( , ) ( ( 4 ! F b c P C ! ! ! a!J q!(#8!k!l### !~# !o!o!k# !k!~!~!~!~!~#####!!~#!!~#!#!#!!k# !9 ] K D !          ",
"          #g#V#K#/!v!q# # !~!~!~!~# # !~!~!~# !~!~# # !~# !|!|# !|!e!~!e!e!~!~!~!~!~# # # !~# !}!~!~!k!l# !k!k!k!k#!#$!x#-!C!V ` ! = , ( ) ( , ) ( ) ) 4 ( F!P#R#H!R!K w b M!!!O p!2#8!k!k# !k!~!k# !k!k!~# !k!~#!!~# # ###!#!###!#!### # !h#8 m Q J %          ",
"          #`#Q#E#)!x!o!l!~!~!~!k!~!~!~!e!e# !~!~# !k!|!k!~!~!l!}!|!e!~!~!k!k### !~!~# !l# # !f# !~!e!~!~!k!k!k!k# !o!k#9!G!@!P G ! 6 ) + ( ) , ( ) ' ( = ! d#T#3!H!>!L!O!S!U#D!E!.!6##!k!~!k!~!k!k!l!k!k!~!~!~!~!k!~!~# !k#!!o!o!l#!#!### !h#8!1 Y K @ !        ",
"        #g#X#N#3!w!o!k!k!~!~# !k!~!~!|!e!e!~!k# !~!~!~!~!k!~# # !e!~# !|!e!~##!~!~!~!k# !~!~# !|!e!~!~# !l!k!k!k!~!o!_#)!E!M } ( ( , , ) ( ( ) ( ( ( , & B z!@!/#*!F!E!H!C!C!G#(!5# !k!~!k!~!~# !~!~!k!~!~# !k!k!~!k!k!l!k!~!~!k!~!k!p####!o!k#8 g K I !        ",
"        #g#T#H#-!Y#$!l!k!~# !~# !~# !|!e# !k!~# !~# !k# !~!~!~!k!~!~!e!e!~!~!~!~# !~### !k!~!~!f!~# !l!~# !k!k!k!k#!!]#+!B!S c ! > ( , ) ) ( ( ) ) ) 6 ! M } {!%!]#6#:#=#?#,!s#%!}!~!~!f# # # # !~!~!k!k#!!~!~!~!~!k!k!~!~!~#!!l!k##!~###!#!!h#7!$ S L 8        ",
"      #g#^#P#C#'!{##!k!o# !~!~!~!~!|!~!|# !~!k# # !|!~!~##!~!e!~# !~!f!|# !~!~!~!l# !~!~!~!}!e!~# !k# ##!k!k!k!k!k!o#6#/!>!S U ! : , ( ) ) ( ) ( ( ( : ! V!! q!(#9!o!e!]!]#6!}# !~!|# !k!~!~!k##!~!k!~!~!~!k!~# !e!e!~!~#!# !~!k!~!l!o#####!!k#7!5 [ Q 2        ",
"      #g#X#N#2!Y#!!~!~!k!k!k!k!k!~!~!~!~!k!~!~!e!~!k!~# # !~!}!~# # # # !~!k!~!~!k!~!k# !|!~# # !~# !~!k!l!k!k!k!o!e#:!D!L!K E ! , + ) ) , ) ) ( ( ) 4 ! e ~ r!2#9!k!k!o!o#$#!!~!k# !k!~!~!k!~# !k!k# # !~!k!k!}!~!e!k!l!l!k!~!~# # !~#####!#!!j#7 h Q I !      ",
"      #g#T#I#-!v#!!~!~# !~!|!e!e!~!~# !|!~!f!~# !|!~# !}!k!e!~!e!e# # !~!~!k!k!k!~!~##!~# # !~# !k!k!k!k!k!k!k!k!o!]#=!H!O w ! 6 , ) ) ( ) ) , ( ) - ! E y {!+!6##!k!f!k!o!l!~!~!~!l!~!k!k# !~!k!k# # !~!~# !~!l!~!~!~!~!l# !l!k# !~#!##!~#!# !h#7!$ S L 4      ",
"      #`#R#E#<!y#!!~!~# !~!k!k!~!~!e!|!e!e# !~!k!~!~!~!k!~!~!|!f!k!~# # !e!~# !~!k!~#!#!####!~!~!~!k!e!~!k!k!k!k!q!x#-!C!S b ! : , ) ( ( ) , ( ( ) : ! P!! s!&#7!k!k!~!k!k# !~!~!~# !k!e!~!k!k!k# # # !k!~# # !~!~!l!~#!# !~!~!~# # !~# !k##!~!i#8!1 X R @      ",
"    #g#Z#P#A!z##!k!|!~# !~!k!k!~# !|!|!k!e!~!e!~!~!~!k!~# !~!k# # !~!k!l!~# # !k!~!k!l####!~##!~!k!k!j!k!k!k!~##!o#7!G!@!R M ! 8 ( ) ) ) ) ( ) ) ( : ! b!! q!0#9!k!l!l!~!~!k!k!~# !k!e!e!k!e!k!~!k!~!~!~!~!~# # ##!l!~#!# !~!~!k!l!~!k# #######!#!!k f Q I !    ",
"    #g#W#M!t!X#%!k!|!~# !k!k!~!~!k!|!~!k!~!e!k# !~!~!~# # # !|# # # !k# !~!k# !~!k!l# !~!~!~!k#!# #7#8#8##!k!k!o!a#(!E!M!! 8 ' , ( ) , ) ( ( ) ) ( & 6 u | p!4#8!k!k# !l!k!e!l!|!|!k!k!e!e!e!~!k!k!~!~!~!~######!~### !~!k!~# ##### !k!k### ####!m#8 m R J !    ",
"    #g#T#I#,!v#!# # !l!l!k!~!~!~!l!~!~!k!k!k# !~!l# # # !~!~!~!k!k!~!~#!!~!~!~!~# !~!k!~# !~!}!e!3!*!)!2!^#7#9#:!_#>!B!R t ! : ' ) ) , ( ( ) ) ( 6 ! G | x!,!e#!!k##!~!e!e!e!e!e!e!~!e!|# !e!~!~!k!~!~!~!~#####!#!#!!~!k# !k!~######!~!l### !p# !h#8!% S R %    ",
"    #b#R#F#=!]##!~!~# !~!~!~!~# !~!~!k!k!k!~!~!~!~!~# !~# # # !~!~!f!~!~!~##!k!~# # !~!~!~!~#)#>!F!A q p!+!&!0!4!x#.!>!S U ! ; ) ) ) ( ) ) ) ) ) : ! V!! s!(#8!o# #!# !e!e!k!e!|!e!|!e!k!e!|!~# !~!k!~# !~!~!~# #!#!!~!~!k!~!~!~!~!~!~# !k###!!k!j#8!1 X R @    ",
"  #g#[#P#B#%!}#!!l!~!~!~!~# !k!~!|!|!e!k!~!~!~!~!~!~!~# # # # !~!~!e!|!e!~!~!k!~# !l# ##!e#;!D!I#D#N!J | x s q p!'!<!L!N F ! 6 ) ( ' , ) ( ( ) ) 6 ! d ~ r!2#9!k!~#!# !k!l!~!~!e!e!}!|!|!|!e!}!e!k!~!~!~!~!e!|!~##### #!!~!k!~!~!~!~# !~!~#!#!#!!o# !: ^ R D    ",
"  #g#Y#P#4!Z#%##!~# !~!~!~!~!k!~!|!|!f!e!|!|!|!~# !~!~# !~!~!~# !e!e!e!|# !~# !|!~# !~#!!]#>!B!T v U c t y } ~ | {!E!U z $ 4 , ) ( ) ) ( + ) ( , ! C y {!+!6##!k!~!~!k# !~# !k!~!~!e!k!~!~!e!e!e# !~!~# !~!e!}# # # !~!~# !l!~!~!~!~# !~#!#!####!k!o#8 g S I    ",
"  #g#W#O#1!v#&##!~# !k!~!~# !~!|!e!e!e!e!e!e!|!~# !~!~!~!~!~!~!|!~!}!e!k!~!~!~!f!~!~!~!o!x#.!>!S U ! ! ! F P b u }#H#U c ! ? ) ( ) ) ) ( , , ( 6 ! N } s!%#7!k!k!k!l!~# !~!k!~# !~!k!e!~!~!|!e!e!~# !~!~!|!e!~!~# !~!~!~!~!~!~!k!~!~# !~# # !~#!# !m#8 m S L !  ",
"  #g#V#K#.!v#%!p# !~!k# !~!~# !e!e!~!~!e!e!}!|# # !~!~!k!|# # !}!~!f# !~!k# !~!|# !k#!!k#9!G!@!N G > ? , ! ! ! 8 G ` z N ! : ) ( ) ) ) ) ) ) ( : ! a!! q!)#$!j!k!k!k!~!~!e!k# # !~!~!k!e!e!e!e!~!~!e!}!|!e!~!~# !~!~# !l# !~# !~!~!k!|!l!~# !~####!g#8!# W R !  ",
"  #g#T#H#+!w#%#!!~# !~!k!~# !k!~!~!k!~!~!e!|# !k# !~!e!~!|!e!~# !|!k# !k!~!~!l!~!k!~##!a#;!E!K v ! ! ! 6 ? > ; & ! ! ! ! , , ( , ) ) ( , ) ' , ( ' t | o!4#:##!k!k!o!k!~!k!k# !l# # !k!k!k!e!k!~!k# !~!|!|!e!~# !l# !l# # # !~!~# !k!e!e!k!~!k#!#!!h#8!& W S %  ",
"  #c#S#G#*!w#!####!~!k!~!~!~!~!~!~!k!k!k!|!k# # !e!|!|!|!k!k!k!~!~!l!k!~!k!~# !k!k!~#!!d#;!E } z e V G ! ! ! ! 9 ? > 6 , 4 ( ) ( ( ) ) ) ) ' 6 ! F t d j!&!2!6#7#9#9#%!k!~!l!k# !~!~!~# !k!~# !e!|# !l# !~!|!~!~!}!~!~# #!# # !~!~!~!e!e!~!~#!##!o!m#8!* X S ?  ",
"  #`#R#E#<!z#!!~# !~!~!~!~!~!~!~!~!~!~# !~!k# # !|!|!e!|!~!~!k!k!k!~!~!l# !k!~####!k#!#$# #.!=!J!R!S!N z c P E ! ! ! ) , ) ( , , ( ( , ( ) , 6 ! M a b l q r!+!%!)!2!6#8##!~# !k# !~!e!~##!k!~# !e!k# # !e# !e!k!k# # # !~# !k!e!e!k!~!~!k!~#!#!!p!n#8!1 [ W @  ",
"  #_#Q#D#'!{#!!~!~# !~!~!~!~# !~!~!~!~!~# !~!~# !~!~!|!l!}!~!k!~!l# !~!~# # !~# # ###!#!!~#'#+!F!E!B!@!O!S!R!K w b M : , ( ) ) ( ( ) ( ( ) , , ' E P e z!! ~ { s q p!+!'!7#7!k# # # !|# !k!k!e# # # !|!e!|!~!l!~!~!~# # !~!~!~!}!|!e!~!~#!#!#!####!o#8!3 ] W 2  ",
"#g#^#Q#C#&!}#!!k# #!!~!~# # !k!~!~!k!|!|!~!~!~!~!~!~# !}!}!k!~!~!~!k!k!~##### !k!~#!##!r#+#-#2!= q!-!/!D!A!C!L!P!Q!  : & 4 ) + , , ) + ) ) ( ( , ! ! B M V d w } ~ y u l!,!d##!k!~# !~!k!~!k# !~!|!}!e!e!e#!##!~!~# # !~!k!~# # !|# # !~#!#!#!#!#!!k#7!9 ^ W D  ",
"#g#[#P#B#!!~!k!k!~# !~!|!|!e!~!~!~!e!k!|!~!~# !~!~!|!l!|!k!~!~!~!~!~!~!p##### !~##!q!{#+!H#B!U!P!! | x s r!/!D!>!N t ! : ) ( ) ( ) ) ( ) ( ( , ; : 6 ! ! ! ! C N ` b a b k!3#9!k!~!~!~!~!|!~# # !e!e!~!~!k# ##!k!k# # # # # # !~!k!~!~!~##!k###!##!o##!g f W I  ",
"#g#[#P#B!e!k!k!~!k!l!~!~!~!~!~!~!|# !k!~# !~# !~# # !~!f!~!~!~!~# ###!!k###!!~# ###!#7!F!@!T O N ` e w }!  |!B#A!V V ! > ) ( ( ) ( ) ) ( ( , ( ! ! $ : ? > 6 ! ! ! ! N e q!0#9!k!~!|# !l!k# !~!e!e!|!~!~!~!~# !~!~# !~!e# !~# !~###!### !~!k#!#!##!o###! g W I  ",
"#g#[#P#B!e!~!k# ##!~# !k!~!~# !~!k!~!~# !~# !~!~# # # # !~!~!~!~!~####!~# !~!~!k#!!e#(!E!M!! & ! ! ! C O a t!!#P#K G ! 6 ) ( ) ) ( ) ) ( + ' ( V O > ! ! ! ' > ? > & b w o!2#8!k!k!k!~!~!~!~!e!k!~# # !~!~!~!~##!~# !~!~!~# !~!~# ###!!~!~!~!~!~##!o###! g W I  ",
"#g#[#P#B!e!~# !~!~!k!~!k!~!~# !k!k# # !~!e!~!~# !f!~!|!~!~# !~# # !~!l!~#!##!~!~#%!x#>!B!R t 4 B ? 6 ! ! ! # F ` d ) ( ( ) ) ) ( ) , ( ) 6 ! G#O#I!J u ` G % ! ! ! F z {!+!6##!k!k!~!~!~# !~!k!k!~# !l# # # !~##!~!~!~##!~!~!~!~# # !~!~!e!~!~!k#!!o##!o g W I  ",
"#g#[#P#B!e!~#!!~# !k!k!k!~!k!~!~!~!~!e!e!~!|!~!~!~!e!e!~# # !~!~!~!l!~#!###!#!#!#$!w#?!=!N U ! ! ! , > > > , ! ! ! ) , ( ( ) ( + ) + ( ) : ! U!T#A!M!R!V!P } e V E `!V s!'#8!o!k!k#!# !~# !f!~!~!k!~# !~# # # !~# # ##!~!~!~# # !~# !~!~!~!k!l!~#!#!##!k g X I  ",
"#g#[#P#C!q!|!~!k!l!~!~!l!k# !~!k!~!~# # !~!~!e# !~!|!e!|!~!~# !k!~!~!~!~!~!~!~###$!]#+!=!  z t V G ! ! ! ! 6 > > = , ( ( ) ) , ) ( + ) ) 6 ! V t l!/!E!A!@!O!S!V!L!O#E!/!0#9!i!k!~!~!~!~!~!~#!!~!~!e!~!~!~# # !e!~# # # !~!~!~!~!k!~!k!~!|!~!~!~!~!k#7!: g X I  ",
"#g#^#P#C!r!a!k!~!l!~# !~!~!e!}!e!~!~### !}# !~!~# !~!e!|!~!~# !~!k!~# !~!l!~!k!~#!!e#;!D!?!K!R!S!N } e U E ! ! ! , + ( ) ( ) ) ( ( ) ) , ' 6 U a e l q!-!/!/!A!B!M#4#,!8!7# !k# # !~# !~# # !~# # # # # !k!l# !~!k!k!~### !|!k!k!k!~!~!k!~!~!~!k!k!k#7!9 f X D  ",
"  #_#Q#E#'!_#!!~# !~!~!~!~!f!e!|# !~### # !~!~!~!~!k!~# # !|!~!~# !~!~!k!k!~!k!~#!#!!a#)#/!E!B!>!@!M!S!S!N y b M ( 4 ) ) , ( ( ) ( ) , ' , 6 F V t z!  } x s r!-!/!8!q!a!l!k!~!e!e# !~# # # !l!l### # !~!e!~# !l# # !~!~!~!~!~# !~!~# !~!~# !~!k!l!k#7!5 f [ D  ",
"  #b#R#F#)!x##!~!l!~!~!k!~!f!e# !~!~!~# # # !~!~!~# # # # # !}!~#!!~!k!k!~# ##### !k#!!|# #;#>#.!G!E!B!>!@!N!Q b ! < ) ) ( ( ' ) ) ( ( ( , , ! ! > G U c w } z v d k!*#8!k!|!e!e!e!~!~!|!k!~### !~!~!~# !~!~# ### # # # !~!~!~!~!|!|# !k!~!~!k# !~!j#7!1 ^ [ @  ",
"  #e#R#H#>!w#$!k!~!~!~!~# # # # # !~# !k!~!~!~!~# # !}# !|!e!~!l!k!~# !~!k!~# # # ##!o#%#$!e!]!z#:#)#+#/!I!?!P N ! : ) , ( ) ) ) ( , ( ) 4 : > : & ! ! ! B M U V a d!+#6!k!e!e!~!~!e!~!e!e# ### !~!|# # !~!~# # # #!!~!k!~!~!~#!!~!~# # !~!~# # !~!h#7!* ^ [    ",
"  #g#S#J#,!v!o!~# !~!k!~!~!~# !~!~# !k!~### !~!~!~!~!~!~!}!~!~# !~!~# !~# !k!k# !~!k#!##!k#%!o!q#!!e!Z#(!E!M!J > & 4 ( ) ) ) ( ( , ) ( ( ! ! ! ! 6 > > 9 ! ! ! ' a t!+!z!k!k!~!~!~!k!e!e!k!k#!!~!~# !~# # !~# !~!~!~# !~# #!###!### #!# # !~##!~!k!h#7!' ] [    ",
"  #g#U#M#/!X#$# !~!~!k!~!~!l!l# !k!e!k!~# # # !~# !~!k!~!~!~!k!~!~!~# !~# !~!~!~!k!~!~!~###!!~!~##!q!a#>!H!R u ! = , ( ) ) ) ( ( ) ) : $ P t U E ! ! ! ! ; B 6 M v l!%#6!k!~!~!~!~!~!~!~!e!~# !~!~!~!~!~!|!k!~# !k!~# # # ########!~!~# !l#!!~!k!k!h#7!$ ] [    ",
"  #g#W#P#2!u#%!~# !l!~!~!~# !l!~!e!|!|# !k!~# # !~!~# !~!k!~!~!~!~!~!~!~!k# !~!l#!#!!~!k!~!~# !~!o!q!x#-!C!S V ! : ( ( , ) ( ( ) ) ( ? ! t#V!V!K y b N B ! ! ! a!J q!)#8!k!k!~!~!~!~!~!~!~# # !~# !|!~!|!|!~!k!~!~# !~!~### #!!~# ##!~!~# # # !k!k!j#7 n ] Y    ",
"  #g#Y#O#A!Z#!!k!k!~!~!k!~!~# !l!e!|!|# !~!~# # # # !~!~!~# # #!!~!~!~!~!~!~!~# #!!o!~!k!k###!#!#!!k#8!G!@!P G ! 6 ( ) ) + ) ) ) , , , ' w!U!H!L!O!S!R!J v ` M!J!M p!2#8!k!k!l!k#!!~!~# !k!k!~!~!e!~!e!e!k!e!e!~!~!k!~!~!~# !~!~# !~!~!~# # !~#!!~!k#7 i ^ S    ",
"  #g#[#O#D!r!{#!!k!~!~!~!e!k!~!l# !e!|# !~# !~# # !~!~!l# # !~!k!~!~!~!~!e!k!~!~!~!k!~!k!~!l#!!o#!!a#<!E!M } & , , ( ) ) ( , ) + ( 6 ! F z!=#+!D!H!C!>!L!O!S!U#D!E!.!6# !k!~!~!k!~# !k!k!k!k!~!k!~!|!|!e!k!~!e!~##!~!~!~!~!~# # !~!~!~!~# !k!~!~!k#7!: h ^ L    ",
"    #b#Q#G#*!Z#!!~!~!~!~!e!~# !~!k!|!|!|# !~!l!~!~!l!~!~!~# !|!|!~# !~!k!~!~# !~!k!~!~!k!k!k!k!k#$!]#+!B!S e ! > ( ) ( ( ( , ( ( ( : ! U!! s!(#:#=#,!F!E!H!C!C!G!;!5# !k!l!~!|# !~!~!l!k!~!~!k!~!~!~!~!|!|!|!|!~!~!~# # # # # # !k# !~!~# !~!~!~!k#7!1 g f      ",
"    #g#S#M#.!X#!!~!~!~# !~# !~!~!~!e!e!}!~!~# !l# !k!~!~# !~!~!|!|!|!f!k!~!~!~# !~!~# !k!~!~!~!o!o!{#/!>!S P ! : ) ) ( + , ( ) ( ) 6 ! c ~ r!0#9!^!Z#6#;#*#,#,!s#%!}!k!k!e!|!k!|!}!e!|!e!e!~!~!~!~!l!~!~!}!}!|!~!~!~# !~# # !~# !~!l# !o#!!~!k!~!h#7!. f _      ",
"    #g#V#P#3!X#!!k##!~!~!~!~# # !~!e!e!|!~!~!~# # !~# !~# !~!~!~!~!|!e!|!~!k!~# !~!l!k!k!k!~!p#!!e#:!D!L!K E ! 4 ) ) ) + ) ) ) ) , $ B v |!-!4#9!o!o!o!e!]!w#6!}!k!~!~!e!e!|# !|!e# !}# !~!~!k!~# # # !~!}!k!l!|# # !|!~!~# !|!|!~!l# #!##!~!~!~!k#7!# f ]      ",
"    #g#Z#O#B!~!e!~!~!~!~# !k!~# !|!|!|!|!k!~!|!~# !~# !k!|!e!|!|!e!e!e!e!~!e!}# # # !k!k# # !~!o!]#=!H!O w ! 9 , ) ) , + ( ) ) ( 6 ! M } x!%# !k!k!k!o!o!o#!!o!k!l!k# !|!l!|!}# !}!~!~!~!|!}!e!k!|!~!~!k# !~!~!k!|!|!~!~!~!~!~!e!l!~!~##!~!~##!k#7!j i f Y      ",
"    #g#`#O#G#*!Z#!!|!e!~!~# !~# !|!|!|!~!|!|!|!~# !k!k# !}!e!e!k!e!e!|!e!k# !~!~!l!~!~!k!~!~!~!q!x#,!C!S b ! > ) ( ) + ( ) ) ( , : ! `!! q!(#8!k!~!k!~#!!~!~!k!k!k!k!~!|!e!|# # !~!|!}!|!}!e!|!~!~!f!~# !~!k!e!|!|!|!|!k!~!|!k!~!k!~!~!k!~!~!~!k#7!8 h g        ",
"      #g#S#N#/!X!q!|!~!~!~!~!k!k!e!k!e!~!|!e!e!e# !~!~!}!|!k!e!e!e!|!e!k!k!~!k!~!k!e!|# !~!~!k#!#7!F!>!P N ! 7 ) ) , ) ) ) , ( , , ! t ~ p!2#8!k!~!k!k!~!~!k!e!k!~!e!|!}!|!~# !k# !~!e!|!e!}!~# !|!~# !~!k# # !}!e!k!~!e!|!~!~!k!~# !~#!!~!~!~!h#7!& g j        ",
"      #g#X#O#A!w#!!~!~!~# !~!k!k!|!|!|!}!l!f!e!}!e!f# !~!e!|!l!k!~!~!}!~!~!k# # !k!~!k!k!k!k#!!|#;!E!M!J < & , ( ( , ) ) ( ( + , ! E y {!+!6# !k!~!k!~!~!k!~!k!k!~!k!e!e# !~!k!~!|!}!~!e!~!~# !f!e# # !~!k!l!}# !~!~# !~!e!~# !~!~!~##!~!k!k!k!e#7 n h _        ",
"      #g#^#M#5#)!x#!!~!~!~# ##!k!~!e!l!e!|!~!}# !e!k!~!}!k!e!~!~!k!k!~#!!~#!!~!~!~!k# #8#8#9#$!]#>!B!R t ! : , ) ) ( ) ) ) ( ( : ! O!! s!&#7!k!~!~##!k!k!k!~!e!k!~!k!k!e!l!~!k!}!~!k!k!~# !~!l!~!~# !e# !~# !~!k!~!~# !~# # # !|!~!~!~!~# !k!e#7!5 i h          ",
"        #g#R#N#/!u#%!~!k!~!~!~!~!k!~!}!|# !|!e!k!~!~# !f!k# !~!~!k!~!~!~# !~# !~# !e!8!*!0!4!j#6#.!>!S V ! > ) ) ) ( ) ( ) , ( : ! b!! q!0#9!k!l!k!l!k!k!~!e!|!~!e!e!|!}!~# !k!l!f!k# !~!~!k!~!~!~!k!k# # !~# !~!|!~!~!k!~!~!k!|!~!~!~!~!~!~!c#7!' h h          ",
"        #g#X#N#A!x!~!~# ##!~# # # # !~!l# !~# !~# !f!l# !~!~!~!k!~!~!~!~!~# #!##!s#+!F!= q p!,!0!F!L!P G ! 6 ) + ( ) ) ) ) , , & 6 u | p!4#9!k!~!~!k!k!~!e!k!|!e!e!|!e!}!~!k!k!e!k!~# !k!e!|!~!~!~# !~# # !~!l!~!~!k!|!~!~!k!~!k!k!~!~!~!~!|!~!~ n h f          ",
"        #g#`#M#H#>!w#$!~###!!~!~# # # # !k!k# # !~!~!|!~# !~!k#!#!#!#!#!#!#!!e#;!D!I#F!V!J | x!A!D#G z ! 6 , ( ) , ) ( ) ( ) 6 ! G | x!,!e!~!k!~!~!~!~!~!|!e!e!e!e!a!|!e!f!~!~!k!k!~!~!e!k!e!~!~!~# # !~!l!~!~!~!|# !~!~!~!~!~!~!k!k!~!~!~!k#7!8 i i            ",
"          #g#U#P#2!u#$!~### !~!~!}!~!~# !~# !l!~!~# !~!~!~!k#!#!#!#####!###$!]#+!B!T t U c u z!P#R#J O & : ) ( ) ) ( ) ) ) ( : ! V!! s!(#8!k!~!~!k!~# !~!k!k!|!e!e!e!~# !~!~# !~!k!e!e!e!}!}!|!k# # # # #!!~!k!k!e!~!~!k!~!~!k!k!k!~!e!~!k!k#7!% i k            ",
"          #g#Z#M#F#(!_#!# !~!~!k!}!~!~# # # # # !~!~# !~!~!~#!#!#!### #!##!o!{!F!>!R O ! ! ( G ` t O ! 6 ' ) ) ) ) ( + , ) ) 6 ! c | r!0#8!j!~!~!k!k!~!k!k# !|!e!f!|!|!~!~# !~# !~!k!|!|!|!|!e# !~!k# # !~!~!~!~!e!k!k!~!|!|!~!l!k!|!e!|!k# !9 m m              ",
"            #f#R#O#0!u#&#!!~!~# !~!~# # # # ##!~# #!#!#!##!~# !o#!##### ##!e#;!E!L!K E ; > ' ! ! ! ! 6 ( ) ) + ) , ( ( ) ( , $ ? e v o!7#9!k!k!k!o!k!k!e!|!|!|!e!|!~!~!e!|!~!}# !|!|!e!|!|!|!|!|!k!~!k!~# # # !~!|!~!~# !~!~!~!~!~!k!|!~!k#7!' i m              ",
"            #g#Y#M#D!r!{#!!~!~!~# ##### !~!~# # # #####!##!~# # !~!~#!!~##!a#)!A!N t ! ! ! < > ? > : ( ( ) ) ( ) , ) , ) ) , ! B b c j!)!6!}#8#9#!!k!k!k!|!e!e!}# !~!~!~!~# !k!~!~!|!|!|!}!}!|!~!e!~!~!l!l!~# !~!k!k!~# !e!~!~!k!~!~!k!k# !7!# n k              ",
"              #e#P#O#0!u#%# !~!~# !~!~!~# !~!~!e!~# # !~!~!~# # !~!~!~#!#!!a#=!A!  w ` M 8 ! ! ! ) = : 6 , ( ) ) ( ) ) ) ) , & : V a d r!+!%!(!2!e#8!~!~!e!e!e# !e!l!~!~# !~!~!~!~!~!|!}!}# !~!~!|!~!~# !~!|!~# !k!f!~!|!e!|!~##!~!~!~!e#7!( m!+                ",
"              #g#Y#M#E#'!y##!~# # !~# !~!~!~# # !~!}!~!~# !~!~!~!~!~# # ##!k#:!D ~!J!R!P!! u V G & ! ! ! 4 > : 6 , ( ( , ( ' 4 ! G c w } { x q o!,!5##!k!~!k!|!~!l!~# !~!~!~##!k!~!~# !}# # !~!~# !l!k# # !l!~!~!~!~!|!~!~!e!~##!~!~!k!~!7!# n k                ",
"                #f#Q#P#1!X#$!~# # !~##!~!~# !~# # # !~!~!~!l# !~!~!~!~!~!~#!!{#=!G!H!C!@!M!R!S!P!  e U G ! ! ! ! 6 < : , ( ( ( ) ! F U c v y v e d!,#7!o!k!~!~!~# !~!~!e!|# # !~!k!~!|!|# # # !~!~!~!l# # # !~!k!~!~!~!~# !~!~# !k!~!k#7!( n!,                  ",
"                #g#Z#K#5#=!w!o!k!~### # !~!~!~!~!~!~!~!~!k#!!~!~!~!~!~!~!~# #!!a#:#*#-!G!E!B!C!@!M!R!S!N z c P E ! ! ! ! : > 8 ) , ! ! ! B G N V c o![##!k!l!~!~# #!!~!k!~# !k!~!~!l!~# !|!}!k# !~!k!~!~# # !~!k!k!~!~!~!~!~!~!l!~!k#7!9!#!$ o                  ",
"                  #g#T#P#4!Y#!!~!k!~!~!~!~!~!~# !~# # !~!~!~!~!~!~!~!k!~!~# ##!o!e!]!x#7#;#>#.!G!E!B!>!@!O!S!S!K y b O B ! ! ! $ = > : 6 ' ! ! b u!+!^##!~!~!~#!!~!~###!!~!k!~!~!~!~!~# !~# !~!~!k!~!~!~# !k!~# !k!~!~!~!~!~!~!~!~!k#7!.!#!.                    ",
"                  #g#_#K#L#-!X#$!~!~!|!~!~!e!~# !~!~!~!~!~!~!~!~!~!~!k!k!~!~#!!k!k!k!o!k!a!]!x#8#<#>#.!D!I!B!>!L!O!S!R!J v ` M 5 ! ! ! , ? 6 M y s!%#7!o!k!~!~# !~!~# #!### !k!~#!!~!~!~!~!~# !l!l# !k!~# !~!|!~!~!~!~#!!~# !~!~!k#7!8!$!&                      ",
"                    #g#X#L#D#'!y#!!~!~!~# !~# # ##!~# !e!~!~!~# !~!~!~!~!~!~!~!l!k!e!~#!!o#!!o!k!_!Z!z#:#)#?#/!D!H!C!>!L!R!S!P!! t V G ! ! ! b!J q!)#9!o# # !l!k!~!~# # !k!~!k!~!~!~!~!~!k!~# # !~# !~# # # !~!~!~#!!~# !l# !~!e!~!7!%!&!/                      ",
"                    #f#e#Q#Q#3!Y#!!k!~# # !~##!~# !~# !~!~!k!|!~# !~!k!~!~!~!~# !~!k!~# !~!k!~!~!~!o#!!k!a!x#6#:#=#,!F!E!H!C!@!M!R!S!N z e U!J!M p!2#9!k!~!p# !~!~#!!l!~!k!~!~!k!k!~!~!k!~!~!~!~!~# # !~# !~# !k!~!~!~# !~!~!~!k#6!*!%!8                        ",
"                      #g#^#K#M#.!u#$!k!~!~# !~# !|!k!k!l!k!k!~!~# !~!k!~!~!~!k!~!~!k!k!k#!!~!~!~!~!k!l#!#!#$!q!j!_!x!}#;#*#-!G!E!B!>!@!O!T!U#C!E!.!c##!k!~# !~# !~!~!~!~!~# !k!l!~# !~!~!~!~!k!~!~# # !~!~!~!~!~!~!~!~!~!~!~!k#7!8!%!0                          ",
"                        #g#X#K#G#*!w#$!e!k!~!~!~!~!k!k!k!k!~!~#!!k!~!~!~!~!~!k!k!~!~!~# #!#!!|!e!k!~!~#!!~!~!o!p#!!o!k!a!]!x#7#(#>#.!D!E!B!B!F#'!9##!k!k!k!k!~# !~!~!~!~# !|!~!~!~!k#!#!!~!k# # # !~!~!~!~!|!~!~!~!~!k!~!l!k#7!:!.!0!s                          ",
"                        #f#g#T#N#B!r!_!p!e!k!k!~!~!~!k!k!k!k# !~!~!|!~!~!k#!##!k!~!~!~# #!!~!e!~!~!~!~!~!~!k!~!~!k!k!~!p!o#!!k!`!]!z#:#)#>#+#)#$# !k!k!~!~!k!l!~!~# !~!k!~!k!~!~# !k#!####### #!!~!~# # !~!~# # # !~!~!~!k# !h!(!0#)                            ",
"                          #g#b#N#Q#4!Z!k!k!e!k!k!~!~!~!k!k!k!~!k!~!k!k!k!k# # !l!k!k# !~# !k# !~!~!~!~!~!~!k!~#!!~!~!k!~!k#!#!#!#$!q!o!`!_!z!}#!!k!e!e!e!e!e# !k!k!~!~!~!~!~!~# # !~!k!~!~!~!l!~!~# # !~# # !k!~### !~!~!k#6!*!)#&                              ",
"                            #g#^#K#P#1!X#!!k!k!k!~!~!~!~!~!~!k!~!~!k!k!~!~!k!k!~!k!l# # !~!~!~!k# !~!~!~!~!~!~# !~!~!~!~!~!k#!#!!k!o!o!o#$!q!p# !e!e!e!e!e!e!e!k# !~!~!k# # !~!~!~# # !~!~!~!~!~!~# !~!~!~!~!k!k!~!~!k!k#7!1!)!Z                                ",
"                              #g#Y#I#M#/!u!q!k!k!k!k!~!~!~!~!~!~!~!~!~!k!k!k!k!~# # # !k!k!k!k!k!~# !~!~!~!~### # !k!k!k!k!k#!#!!k#!!~#!#!#!!k!k!k!e!k!e!e!e!e# !~!k!k!k# !~# !~!~!~!~# !~!~!~!~!k!k!~!~!~!~!~# !~!k!k#7!3!1!X#.                                ",
"                                #g#X#J#I#.!X#$!k!~!~!k!~!~!~!~!k!~!e!k!k!|!k!e!~!k!~!~!~!k!~!k!k!k!~# !~!|!k!~!~!k!k!k!k!~!l!~!k!~!k!k!~!~!k!~!k!k!k!k!~!~!e!f!k!l!k!}!~!k!k!~# # !~# ### !~!~!k!k!~!~!k# !~!~!~!k!k#7!5!1!Y#.                                  ",
"                                #f#g#W#J#I#.!u#$!~!~# # !k!k!~!k# !|# # !~!~!e!e!k!k!k!k!o!k!k!k!l!k!~!e!k!e!e!~!k!k!k!~!k!k#!!k!k!k!~##!~!o!k!k!~!~!k!e!e!|!|!k!~!k!|!~!k!~!~!~# # !l!~!~!~!k!~!k!k!k# !~!~!~!~!k#7!5!1!Y#,                                    ",
"                                  #f#g#V#K#I#.!u!o!p!~!~!~!k!k!k!~!}!~# !~!~!k!k!k!e!e!e!~!~!~!k!k!k!k!k!~!~!e!e!~!~!~!~!~!k!k!~!k!~!~!k# ##!~# !k# !|!e!~!|!~# !k!l!k!e!~!|!~!~!k!~# # !~!~# !~!~!k!~!~!~!~!k!~#7!9!3!{#-                                      ",
"                                    #f#g#V#K#I#.!u#!!o!~!~!k!k!l!~!~#####!!~!l!k!~!k!e!e!k!k!k!~!k!k#!!k!k!e# !l!e!~# !~!k!k!~!~!~!~!~!k!l!~!~# !l!~!e!e!~!e!~!~# # # # !~!~!|!~!k!~!k!k# !~!k!~!~!~!~!~!~!~# # !7!9!r#/                                        ",
"                                      #f#g#V#J#K#0!Y!f!o!k# !~!e!~#!#!#!#!##!k#!!~!~!k!e!~!e!k!l# !~!~!k!~!~!l!k!e!~# !~!e!f!~!~!k!~!k!~!~!k!k!|!l!~!k!k!~!k!k!k!~!~!e!~# !k!k# !k!k!k!k!~!~!l!k!~# !k!k!~# !~!7!:#)#0                                          ",
"                                        #f#g#X#J#N#3!o!w!q!k!k!~!~!~# #!### !k!~!~# !k!e!e!|!|!~# !~!k!~!k!k!k!k!k!k!l# !e!|!k# !~!k!k!~!~!~!k!|!~!~!k!~# !k!~!e!~!k!~!~!~!e!k!l!k# # # # !e!~# # !k!~!|# !k!7#(#*#1                                            ",
"                                          #f#g#Y#K#P#A#)!u!o#!!~!~!~!~#!# !|!|!~!k!~!|!e!e!~!~!~!~!k!k!~!k!k!k!k!k!k!l!l!}!e!k!~!l!~!~!~!k!~!k!k!~!k!e!~# !k!~!~!l!k# !~!~!k!k!~!k!~!~# !k!e# !~!~!k!k!~!^!g#=#,#4                                              ",
"                                              #g#[#M#O#E#,!Y!}#$!~!~!~!~!~!k!e!e!e!e!e!~!k!~!k!~!|!~# !~!k!k!k!k!k!k!k!k!~!e!|!~!~# # # !~!~!k!~# !~!e!}!l!e!k!~!e!|!~!~!~!k!~!k!k!~!|!k!~!~!~!~!~!k!~!^!r#>#/#B                                                ",
"                                                #g#`#S#L#I#2#&!v#$#!!~!e!~!~!k!k!e!e!|!~!l!~!~!~!e# !~!~!k!k!k!k!k!e!k!|!k!~!|!~!k!~!~!k# !~!k!~!~# !k!|# !k!k!k!k!e!~!~!~!k!~!k!k!k!k!~!~!~!~!~#!!a!k#)#?#1                                                    ",
"                                                  #g#g#W#K#P#B#+!v!{#$!k!e!l!l!~!e!~!~!k!|!e!e!|!k!~!~# !k!k!e!k!k!k!k!k!e!~!~!e!e!e!k!~!l!k!k!l!k!~!~!~!l!k!k!k!~!e!k!~!~# !~!k!|!~!~!~!~!k!~!|!a#'#+#/#4                                                      ",
"                                                    #g#g#Z#O#M#H#@#(!u!|!o!k# # !~# # # !k!k!|!~# # ##!k!k!k!~!k!k!~!~!~!|!~!~!}!~!~!|!e!|!k!k!k!k!k!k!|!k!k!k!~!~!k!~!~!~!~!~!~!~!|!~# !~!k!{#&#>#.#2#D                                                        ",
"                                                        #g#c#V#L#O#E#/!q!X!e#!!~!~!~!~!~!~!k!~!~!~!~!~!k!~!~!e!~!~# !k!~!~!~!|!~!~!~!~!~!k!k!~!k!k!k!l!e!k!~!k!~##!~!~!~!k!~# !k# !~!~# !{#&#*#.#1#A                                                            ",
"                                                          #g#g#[#S#M#M#B#.!q!X!a#$#!!k!~!~# !k!k!k# # !k!~!~!~!~!~!~!k!~!k!e!~!~!e!e!~!~!k!~!~!~!k!k!k!k# !k!~# ##!~!~!k!~!k#!# !k!|!_#&#*#.#1#A#H                                                              ",
"                                                              #g#g#Y#P#M#K#B#.!r!u!w!k!o!o!k!k!l!f!l# # !|!k!~!~# !k!~!e!e!k!~!e!e!~!~!k!~# !~!~!k!l!k!k!k!e!e# #!!~!~!~!k#!!~!{!a#'#>#/#2#A#G                                                                  ",
"                                                                  #g#c#X#O#N#L#C#0#=!Z!Y!a!o!q!o!k!~!~# !~# !~!~!~!~!~!|!e!~# !k!~# !k!k!~!~!e!e!e!k!k!k!k!e!e!~!~!k#!# !}!y!o#)#,#0#3#B#G#[                                                                    ",
"                                                                      #g#c#X#R#N#M#F#4#-#'!Y!Y!y!~#!###!!~!~!k!~# # !}!e!e!e!e!k!~# !~!~!~!k!e!k!k!k!~!~!k!~!~# !|!_!_# #(#+#/#3#A#D#K#^                                                                        ",
"                                                                          #g#f#Z#T#O#O#I#D#3#-#)!y!X!v!x!|!k#!#$#%#!!k!~!e!e!k# !k!k!l##!k!k#!!o!o!o#!!~!e!y!Z!z#%#<#+#/#2#A#D#H#V#a                                                                            ",
"                                                                              #g#g#^#X#R#O#N#I#E#A#0#,#)#%!Z!v!v!w!]!_!a!e!e!~#!!o!p##!~!k!e!a!y!]!Z!w!_#&#)#+#.#1#4#B#F#I#U#[#g                                                                                ",
"                                                                                  #g#g#g#^#X#T#Q#O#M#H#E#B#3#0#-#+#=#'#&!k!z!w!x!]!x!{!|!k#&#'#)#>#,#.!t#3#A#C#5#J#S#X#[#f                                                                                      ",
"                                                                                        #g#g#g#`#Y#W#T#R#P#N#K#I#G#E#C#B#A#4#3#3#3#2#3#4#4#A#B#C#D#F#G#I#P#U#X#Z#`#g                                                                                            ",
"                                                                                                #g#g#g#`#[#Y#X#V#T#S#S#R#R#P#O#O#O#O#O#Q#R#S#T#U#V#X#Y#[#`#g#g                                                                                                  ",
"                                                                                                          #g#g#g#g#e#`#_#^#[#]#]#]#]#^#^#_#`#c#g#g#g#g                                                                                                          ",
"                                                                                                                                                                                                                                                                "};
